P3
# Original Fio oil-drum texture atlas. Inspired by common painted steel oil drums and CC0/PD references.
256 256
255
24 28 28 24 28 28 24 28 28 51 58 67 58 65 74 64 71 80 24 28 28 68 75 84 49 56 65 57 64 73 64 71 80 24 28 28 53 60 69 66 73 82 55 62 71 64 71 80
24 28 28 24 28 28 24 28 28 24 28 28 24 28 28 24 28 28 24 28 28 24 28 28 24 28 28 24 28 28 24 28 28 24 28 28 24 28 28 24 28 28 24 28 28 24 28 28
24 28 28 24 28 28 24 28 28 24 28 28 24 28 28 24 28 28 24 28 28 24 28 28 24 28 28 24 28 28 24 28 28 24 28 28 24 28 28 24 28 28 24 28 28 24 28 28
24 28 28 24 28 28 24 28 28 24 28 28 24 28 28 24 28 28 24 28 28 24 28 28 24 28 28 24 28 28 24 28 28 24 28 28 24 28 28 24 28 28 24 28 28 24 28 28
24 28 28 24 28 28 24 28 28 24 28 28 24 28 28 24 28 28 24 28 28 24 28 28 24 28 28 24 28 28 24 28 28 24 28 28 24 28 28 24 28 28 24 28 28 24 28 28
24 28 28 24 28 28 24 28 28 24 28 28 24 28 28 24 28 28 24 28 28 24 28 28 24 28 28 24 28 28 24 28 28 24 28 28 24 28 28 24 28 28 24 28 28 24 28 28
24 28 28 24 28 28 24 28 28 24 28 28 24 28 28 24 28 28 24 28 28 24 28 28 24 28 28 24 28 28 24 28 28 24 28 28 24 28 28 24 28 28 24 28 28 24 28 28
24 28 28 24 28 28 24 28 28 24 28 28 24 28 28 24 28 28 24 28 28 24 28 28 24 28 28 24 28 28 24 28 28 24 28 28 24 28 28 24 28 28 24 28 28 24 28 28
24 28 28 24 28 28 24 28 28 24 28 28 24 28 28 24 28 28 24 28 28 24 28 28 24 28 28 24 28 28 24 28 28 24 28 28 24 28 28 24 28 28 24 28 28 24 28 28
24 28 28 24 28 28 24 28 28 24 28 28 24 28 28 24 28 28 24 28 28 24 28 28 24 28 28 24 28 28 24 28 28 24 28 28 24 28 28 24 28 28 24 28 28 24 28 28
24 28 28 24 28 28 24 28 28 24 28 28 24 28 28 24 28 28 24 28 28 24 28 28 24 28 28 24 28 28 24 28 28 24 28 28 24 28 28 24 28 28 24 28 28 24 28 28
24 28 28 24 28 28 24 28 28 24 28 28 24 28 28 24 28 28 24 28 28 24 28 28 24 28 28 24 28 28 24 28 28 24 28 28 24 28 28 24 28 28 24 28 28 24 28 28
24 28 28 24 28 28 24 28 28 24 28 28 24 28 28 24 28 28 24 28 28 24 28 28 24 28 28 24 28 28 24 28 28 24 28 28 24 28 28 24 28 28 24 28 28 24 28 28
24 28 28 24 28 28 24 28 28 24 28 28 24 28 28 24 28 28 24 28 28 24 28 28 24 28 28 24 28 28 24 28 28 24 28 28 24 28 28 24 28 28 24 28 28 24 28 28
24 28 28 24 28 28 24 28 28 24 28 28 24 28 28 24 28 28 24 28 28 24 28 28 24 28 28 24 28 28 24 28 28 24 28 28 24 28 28 24 28 28 24 28 28 24 28 28
24 28 28 24 28 28 24 28 28 24 28 28 24 28 28 24 28 28 24 28 28 24 28 28 24 28 28 24 28 28 24 28 28 24 28 28 24 28 28 24 28 28 24 28 28 24 28 28
24 28 28 24 28 28 24 28 28 46 53 62 60 67 76 52 59 68 24 28 28 44 51 60 69 76 85 47 54 63 53 60 69 24 28 28 68 75 84 42 49 58 43 50 59 41 48 57
24 28 28 24 28 28 24 28 28 24 28 28 24 28 28 24 28 28 24 28 28 24 28 28 24 28 28 24 28 28 24 28 28 24 28 28 24 28 28 24 28 28 24 28 28 24 28 28
24 28 28 24 28 28 24 28 28 24 28 28 24 28 28 24 28 28 24 28 28 24 28 28 24 28 28 24 28 28 24 28 28 24 28 28 24 28 28 24 28 28 24 28 28 24 28 28
24 28 28 24 28 28 24 28 28 24 28 28 24 28 28 24 28 28 24 28 28 24 28 28 24 28 28 24 28 28 24 28 28 24 28 28 24 28 28 24 28 28 24 28 28 24 28 28
24 28 28 24 28 28 24 28 28 24 28 28 24 28 28 24 28 28 24 28 28 24 28 28 24 28 28 24 28 28 24 28 28 24 28 28 24 28 28 24 28 28 24 28 28 24 28 28
24 28 28 24 28 28 24 28 28 24 28 28 24 28 28 24 28 28 24 28 28 24 28 28 24 28 28 24 28 28 24 28 28 24 28 28 24 28 28 24 28 28 24 28 28 24 28 28
24 28 28 24 28 28 24 28 28 24 28 28 24 28 28 24 28 28 24 28 28 24 28 28 24 28 28 24 28 28 24 28 28 24 28 28 24 28 28 24 28 28 24 28 28 24 28 28
24 28 28 24 28 28 24 28 28 24 28 28 24 28 28 24 28 28 24 28 28 24 28 28 24 28 28 24 28 28 24 28 28 24 28 28 24 28 28 24 28 28 24 28 28 24 28 28
24 28 28 24 28 28 24 28 28 24 28 28 24 28 28 24 28 28 24 28 28 24 28 28 24 28 28 24 28 28 24 28 28 24 28 28 24 28 28 24 28 28 24 28 28 24 28 28
24 28 28 24 28 28 24 28 28 24 28 28 24 28 28 24 28 28 24 28 28 24 28 28 24 28 28 24 28 28 24 28 28 24 28 28 24 28 28 24 28 28 24 28 28 24 28 28
24 28 28 24 28 28 24 28 28 24 28 28 24 28 28 24 28 28 24 28 28 24 28 28 24 28 28 24 28 28 24 28 28 24 28 28 24 28 28 24 28 28 24 28 28 24 28 28
24 28 28 24 28 28 24 28 28 24 28 28 24 28 28 24 28 28 24 28 28 24 28 28 24 28 28 24 28 28 24 28 28 24 28 28 24 28 28 24 28 28 24 28 28 24 28 28
24 28 28 24 28 28 24 28 28 24 28 28 24 28 28 24 28 28 24 28 28 24 28 28 24 28 28 24 28 28 24 28 28 24 28 28 24 28 28 24 28 28 24 28 28 24 28 28
24 28 28 24 28 28 24 28 28 24 28 28 24 28 28 24 28 28 24 28 28 24 28 28 24 28 28 24 28 28 24 28 28 24 28 28 24 28 28 24 28 28 24 28 28 24 28 28
24 28 28 24 28 28 24 28 28 24 28 28 24 28 28 24 28 28 24 28 28 24 28 28 24 28 28 24 28 28 24 28 28 24 28 28 24 28 28 24 28 28 24 28 28 24 28 28
24 28 28 24 28 28 24 28 28 24 28 28 24 28 28 24 28 28 24 28 28 24 28 28 24 28 28 24 28 28 24 28 28 24 28 28 24 28 28 24 28 28 24 28 28 24 28 28
24 28 28 24 28 28 24 28 28 62 69 78 49 56 65 45 52 61 24 28 28 49 56 65 62 69 78 49 56 65 55 62 71 24 28 28 66 73 82 47 54 63 51 58 67 64 71 80
24 28 28 24 28 28 24 28 28 24 28 28 24 28 28 24 28 28 24 28 28 24 28 28 24 28 28 24 28 28 24 28 28 24 28 28 24 28 28 24 28 28 24 28 28 24 28 28
24 28 28 24 28 28 24 28 28 24 28 28 24 28 28 24 28 28 24 28 28 24 28 28 24 28 28 24 28 28 24 28 28 24 28 28 24 28 28 24 28 28 24 28 28 24 28 28
24 28 28 24 28 28 24 28 28 24 28 28 24 28 28 24 28 28 24 28 28 24 28 28 24 28 28 24 28 28 24 28 28 24 28 28 24 28 28 24 28 28 24 28 28 24 28 28
24 28 28 24 28 28 24 28 28 24 28 28 24 28 28 24 28 28 24 28 28 24 28 28 24 28 28 24 28 28 24 28 28 24 28 28 24 28 28 24 28 28 24 28 28 24 28 28
24 28 28 24 28 28 24 28 28 24 28 28 24 28 28 24 28 28 24 28 28 24 28 28 24 28 28 24 28 28 24 28 28 24 28 28 24 28 28 24 28 28 24 28 28 24 28 28
24 28 28 24 28 28 24 28 28 24 28 28 24 28 28 24 28 28 24 28 28 24 28 28 24 28 28 24 28 28 24 28 28 24 28 28 24 28 28 24 28 28 24 28 28 24 28 28
24 28 28 24 28 28 24 28 28 24 28 28 24 28 28 24 28 28 24 28 28 24 28 28 24 28 28 24 28 28 24 28 28 24 28 28 24 28 28 24 28 28 24 28 28 24 28 28
24 28 28 24 28 28 24 28 28 24 28 28 24 28 28 24 28 28 24 28 28 24 28 28 24 28 28 24 28 28 24 28 28 24 28 28 24 28 28 24 28 28 24 28 28 24 28 28
24 28 28 24 28 28 24 28 28 24 28 28 24 28 28 24 28 28 24 28 28 24 28 28 24 28 28 24 28 28 24 28 28 24 28 28 24 28 28 24 28 28 24 28 28 24 28 28
24 28 28 24 28 28 24 28 28 24 28 28 24 28 28 24 28 28 24 28 28 24 28 28 24 28 28 24 28 28 24 28 28 24 28 28 24 28 28 24 28 28 24 28 28 24 28 28
24 28 28 24 28 28 24 28 28 24 28 28 24 28 28 24 28 28 24 28 28 24 28 28 24 28 28 24 28 28 24 28 28 24 28 28 24 28 28 24 28 28 24 28 28 24 28 28
24 28 28 24 28 28 24 28 28 24 28 28 24 28 28 24 28 28 24 28 28 24 28 28 24 28 28 24 28 28 24 28 28 24 28 28 24 28 28 24 28 28 24 28 28 24 28 28
24 28 28 24 28 28 24 28 28 24 28 28 24 28 28 24 28 28 24 28 28 24 28 28 24 28 28 24 28 28 24 28 28 24 28 28 24 28 28 24 28 28 24 28 28 24 28 28
24 28 28 24 28 28 24 28 28 24 28 28 24 28 28 24 28 28 24 28 28 24 28 28 24 28 28 24 28 28 24 28 28 24 28 28 24 28 28 24 28 28 24 28 28 24 28 28
24 28 28 24 28 28 24 28 28 24 28 28 24 28 28 24 28 28 24 28 28 24 28 28 24 28 28 24 28 28 24 28 28 24 28 28 24 28 28 24 28 28 24 28 28 24 28 28
24 28 28 24 28 28 24 28 28 42 49 58 53 60 69 48 55 64 24 28 28 53 60 69 49 56 65 66 73 82 51 58 67 24 28 28 51 58 67 57 64 73 45 52 61 50 57 66
24 28 28 24 28 28 24 28 28 24 28 28 24 28 28 24 28 28 24 28 28 24 28 28 24 28 28 24 28 28 24 28 28 24 28 28 24 28 28 24 28 28 24 28 28 24 28 28
24 28 28 24 28 28 24 28 28 24 28 28 24 28 28 24 28 28 24 28 28 24 28 28 24 28 28 24 28 28 24 28 28 24 28 28 24 28 28 24 28 28 24 28 28 24 28 28
24 28 28 24 28 28 24 28 28 24 28 28 24 28 28 24 28 28 24 28 28 24 28 28 24 28 28 24 28 28 24 28 28 24 28 28 24 28 28 24 28 28 24 28 28 24 28 28
24 28 28 24 28 28 24 28 28 24 28 28 24 28 28 24 28 28 24 28 28 24 28 28 24 28 28 24 28 28 24 28 28 24 28 28 24 28 28 24 28 28 24 28 28 24 28 28
24 28 28 24 28 28 24 28 28 24 28 28 24 28 28 24 28 28 24 28 28 24 28 28 24 28 28 24 28 28 24 28 28 24 28 28 24 28 28 24 28 28 24 28 28 24 28 28
24 28 28 24 28 28 24 28 28 24 28 28 24 28 28 24 28 28 24 28 28 24 28 28 24 28 28 24 28 28 24 28 28 24 28 28 24 28 28 24 28 28 24 28 28 24 28 28
24 28 28 24 28 28 24 28 28 24 28 28 24 28 28 24 28 28 24 28 28 24 28 28 24 28 28 24 28 28 24 28 28 24 28 28 24 28 28 24 28 28 24 28 28 24 28 28
24 28 28 24 28 28 24 28 28 24 28 28 24 28 28 24 28 28 92 92 85 88 89 83 103 103 95 99 99 91 92 92 86 85 86 80 80 81 76 96 96 89 90 90 84 87 88 82
75 77 72 100 99 92 74 76 71 93 93 86 24 28 28 24 28 28 24 28 28 24 28 28 24 28 28 24 28 28 24 28 28 24 28 28 24 28 28 24 28 28 24 28 28 24 28 28
24 28 28 24 28 28 24 28 28 24 28 28 24 28 28 24 28 28 24 28 28 24 28 28 24 28 28 24 28 28 24 28 28 24 28 28 24 28 28 24 28 28 24 28 28 24 28 28
24 28 28 24 28 28 24 28 28 24 28 28 24 28 28 24 28 28 24 28 28 24 28 28 24 28 28 24 28 28 24 28 28 24 28 28 24 28 28 24 28 28 24 28 28 24 28 28
24 28 28 24 28 28 24 28 28 24 28 28 24 28 28 24 28 28 24 28 28 24 28 28 24 28 28 24 28 28 24 28 28 24 28 28 24 28 28 24 28 28 24 28 28 24 28 28
24 28 28 24 28 28 24 28 28 24 28 28 24 28 28 24 28 28 24 28 28 24 28 28 24 28 28 24 28 28 24 28 28 24 28 28 24 28 28 24 28 28 24 28 28 24 28 28
24 28 28 24 28 28 24 28 28 24 28 28 24 28 28 24 28 28 24 28 28 24 28 28 24 28 28 24 28 28 24 28 28 24 28 28 24 28 28 24 28 28 24 28 28 24 28 28
24 28 28 24 28 28 24 28 28 24 28 28 24 28 28 24 28 28 24 28 28 24 28 28 24 28 28 24 28 28 24 28 28 24 28 28 24 28 28 24 28 28 24 28 28 24 28 28
24 28 28 24 28 28 24 28 28 60 67 76 63 70 79 66 73 82 24 28 28 42 49 58 62 69 78 43 50 59 69 76 85 24 28 28 59 66 75 49 56 65 65 72 81 49 56 65
24 28 28 24 28 28 24 28 28 24 28 28 24 28 28 24 28 28 24 28 28 24 28 28 24 28 28 24 28 28 24 28 28 24 28 28 24 28 28 24 28 28 24 28 28 24 28 28
24 28 28 24 28 28 24 28 28 24 28 28 24 28 28 24 28 28 24 28 28 24 28 28 24 28 28 24 28 28 24 28 28 24 28 28 24 28 28 24 28 28 24 28 28 24 28 28
24 28 28 24 28 28 24 28 28 24 28 28 24 28 28 24 28 28 24 28 28 24 28 28 24 28 28 24 28 28 24 28 28 24 28 28 24 28 28 24 28 28 24 28 28 24 28 28
24 28 28 24 28 28 24 28 28 24 28 28 24 28 28 24 28 28 24 28 28 24 28 28 24 28 28 24 28 28 24 28 28 24 28 28 24 28 28 24 28 28 24 28 28 24 28 28
24 28 28 24 28 28 24 28 28 24 28 28 24 28 28 24 28 28 24 28 28 24 28 28 24 28 28 24 28 28 24 28 28 24 28 28 24 28 28 24 28 28 24 28 28 24 28 28
24 28 28 24 28 28 24 28 28 24 28 28 24 28 28 24 28 28 24 28 28 24 28 28 24 28 28 24 28 28 24 28 28 24 28 28 24 28 28 24 28 28 24 28 28 24 28 28
24 28 28 24 28 28 24 28 28 24 28 28 24 28 28 24 28 28 24 28 28 24 28 28 24 28 28 24 28 28 24 28 28 24 28 28 24 28 28 24 28 28 24 28 28 24 28 28
24 28 28 24 28 28 24 28 28 24 28 28 24 28 28 24 28 28 98 97 90 82 83 77 87 88 82 105 104 96 77 79 74 90 90 84 84 85 80 87 87 82 93 93 86 94 94 87
79 80 75 92 92 85 92 92 86 98 98 90 24 28 28 24 28 28 24 28 28 24 28 28 24 28 28 24 28 28 24 28 28 24 28 28 24 28 28 24 28 28 24 28 28 24 28 28
24 28 28 24 28 28 24 28 28 24 28 28 24 28 28 24 28 28 24 28 28 24 28 28 24 28 28 24 28 28 24 28 28 24 28 28 24 28 28 24 28 28 24 28 28 24 28 28
24 28 28 24 28 28 24 28 28 24 28 28 24 28 28 24 28 28 24 28 28 24 28 28 24 28 28 24 28 28 24 28 28 24 28 28 24 28 28 24 28 28 24 28 28 24 28 28
24 28 28 24 28 28 24 28 28 24 28 28 24 28 28 24 28 28 24 28 28 24 28 28 24 28 28 24 28 28 24 28 28 24 28 28 24 28 28 24 28 28 24 28 28 24 28 28
24 28 28 24 28 28 24 28 28 24 28 28 24 28 28 24 28 28 24 28 28 24 28 28 24 28 28 24 28 28 24 28 28 24 28 28 24 28 28 24 28 28 24 28 28 24 28 28
24 28 28 24 28 28 24 28 28 24 28 28 24 28 28 24 28 28 24 28 28 24 28 28 24 28 28 24 28 28 24 28 28 24 28 28 24 28 28 24 28 28 24 28 28 24 28 28
24 28 28 24 28 28 24 28 28 24 28 28 24 28 28 24 28 28 24 28 28 24 28 28 24 28 28 24 28 28 24 28 28 24 28 28 24 28 28 24 28 28 24 28 28 24 28 28
24 28 28 24 28 28 24 28 28 46 53 62 56 63 72 59 66 75 24 28 28 65 72 81 68 75 84 43 50 59 47 54 63 24 28 28 47 54 63 61 68 77 62 69 78 49 56 65
24 28 28 24 28 28 24 28 28 24 28 28 24 28 28 24 28 28 24 28 28 24 28 28 24 28 28 24 28 28 24 28 28 24 28 28 24 28 28 24 28 28 24 28 28 24 28 28
24 28 28 24 28 28 24 28 28 24 28 28 24 28 28 24 28 28 24 28 28 24 28 28 24 28 28 24 28 28 24 28 28 24 28 28 24 28 28 24 28 28 24 28 28 24 28 28
24 28 28 24 28 28 24 28 28 24 28 28 24 28 28 24 28 28 24 28 28 24 28 28 24 28 28 24 28 28 24 28 28 24 28 28 24 28 28 24 28 28 24 28 28 24 28 28
24 28 28 24 28 28 24 28 28 24 28 28 24 28 28 24 28 28 24 28 28 24 28 28 24 28 28 24 28 28 24 28 28 24 28 28 24 28 28 24 28 28 24 28 28 24 28 28
24 28 28 24 28 28 24 28 28 24 28 28 24 28 28 24 28 28 24 28 28 24 28 28 24 28 28 24 28 28 24 28 28 24 28 28 24 28 28 24 28 28 24 28 28 24 28 28
24 28 28 24 28 28 24 28 28 24 28 28 24 28 28 24 28 28 24 28 28 24 28 28 24 28 28 24 28 28 24 28 28 24 28 28 24 28 28 24 28 28 24 28 28 24 28 28
24 28 28 24 28 28 24 28 28 24 28 28 24 28 28 24 28 28 24 28 28 24 28 28 24 28 28 24 28 28 24 28 28 24 28 28 24 28 28 24 28 28 24 28 28 24 28 28
24 28 28 24 28 28 24 28 28 24 28 28 24 28 28 24 28 28 73 75 71 93 93 86 76 77 73 95 95 88 72 74 70 78 80 75 88 89 82 74 76 71 75 77 72 81 82 77
101 101 93 96 96 89 82 83 78 79 80 75 24 28 28 24 28 28 24 28 28 24 28 28 24 28 28 24 28 28 24 28 28 24 28 28 24 28 28 24 28 28 24 28 28 24 28 28
24 28 28 24 28 28 24 28 28 24 28 28 24 28 28 24 28 28 24 28 28 24 28 28 24 28 28 24 28 28 24 28 28 24 28 28 24 28 28 24 28 28 24 28 28 24 28 28
24 28 28 24 28 28 24 28 28 24 28 28 24 28 28 24 28 28 24 28 28 24 28 28 24 28 28 24 28 28 24 28 28 24 28 28 24 28 28 24 28 28 24 28 28 24 28 28
24 28 28 24 28 28 24 28 28 24 28 28 24 28 28 24 28 28 24 28 28 24 28 28 24 28 28 24 28 28 24 28 28 24 28 28 24 28 28 24 28 28 24 28 28 24 28 28
24 28 28 24 28 28 24 28 28 24 28 28 24 28 28 24 28 28 24 28 28 24 28 28 24 28 28 24 28 28 24 28 28 24 28 28 24 28 28 24 28 28 24 28 28 24 28 28
24 28 28 24 28 28 24 28 28 24 28 28 24 28 28 24 28 28 24 28 28 24 28 28 24 28 28 24 28 28 24 28 28 24 28 28 24 28 28 24 28 28 24 28 28 24 28 28
24 28 28 24 28 28 24 28 28 24 28 28 24 28 28 24 28 28 24 28 28 24 28 28 24 28 28 24 28 28 24 28 28 24 28 28 24 28 28 24 28 28 24 28 28 24 28 28
24 28 28 24 28 28 24 28 28 60 67 76 52 59 68 60 67 76 24 28 28 51 58 67 46 53 62 56 63 72 62 69 78 24 28 28 44 51 60 43 50 59 44 51 60 42 49 58
24 28 28 24 28 28 24 28 28 24 28 28 24 28 28 24 28 28 24 28 28 24 28 28 24 28 28 24 28 28 24 28 28 24 28 28 24 28 28 24 28 28 24 28 28 24 28 28
24 28 28 24 28 28 24 28 28 24 28 28 24 28 28 24 28 28 24 28 28 24 28 28 24 28 28 24 28 28 24 28 28 24 28 28 24 28 28 24 28 28 24 28 28 24 28 28
24 28 28 24 28 28 24 28 28 24 28 28 24 28 28 24 28 28 24 28 28 24 28 28 24 28 28 24 28 28 24 28 28 24 28 28 24 28 28 24 28 28 24 28 28 24 28 28
24 28 28 24 28 28 24 28 28 24 28 28 24 28 28 24 28 28 24 28 28 24 28 28 24 28 28 24 28 28 24 28 28 24 28 28 24 28 28 24 28 28 24 28 28 24 28 28
24 28 28 24 28 28 24 28 28 24 28 28 24 28 28 24 28 28 24 28 28 24 28 28 24 28 28 24 28 28 24 28 28 24 28 28 24 28 28 24 28 28 24 28 28 24 28 28
24 28 28 24 28 28 24 28 28 24 28 28 24 28 28 24 28 28 24 28 28 24 28 28 24 28 28 24 28 28 24 28 28 24 28 28 24 28 28 24 28 28 24 28 28 24 28 28
24 28 28 24 28 28 24 28 28 24 28 28 24 28 28 24 28 28 24 28 28 24 28 28 24 28 28 24 28 28 24 28 28 24 28 28 24 28 28 24 28 28 24 28 28 24 28 28
24 28 28 24 28 28 24 28 28 24 28 28 24 28 28 24 28 28 77 78 74 73 74 70 79 80 75 76 77 73 103 102 94 83 84 78 85 85 80 94 94 87 92 92 86 80 81 76
102 101 94 98 97 90 89 89 83 104 103 95 24 28 28 24 28 28 24 28 28 24 28 28 24 28 28 24 28 28 24 28 28 24 28 28 24 28 28 24 28 28 24 28 28 24 28 28
24 28 28 24 28 28 24 28 28 24 28 28 24 28 28 24 28 28 24 28 28 24 28 28 24 28 28 24 28 28 24 28 28 24 28 28 24 28 28 24 28 28 24 28 28 24 28 28
24 28 28 24 28 28 24 28 28 24 28 28 24 28 28 24 28 28 24 28 28 24 28 28 24 28 28 24 28 28 24 28 28 24 28 28 24 28 28 24 28 28 24 28 28 24 28 28
24 28 28 24 28 28 24 28 28 24 28 28 24 28 28 24 28 28 24 28 28 24 28 28 24 28 28 24 28 28 24 28 28 24 28 28 24 28 28 24 28 28 24 28 28 24 28 28
24 28 28 24 28 28 24 28 28 24 28 28 24 28 28 24 28 28 24 28 28 24 28 28 24 28 28 24 28 28 24 28 28 24 28 28 24 28 28 24 28 28 24 28 28 24 28 28
24 28 28 24 28 28 24 28 28 24 28 28 24 28 28 24 28 28 24 28 28 24 28 28 24 28 28 24 28 28 24 28 28 24 28 28 24 28 28 24 28 28 24 28 28 24 28 28
24 28 28 24 28 28 24 28 28 24 28 28 24 28 28 24 28 28 24 28 28 24 28 28 24 28 28 24 28 28 24 28 28 24 28 28 24 28 28 24 28 28 24 28 28 24 28 28
24 28 28 24 28 28 24 28 28 48 55 64 47 54 63 68 75 84 24 28 28 47 54 63 43 50 59 67 74 83 62 69 78 24 28 28 58 65 74 63 70 79 45 52 61 64 71 80
24 28 28 24 28 28 24 28 28 24 28 28 24 28 28 24 28 28 24 28 28 24 28 28 24 28 28 24 28 28 24 28 28 24 28 28 24 28 28 24 28 28 24 28 28 24 28 28
24 28 28 24 28 28 24 28 28 24 28 28 24 28 28 24 28 28 24 28 28 24 28 28 24 28 28 24 28 28 24 28 28 24 28 28 24 28 28 24 28 28 24 28 28 24 28 28
24 28 28 24 28 28 24 28 28 24 28 28 24 28 28 24 28 28 24 28 28 24 28 28 24 28 28 24 28 28 24 28 28 24 28 28 24 28 28 24 28 28 24 28 28 24 28 28
24 28 28 24 28 28 24 28 28 24 28 28 24 28 28 24 28 28 24 28 28 24 28 28 24 28 28 24 28 28 24 28 28 24 28 28 24 28 28 24 28 28 24 28 28 24 28 28
24 28 28 24 28 28 24 28 28 24 28 28 24 28 28 24 28 28 24 28 28 24 28 28 24 28 28 24 28 28 24 28 28 24 28 28 24 28 28 24 28 28 24 28 28 24 28 28
24 28 28 24 28 28 24 28 28 24 28 28 24 28 28 24 28 28 24 28 28 24 28 28 24 28 28 24 28 28 24 28 28 24 28 28 24 28 28 24 28 28 24 28 28 24 28 28
24 28 28 24 28 28 24 28 28 24 28 28 24 28 28 24 28 28 24 28 28 24 28 28 24 28 28 24 28 28 24 28 28 24 28 28 24 28 28 24 28 28 24 28 28 24 28 28
24 28 28 24 28 28 24 28 28 24 28 28 24 28 28 24 28 28 71 73 69 75 76 72 80 82 76 74 76 71 78 80 75 71 73 69 86 87 81 82 83 77 74 76 71 78 80 75
102 101 93 83 84 78 95 95 88 88 88 82 24 28 28 24 28 28 24 28 28 24 28 28 24 28 28 24 28 28 24 28 28 24 28 28 24 28 28 24 28 28 24 28 28 24 28 28
24 28 28 24 28 28 24 28 28 24 28 28 24 28 28 24 28 28 24 28 28 24 28 28 24 28 28 24 28 28 24 28 28 24 28 28 24 28 28 24 28 28 24 28 28 24 28 28
24 28 28 24 28 28 24 28 28 24 28 28 24 28 28 24 28 28 24 28 28 24 28 28 24 28 28 24 28 28 24 28 28 24 28 28 24 28 28 24 28 28 24 28 28 24 28 28
24 28 28 24 28 28 24 28 28 24 28 28 24 28 28 24 28 28 24 28 28 24 28 28 24 28 28 24 28 28 24 28 28 24 28 28 24 28 28 24 28 28 24 28 28 24 28 28
24 28 28 24 28 28 24 28 28 24 28 28 24 28 28 24 28 28 24 28 28 24 28 28 24 28 28 24 28 28 24 28 28 24 28 28 24 28 28 24 28 28 24 28 28 24 28 28
24 28 28 24 28 28 24 28 28 24 28 28 24 28 28 24 28 28 24 28 28 24 28 28 24 28 28 24 28 28 24 28 28 24 28 28 24 28 28 24 28 28 24 28 28 24 28 28
24 28 28 24 28 28 24 28 28 24 28 28 24 28 28 24 28 28 24 28 28 24 28 28 24 28 28 24 28 28 24 28 28 24 28 28 24 28 28 24 28 28 24 28 28 24 28 28
24 28 28 24 28 28 24 28 28 49 56 65 57 64 73 42 49 58 24 28 28 68 75 84 67 74 83 56 63 72 58 65 74 24 28 28 44 51 60 68 75 84 59 66 75 61 68 77
24 28 28 24 28 28 24 28 28 24 28 28 24 28 28 24 28 28 24 28 28 24 28 28 24 28 28 24 28 28 24 28 28 24 28 28 24 28 28 24 28 28 24 28 28 24 28 28
24 28 28 24 28 28 24 28 28 24 28 28 24 28 28 24 28 28 24 28 28 24 28 28 24 28 28 24 28 28 24 28 28 24 28 28 24 28 28 24 28 28 24 28 28 24 28 28
24 28 28 24 28 28 24 28 28 24 28 28 24 28 28 24 28 28 24 28 28 24 28 28 24 28 28 24 28 28 24 28 28 24 28 28 24 28 28 24 28 28 24 28 28 24 28 28
24 28 28 24 28 28 24 28 28 24 28 28 24 28 28 24 28 28 24 28 28 24 28 28 24 28 28 24 28 28 24 28 28 24 28 28 24 28 28 24 28 28 24 28 28 24 28 28
24 28 28 24 28 28 24 28 28 24 28 28 24 28 28 24 28 28 24 28 28 24 28 28 24 28 28 24 28 28 24 28 28 24 28 28 24 28 28 24 28 28 24 28 28 24 28 28
24 28 28 24 28 28 24 28 28 24 28 28 24 28 28 24 28 28 24 28 28 24 28 28 24 28 28 24 28 28 24 28 28 24 28 28 24 28 28 24 28 28 24 28 28 24 28 28
24 28 28 24 28 28 24 28 28 24 28 28 24 28 28 24 28 28 24 28 28 24 28 28 24 28 28 24 28 28 24 28 28 24 28 28 24 28 28 24 28 28 24 28 28 24 28 28
24 28 28 24 28 28 24 28 28 24 28 28 24 28 28 24 28 28 76 77 73 84 85 79 102 102 94 96 96 89 93 93 87 96 96 89 72 74 70 98 97 90 80 81 76 85 86 80
70 72 68 82 83 77 76 78 73 101 100 93 24 28 28 24 28 28 24 28 28 24 28 28 24 28 28 24 28 28 24 28 28 24 28 28 24 28 28 24 28 28 24 28 28 24 28 28
24 28 28 24 28 28 24 28 28 24 28 28 24 28 28 24 28 28 24 28 28 24 28 28 24 28 28 24 28 28 24 28 28 24 28 28 24 28 28 24 28 28 24 28 28 24 28 28
24 28 28 24 28 28 24 28 28 24 28 28 24 28 28 24 28 28 24 28 28 24 28 28 24 28 28 24 28 28 24 28 28 24 28 28 24 28 28 24 28 28 24 28 28 24 28 28
24 28 28 24 28 28 24 28 28 24 28 28 24 28 28 24 28 28 24 28 28 24 28 28 24 28 28 24 28 28 24 28 28 24 28 28 24 28 28 24 28 28 24 28 28 24 28 28
24 28 28 24 28 28 24 28 28 24 28 28 24 28 28 24 28 28 24 28 28 24 28 28 24 28 28 24 28 28 24 28 28 24 28 28 24 28 28 24 28 28 24 28 28 24 28 28
24 28 28 24 28 28 24 28 28 24 28 28 24 28 28 24 28 28 24 28 28 24 28 28 24 28 28 24 28 28 24 28 28 24 28 28 24 28 28 24 28 28 24 28 28 24 28 28
24 28 28 24 28 28 24 28 28 24 28 28 24 28 28 24 28 28 24 28 28 24 28 28 24 28 28 24 28 28 24 28 28 24 28 28 24 28 28 24 28 28 24 28 28 24 28 28
24 28 28 24 28 28 24 28 28 51 58 67 46 53 62 45 52 61 24 28 28 61 68 77 58 65 74 64 71 80 53 60 69 24 28 28 60 67 76 67 74 83 45 52 61 52 59 68
24 28 28 24 28 28 24 28 28 24 28 28 24 28 28 24 28 28 24 28 28 24 28 28 24 28 28 24 28 28 24 28 28 24 28 28 24 28 28 24 28 28 24 28 28 24 28 28
24 28 28 24 28 28 24 28 28 24 28 28 24 28 28 24 28 28 24 28 28 24 28 28 24 28 28 24 28 28 24 28 28 24 28 28 24 28 28 24 28 28 24 28 28 24 28 28
24 28 28 24 28 28 24 28 28 24 28 28 24 28 28 24 28 28 24 28 28 24 28 28 24 28 28 24 28 28 24 28 28 24 28 28 24 28 28 24 28 28 24 28 28 24 28 28
24 28 28 24 28 28 24 28 28 24 28 28 24 28 28 24 28 28 24 28 28 24 28 28 24 28 28 24 28 28 24 28 28 24 28 28 24 28 28 24 28 28 24 28 28 24 28 28
24 28 28 24 28 28 24 28 28 24 28 28 24 28 28 24 28 28 24 28 28 24 28 28 24 28 28 24 28 28 24 28 28 24 28 28 24 28 28 24 28 28 24 28 28 24 28 28
24 28 28 24 28 28 24 28 28 24 28 28 24 28 28 24 28 28 24 28 28 24 28 28 24 28 28 24 28 28 24 28 28 24 28 28 24 28 28 24 28 28 24 28 28 24 28 28
24 28 28 24 28 28 24 28 28 24 28 28 24 28 28 24 28 28 24 28 28 24 28 28 24 28 28 24 28 28 24 28 28 24 28 28 24 28 28 24 28 28 24 28 28 24 28 28
24 28 28 24 28 28 24 28 28 24 28 28 24 28 28 24 28 28 97 97 90 76 78 73 97 97 89 93 93 86 95 95 88 71 73 69 86 87 81 105 104 96 83 84 78 70 72 68
80 81 76 101 100 92 76 77 73 80 81 76 24 28 28 24 28 28 24 28 28 24 28 28 24 28 28 24 28 28 24 28 28 24 28 28 24 28 28 24 28 28 24 28 28 24 28 28
24 28 28 24 28 28 24 28 28 24 28 28 24 28 28 24 28 28 24 28 28 24 28 28 24 28 28 24 28 28 24 28 28 24 28 28 24 28 28 24 28 28 24 28 28 24 28 28
24 28 28 24 28 28 24 28 28 24 28 28 24 28 28 24 28 28 24 28 28 24 28 28 24 28 28 24 28 28 24 28 28 24 28 28 24 28 28 24 28 28 24 28 28 24 28 28
24 28 28 24 28 28 24 28 28 24 28 28 24 28 28 24 28 28 24 28 28 24 28 28 24 28 28 24 28 28 24 28 28 24 28 28 24 28 28 24 28 28 24 28 28 24 28 28
24 28 28 24 28 28 24 28 28 24 28 28 24 28 28 24 28 28 24 28 28 24 28 28 24 28 28 24 28 28 24 28 28 24 28 28 24 28 28 24 28 28 24 28 28 24 28 28
24 28 28 24 28 28 24 28 28 24 28 28 24 28 28 24 28 28 24 28 28 24 28 28 24 28 28 24 28 28 24 28 28 24 28 28 24 28 28 24 28 28 24 28 28 24 28 28
24 28 28 24 28 28 24 28 28 24 28 28 24 28 28 24 28 28 24 28 28 24 28 28 24 28 28 24 28 28 24 28 28 24 28 28 24 28 28 24 28 28 24 28 28 24 28 28
24 28 28 24 28 28 24 28 28 46 53 62 48 55 64 50 57 66 24 28 28 65 72 81 45 52 61 47 54 63 61 68 77 24 28 28 61 68 77 49 56 65 66 73 82 52 59 68
24 28 28 24 28 28 24 28 28 24 28 28 24 28 28 24 28 28 24 28 28 24 28 28 24 28 28 24 28 28 24 28 28 24 28 28 24 28 28 24 28 28 24 28 28 24 28 28
24 28 28 24 28 28 24 28 28 24 28 28 24 28 28 24 28 28 24 28 28 24 28 28 24 28 28 24 28 28 24 28 28 24 28 28 24 28 28 24 28 28 24 28 28 24 28 28
24 28 28 24 28 28 24 28 28 24 28 28 24 28 28 24 28 28 24 28 28 24 28 28 24 28 28 24 28 28 24 28 28 24 28 28 24 28 28 24 28 28 24 28 28 24 28 28
24 28 28 24 28 28 24 28 28 24 28 28 24 28 28 24 28 28 24 28 28 24 28 28 24 28 28 24 28 28 24 28 28 24 28 28 24 28 28 24 28 28 24 28 28 24 28 28
24 28 28 24 28 28 24 28 28 24 28 28 24 28 28 24 28 28 24 28 28 24 28 28 24 28 28 24 28 28 24 28 28 24 28 28 24 28 28 24 28 28 24 28 28 24 28 28
24 28 28 24 28 28 24 28 28 24 28 28 24 28 28 24 28 28 24 28 28 24 28 28 24 28 28 24 28 28 24 28 28 24 28 28 24 28 28 24 28 28 24 28 28 24 28 28
24 28 28 24 28 28 24 28 28 24 28 28 24 28 28 24 28 28 24 28 28 24 28 28 24 28 28 24 28 28 24 28 28 24 28 28 24 28 28 24 28 28 24 28 28 24 28 28
24 28 28 24 28 28 24 28 28 24 28 28 24 28 28 24 28 28 90 90 84 88 89 83 73 75 70 79 80 75 82 83 78 104 103 95 100 99 92 87 88 82 81 82 77 93 93 86
80 81 76 100 99 92 105 104 96 102 101 94 24 28 28 24 28 28 24 28 28 24 28 28 24 28 28 24 28 28 24 28 28 24 28 28 24 28 28 24 28 28 24 28 28 24 28 28
24 28 28 24 28 28 24 28 28 24 28 28 24 28 28 24 28 28 24 28 28 24 28 28 24 28 28 24 28 28 24 28 28 24 28 28 24 28 28 24 28 28 24 28 28 24 28 28
24 28 28 24 28 28 24 28 28 24 28 28 24 28 28 24 28 28 24 28 28 24 28 28 24 28 28 24 28 28 24 28 28 24 28 28 24 28 28 24 28 28 24 28 28 24 28 28
24 28 28 24 28 28 24 28 28 24 28 28 24 28 28 24 28 28 24 28 28 24 28 28 24 28 28 24 28 28 24 28 28 24 28 28 24 28 28 24 28 28 24 28 28 24 28 28
24 28 28 24 28 28 24 28 28 24 28 28 24 28 28 24 28 28 24 28 28 24 28 28 24 28 28 24 28 28 24 28 28 24 28 28 24 28 28 24 28 28 24 28 28 24 28 28
24 28 28 24 28 28 24 28 28 24 28 28 24 28 28 24 28 28 24 28 28 24 28 28 24 28 28 24 28 28 24 28 28 24 28 28 24 28 28 24 28 28 24 28 28 24 28 28
24 28 28 24 28 28 24 28 28 24 28 28 24 28 28 24 28 28 24 28 28 24 28 28 24 28 28 24 28 28 24 28 28 24 28 28 24 28 28 24 28 28 24 28 28 24 28 28
24 28 28 24 28 28 24 28 28 59 66 75 57 64 73 66 73 82 24 28 28 42 49 58 62 69 78 44 51 60 63 70 79 24 28 28 45 52 61 54 61 70 53 60 69 49 56 65
24 28 28 24 28 28 24 28 28 24 28 28 24 28 28 24 28 28 24 28 28 24 28 28 24 28 28 24 28 28 24 28 28 24 28 28 24 28 28 24 28 28 24 28 28 24 28 28
24 28 28 24 28 28 24 28 28 24 28 28 24 28 28 24 28 28 24 28 28 24 28 28 24 28 28 24 28 28 24 28 28 24 28 28 24 28 28 24 28 28 24 28 28 24 28 28
24 28 28 24 28 28 24 28 28 24 28 28 24 28 28 24 28 28 24 28 28 24 28 28 24 28 28 24 28 28 24 28 28 24 28 28 24 28 28 24 28 28 24 28 28 24 28 28
24 28 28 24 28 28 24 28 28 24 28 28 24 28 28 24 28 28 24 28 28 24 28 28 24 28 28 24 28 28 24 28 28 24 28 28 24 28 28 24 28 28 24 28 28 24 28 28
24 28 28 24 28 28 24 28 28 24 28 28 24 28 28 24 28 28 24 28 28 24 28 28 24 28 28 24 28 28 24 28 28 24 28 28 24 28 28 24 28 28 24 28 28 24 28 28
24 28 28 24 28 28 24 28 28 24 28 28 24 28 28 24 28 28 24 28 28 24 28 28 24 28 28 24 28 28 24 28 28 24 28 28 24 28 28 24 28 28 24 28 28 24 28 28
24 28 28 24 28 28 24 28 28 24 28 28 24 28 28 24 28 28 24 28 28 24 28 28 24 28 28 24 28 28 24 28 28 24 28 28 24 28 28 24 28 28 24 28 28 24 28 28
24 28 28 24 28 28 24 28 28 24 28 28 24 28 28 24 28 28 85 86 80 104 103 95 94 94 87 91 92 85 72 74 70 104 103 95 75 77 72 90 90 84 90 90 84 95 95 88
92 93 86 97 96 89 73 75 70 81 82 77 24 28 28 24 28 28 24 28 28 24 28 28 24 28 28 24 28 28 24 28 28 24 28 28 24 28 28 24 28 28 24 28 28 24 28 28
24 28 28 24 28 28 24 28 28 24 28 28 24 28 28 24 28 28 24 28 28 24 28 28 24 28 28 24 28 28 24 28 28 24 28 28 24 28 28 24 28 28 24 28 28 24 28 28
24 28 28 24 28 28 24 28 28 24 28 28 24 28 28 24 28 28 24 28 28 24 28 28 24 28 28 24 28 28 24 28 28 24 28 28 24 28 28 24 28 28 24 28 28 24 28 28
24 28 28 24 28 28 24 28 28 24 28 28 24 28 28 24 28 28 24 28 28 24 28 28 24 28 28 24 28 28 24 28 28 24 28 28 24 28 28 24 28 28 24 28 28 24 28 28
24 28 28 24 28 28 24 28 28 24 28 28 24 28 28 24 28 28 24 28 28 24 28 28 24 28 28 24 28 28 24 28 28 24 28 28 24 28 28 24 28 28 24 28 28 24 28 28
24 28 28 24 28 28 24 28 28 24 28 28 24 28 28 24 28 28 24 28 28 24 28 28 24 28 28 24 28 28 24 28 28 24 28 28 24 28 28 24 28 28 24 28 28 24 28 28
24 28 28 24 28 28 24 28 28 24 28 28 24 28 28 24 28 28 24 28 28 24 28 28 24 28 28 24 28 28 24 28 28 24 28 28 24 28 28 24 28 28 24 28 28 24 28 28
24 28 28 24 28 28 24 28 28 48 55 64 61 68 77 44 51 60 24 28 28 57 64 73 49 56 65 53 60 69 68 75 84 24 28 28 52 59 68 43 50 59 65 72 81 66 73 82
64 91 110 54 79 94 67 96 116 55 79 95 66 95 114 65 94 113 61 88 106 49 72 87 52 77 93 49 72 87 53 78 93 54 80 96 86 86 104 51 75 90 55 80 97 63 91 110
61 89 107 51 75 90 65 93 112 59 85 103 65 93 113 120 88 106 118 90 108 65 92 111 66 94 112 58 83 98 60 86 102 134 92 110 60 86 102 65 92 110 69 98 117 65 92 109
69 98 117 65 92 110 61 88 105 68 96 115 64 91 110 58 84 101 55 80 96 56 81 97 54 79 94 59 86 104 54 78 94 82 89 108 48 72 86 57 83 100 51 75 91 61 88 107
62 90 109 124 78 95 62 90 109 51 75 91 61 88 106 51 75 90 54 78 94 53 77 92 60 87 104 54 79 94 57 82 98 67 96 115 84 99 119 64 92 110 64 90 108 71 100 120
73 103 124 72 101 122 71 100 120 74 104 125 60 85 102 133 92 110 65 92 110 68 96 115 64 92 110 60 86 103 107 91 110 58 84 101 55 80 96 72 94 113 57 83 100 53 78 93
56 81 98 62 90 109 61 88 107 51 75 90 59 85 103 88 85 103 59 86 104 59 86 104 61 89 107 61 88 107 65 94 113 56 81 97 59 85 102 66 95 114 133 86 103 61 87 105
70 99 119 63 90 108 68 96 115 68 96 115 67 94 113 67 95 114 65 93 111 65 92 110 68 96 115 59 84 100 126 92 111 61 87 104 61 88 105 24 28 28 24 28 28 24 28 28
24 28 28 24 28 28 24 28 28 24 28 28 24 28 28 24 28 28 82 83 77 94 94 87 96 95 89 105 104 96 75 76 72 97 97 90 103 102 94 78 79 74 88 89 83 94 94 87
73 75 71 77 78 73 73 75 71 95 95 88 24 28 28 24 28 28 24 28 28 24 28 28 24 28 28 24 28 28 24 28 28 24 28 28 24 28 28 24 28 28 24 28 28 24 28 28
24 28 28 24 28 28 24 28 28 24 28 28 24 28 28 24 28 28 24 28 28 24 28 28 24 28 28 24 28 28 24 28 28 24 28 28 24 28 28 24 28 28 24 28 28 24 28 28
24 28 28 24 28 28 24 28 28 24 28 28 24 28 28 24 28 28 24 28 28 24 28 28 24 28 28 24 28 28 24 28 28 24 28 28 24 28 28 24 28 28 24 28 28 24 28 28
24 28 28 24 28 28 24 28 28 24 28 28 24 28 28 24 28 28 24 28 28 24 28 28 24 28 28 24 28 28 24 28 28 24 28 28 24 28 28 24 28 28 24 28 28 24 28 28
24 28 28 24 28 28 24 28 28 24 28 28 24 28 28 24 28 28 24 28 28 24 28 28 24 28 28 24 28 28 24 28 28 24 28 28 24 28 28 24 28 28 24 28 28 24 28 28
24 28 28 24 28 28 24 28 28 24 28 28 24 28 28 24 28 28 24 28 28 24 28 28 24 28 28 24 28 28 24 28 28 24 28 28 24 28 28 24 28 28 24 28 28 24 28 28
24 28 28 24 28 28 24 28 28 24 28 28 24 28 28 24 28 28 24 28 28 24 28 28 24 28 28 24 28 28 24 28 28 24 28 28 24 28 28 24 28 28 24 28 28 24 28 28
24 28 28 24 28 28 24 28 28 55 62 71 49 56 65 52 59 68 24 28 28 69 76 85 54 61 70 59 66 75 57 64 73 24 28 28 51 58 67 47 54 63 42 49 58 53 60 69
66 94 114 61 88 106 64 92 110 100 89 107 62 90 108 50 73 88 53 78 94 60 87 105 55 80 97 55 81 98 52 77 93 50 74 89 97 83 101 64 90 109 48 72 86 52 77 92
62 89 108 54 79 95 138 80 97 52 76 91 52 76 91 64 91 110 69 98 118 63 90 109 60 85 102 67 95 114 68 96 115 60 85 102 139 91 109 64 91 109 69 98 117 67 95 114
59 84 100 65 93 111 72 102 122 56 81 97 63 90 109 64 91 110 63 90 108 60 87 105 65 94 114 135 80 96 57 84 101 48 71 86 50 74 88 101 83 100 120 79 95 48 71 86
73 88 106 56 82 99 49 73 88 62 91 110 119 81 98 55 81 97 50 74 89 54 79 95 71 95 115 133 84 102 66 94 114 65 93 112 68 96 116 72 101 122 64 91 109 108 96 116
73 103 124 64 91 109 71 101 121 62 88 105 65 92 111 68 96 116 62 88 105 59 85 102 55 80 95 69 99 119 60 86 104 56 81 98 61 88 107 65 93 113 52 76 92 61 89 108
59 85 103 54 79 95 60 87 106 54 79 96 52 77 93 47 70 84 57 84 102 55 81 97 63 91 110 54 79 96 62 90 108 66 94 114 63 91 110 53 77 92 59 85 102 68 97 117
70 99 120 59 85 102 64 91 109 63 89 107 68 97 116 72 102 122 70 98 118 61 87 103 70 99 119 59 84 101 61 87 104 68 96 115 94 96 116 24 28 28 24 28 28 24 28 28
24 28 28 24 28 28 24 28 28 24 28 28 24 28 28 24 28 28 88 88 82 104 103 96 80 81 76 104 103 95 75 76 72 100 99 92 80 81 76 79 80 75 75 77 72 93 93 87
83 84 79 80 81 76 71 73 69 99 99 91 24 28 28 24 28 28 24 28 28 24 28 28 24 28 28 24 28 28 24 28 28 24 28 28 24 28 28 24 28 28 24 28 28 24 28 28
24 28 28 24 28 28 24 28 28 24 28 28 24 28 28 24 28 28 24 28 28 24 28 28 24 28 28 24 28 28 24 28 28 24 28 28 24 28 28 24 28 28 24 28 28 24 28 28
24 28 28 24 28 28 24 28 28 24 28 28 24 28 28 24 28 28 24 28 28 24 28 28 24 28 28 24 28 28 24 28 28 24 28 28 24 28 28 24 28 28 24 28 28 24 28 28
24 28 28 24 28 28 24 28 28 24 28 28 24 28 28 24 28 28 24 28 28 24 28 28 24 28 28 24 28 28 24 28 28 24 28 28 24 28 28 24 28 28 24 28 28 24 28 28
24 28 28 24 28 28 24 28 28 24 28 28 24 28 28 24 28 28 24 28 28 24 28 28 24 28 28 24 28 28 24 28 28 24 28 28 24 28 28 24 28 28 24 28 28 24 28 28
24 28 28 24 28 28 24 28 28 24 28 28 24 28 28 24 28 28 24 28 28 24 28 28 24 28 28 24 28 28 24 28 28 24 28 28 24 28 28 24 28 28 24 28 28 24 28 28
24 28 28 24 28 28 24 28 28 24 28 28 24 28 28 24 28 28 24 28 28 24 28 28 24 28 28 24 28 28 24 28 28 24 28 28 24 28 28 24 28 28 24 28 28 24 28 28
24 28 28 24 28 28 24 28 28 42 49 58 47 54 63 49 56 65 24 28 28 56 63 72 44 51 60 54 61 70 43 50 59 24 28 28 54 61 70 55 62 71 44 51 60 68 75 84
53 78 94 58 85 103 51 75 91 51 76 91 56 82 99 52 78 94 48 72 87 56 83 101 54 81 98 58 85 104 55 82 100 130 72 88 57 85 103 122 75 91 64 87 106 47 71 85
54 79 96 85 86 104 61 89 108 54 80 96 58 84 102 65 94 113 57 83 100 58 84 101 67 96 115 54 79 94 56 81 97 67 95 115 70 100 120 69 98 119 67 96 116 67 96 116
64 91 110 59 85 102 57 83 99 60 86 104 67 96 117 59 85 103 77 92 112 55 80 97 81 88 107 51 76 91 54 81 98 54 80 97 51 76 92 55 82 100 47 71 86 46 70 85
88 81 99 56 82 100 49 74 89 53 79 96 51 76 93 56 82 99 51 76 91 124 80 97 63 92 111 55 81 97 53 78 94 62 90 108 63 90 109 69 98 119 65 93 112 64 92 111
68 98 118 105 94 114 71 101 121 63 91 109 65 93 113 69 98 118 65 93 112 89 94 114 114 88 106 57 83 100 123 83 101 54 79 96 52 77 93 58 85 103 54 79 96 48 72 87
54 80 97 101 79 97 59 87 105 51 77 93 53 79 96 76 83 102 56 82 100 45 68 82 52 77 93 55 81 98 52 78 94 61 89 108 63 92 111 63 92 112 53 78 94 57 83 100
54 78 94 58 83 100 58 83 100 62 89 107 57 83 99 67 96 116 60 86 103 59 85 102 106 93 113 83 98 118 85 96 116 65 94 113 59 86 104 24 28 28 24 28 28 24 28 28
24 28 28 24 28 28 24 28 28 24 28 28 24 28 28 24 28 28 93 93 86 102 101 94 88 89 83 81 82 77 70 72 68 99 98 91 94 94 88 102 101 93 100 99 92 71 73 69
96 96 89 90 90 84 92 93 86 101 101 93 24 28 28 24 28 28 24 28 28 24 28 28 24 28 28 24 28 28 24 28 28 24 28 28 24 28 28 24 28 28 24 28 28 24 28 28
24 28 28 24 28 28 24 28 28 24 28 28 24 28 28 24 28 28 24 28 28 24 28 28 24 28 28 24 28 28 24 28 28 24 28 28 24 28 28 24 28 28 24 28 28 24 28 28
24 28 28 24 28 28 24 28 28 24 28 28 24 28 28 24 28 28 24 28 28 24 28 28 24 28 28 24 28 28 24 28 28 24 28 28 24 28 28 24 28 28 24 28 28 24 28 28
24 28 28 24 28 28 24 28 28 24 28 28 24 28 28 24 28 28 24 28 28 24 28 28 24 28 28 24 28 28 24 28 28 24 28 28 24 28 28 24 28 28 24 28 28 24 28 28
24 28 28 24 28 28 24 28 28 24 28 28 24 28 28 24 28 28 24 28 28 24 28 28 24 28 28 24 28 28 24 28 28 24 28 28 24 28 28 24 28 28 24 28 28 24 28 28
24 28 28 24 28 28 24 28 28 24 28 28 24 28 28 24 28 28 24 28 28 24 28 28 24 28 28 24 28 28 24 28 28 24 28 28 24 28 28 24 28 28 24 28 28 24 28 28
24 28 28 24 28 28 24 28 28 24 28 28 24 28 28 24 28 28 24 28 28 24 28 28 24 28 28 24 28 28 24 28 28 24 28 28 24 28 28 24 28 28 24 28 28 24 28 28
24 28 28 24 28 28 24 28 28 55 62 71 56 63 72 51 58 67 24 28 28 56 63 72 64 71 80 45 52 61 51 58 67 24 28 28 50 57 66 57 64 73 58 65 74 68 75 84
47 71 86 87 85 104 84 85 103 59 87 107 51 76 93 81 81 99 51 78 95 44 68 83 53 80 98 44 68 83 46 71 87 41 64 79 44 68 84 45 70 85 40 63 77 46 71 86
43 66 80 53 80 98 121 74 91 58 86 104 116 78 96 53 79 96 62 91 110 58 85 103 55 82 99 53 79 96 57 83 101 63 92 112 57 83 100 96 91 110 83 93 113 66 95 116
99 89 108 61 89 108 63 92 112 110 84 102 51 76 92 49 74 89 57 84 103 81 84 103 46 71 86 56 83 101 44 67 82 63 83 102 45 70 85 41 64 78 40 63 77 49 74 91
83 77 94 42 65 80 52 79 97 67 81 100 42 65 80 51 77 94 53 79 96 56 84 102 117 77 94 60 88 107 52 77 93 50 74 90 53 79 96 119 83 101 61 89 108 64 93 113
64 92 112 58 84 102 65 94 114 52 77 93 59 87 105 52 77 92 64 93 113 52 78 94 93 87 106 59 87 106 57 84 102 51 76 92 104 79 97 48 73 89 122 73 89 55 82 101
50 76 93 40 63 77 51 78 95 46 71 87 41 64 79 54 81 99 45 70 85 41 65 79 53 80 98 47 71 87 51 77 93 54 81 99 50 75 91 48 72 87 50 75 92 61 89 109
50 74 90 57 83 101 57 83 101 54 80 96 62 91 110 63 91 111 52 77 93 63 91 110 66 95 116 55 81 98 65 95 115 65 94 115 63 92 113 24 28 28 24 28 28 24 28 28
24 28 28 24 28 28 24 28 28 24 28 28 24 28 28 24 28 28 85 86 80 91 92 85 81 82 77 73 75 70 96 96 89 100 100 92 85 86 80 101 100 93 104 103 95 99 99 91
102 102 94 81 82 77 87 88 82 92 92 86 24 28 28 24 28 28 24 28 28 24 28 28 24 28 28 24 28 28 24 28 28 24 28 28 24 28 28 24 28 28 24 28 28 24 28 28
24 28 28 24 28 28 24 28 28 24 28 28 24 28 28 24 28 28 24 28 28 24 28 28 24 28 28 24 28 28 24 28 28 24 28 28 24 28 28 24 28 28 24 28 28 24 28 28
24 28 28 24 28 28 24 28 28 24 28 28 24 28 28 24 28 28 24 28 28 24 28 28 24 28 28 24 28 28 24 28 28 24 28 28 24 28 28 24 28 28 24 28 28 24 28 28
24 28 28 24 28 28 24 28 28 24 28 28 24 28 28 24 28 28 24 28 28 24 28 28 24 28 28 24 28 28 24 28 28 24 28 28 24 28 28 24 28 28 24 28 28 24 28 28
24 28 28 24 28 28 24 28 28 24 28 28 24 28 28 24 28 28 24 28 28 24 28 28 24 28 28 24 28 28 24 28 28 24 28 28 24 28 28 24 28 28 24 28 28 24 28 28
24 28 28 24 28 28 24 28 28 24 28 28 24 28 28 24 28 28 24 28 28 24 28 28 24 28 28 24 28 28 24 28 28 24 28 28 24 28 28 24 28 28 24 28 28 24 28 28
24 28 28 24 28 28 24 28 28 24 28 28 24 28 28 24 28 28 24 28 28 24 28 28 24 28 28 24 28 28 24 28 28 24 28 28 24 28 28 24 28 28 24 28 28 24 28 28
24 28 28 24 28 28 24 28 28 60 67 76 45 52 61 53 60 69 24 28 28 50 57 66 46 53 62 50 57 66 64 71 80 24 28 28 45 52 61 59 66 75 65 72 81 41 48 57
49 74 90 43 67 82 76 81 100 44 68 83 47 72 89 40 64 79 52 79 98 41 66 81 49 76 94 42 67 82 87 71 88 38 61 75 46 72 90 42 67 83 38 62 76 116 67 83
50 77 95 40 64 78 53 81 99 60 83 102 43 67 82 48 73 89 50 75 92 49 74 90 45 69 85 47 71 87 55 83 101 58 85 104 47 72 87 55 82 100 52 78 94 59 88 107
53 79 97 113 80 98 56 83 101 49 74 91 46 71 86 45 70 85 51 77 95 47 73 89 50 77 94 44 68 84 51 78 96 50 77 95 47 73 90 40 64 78 118 65 80 47 73 90
37 60 74 38 61 75 122 65 80 47 73 90 45 70 86 62 79 98 47 72 89 42 66 81 53 81 99 50 76 93 57 85 105 48 74 90 49 75 91 55 82 100 55 82 100 49 75 91
62 91 112 52 78 95 55 82 100 58 86 105 54 80 98 47 71 87 47 71 87 49 74 90 114 77 95 47 72 88 46 71 87 48 73 90 41 64 79 105 72 89 52 80 98 40 64 79
47 73 90 121 65 81 117 65 81 41 65 80 37 60 74 35 58 71 49 76 94 37 59 73 44 69 85 66 78 96 47 73 90 52 79 97 43 67 82 44 68 83 52 78 96 57 86 105
46 71 86 81 85 105 51 77 94 47 71 87 49 74 89 54 81 99 53 80 97 60 88 108 53 79 97 112 81 100 60 88 108 48 72 88 49 74 91 24 28 28 24 28 28 24 28 28
24 28 28 24 28 28 24 28 28 24 28 28 24 28 28 24 28 28 85 86 80 87 88 82 104 103 95 103 102 94 96 96 89 84 85 79 74 76 71 98 98 91 85 85 80 71 73 69
93 93 86 100 100 92 101 101 93 87 87 81 24 28 28 24 28 28 24 28 28 24 28 28 24 28 28 24 28 28 24 28 28 24 28 28 24 28 28 24 28 28 24 28 28 24 28 28
24 28 28 24 28 28 24 28 28 24 28 28 24 28 28 24 28 28 24 28 28 24 28 28 24 28 28 24 28 28 24 28 28 24 28 28 24 28 28 24 28 28 24 28 28 24 28 28
24 28 28 24 28 28 24 28 28 24 28 28 24 28 28 24 28 28 24 28 28 24 28 28 24 28 28 24 28 28 24 28 28 24 28 28 24 28 28 24 28 28 24 28 28 24 28 28
24 28 28 24 28 28 24 28 28 24 28 28 24 28 28 24 28 28 24 28 28 24 28 28 24 28 28 24 28 28 24 28 28 24 28 28 24 28 28 24 28 28 24 28 28 24 28 28
24 28 28 24 28 28 24 28 28 24 28 28 24 28 28 24 28 28 24 28 28 24 28 28 24 28 28 24 28 28 24 28 28 24 28 28 24 28 28 24 28 28 24 28 28 24 28 28
24 28 28 24 28 28 24 28 28 24 28 28 24 28 28 24 28 28 24 28 28 24 28 28 24 28 28 24 28 28 24 28 28 24 28 28 24 28 28 24 28 28 24 28 28 24 28 28
24 28 28 24 28 28 24 28 28 24 28 28 24 28 28 24 28 28 24 28 28 24 28 28 24 28 28 24 28 28 24 28 28 24 28 28 24 28 28 24 28 28 24 28 28 24 28 28
24 28 28 24 28 28 24 28 28 60 67 76 42 49 58 44 51 60 24 28 28 63 70 79 54 61 70 45 52 61 42 49 58 24 28 28 46 53 62 50 57 66 52 59 68 50 57 66
46 71 88 48 74 91 49 75 93 48 75 93 51 78 97 48 76 94 43 69 85 34 56 70 46 73 90 111 62 78 34 57 70 39 64 79 44 70 87 80 69 86 36 60 74 78 71 88
98 68 84 43 69 85 48 75 93 41 65 80 45 70 87 103 73 91 52 80 98 51 78 96 45 70 85 48 73 90 44 69 84 47 72 88 53 81 99 59 89 109 52 79 97 67 87 107
55 83 102 46 70 86 57 86 105 44 68 84 55 83 102 44 68 84 47 73 90 53 81 100 50 78 96 51 79 97 39 63 79 42 67 83 42 67 83 35 58 72 38 62 78 81 68 85
101 64 80 36 60 74 39 63 78 34 57 71 45 72 89 42 67 83 123 64 80 60 78 97 48 74 92 53 81 101 50 77 95 58 84 104 43 68 83 46 71 87 65 86 106 45 69 85
52 79 97 57 86 106 46 71 87 53 80 98 54 82 101 48 74 90 43 67 82 55 83 102 42 67 82 47 73 90 50 77 95 52 80 98 48 75 93 38 61 75 36 60 74 43 68 84
41 66 82 47 74 92 42 67 83 37 61 76 73 70 87 37 60 75 36 60 74 35 58 72 43 68 85 35 57 71 37 61 75 39 63 78 39 63 78 45 70 87 51 78 96 50 76 94
47 73 89 44 68 84 44 69 84 52 79 97 99 80 99 46 71 87 57 85 105 57 85 104 71 86 106 49 74 91 52 78 96 50 77 94 42 66 81 24 28 28 24 28 28 24 28 28
24 28 28 24 28 28 24 28 28 24 28 28 24 28 28 24 28 28 84 84 79 86 87 81 86 86 81 75 77 72 79 80 75 75 76 72 89 90 83 83 83 78 82 83 78 96 96 89
80 81 76 82 83 78 92 92 85 81 82 77 24 28 28 24 28 28 24 28 28 24 28 28 24 28 28 24 28 28 24 28 28 24 28 28 24 28 28 24 28 28 24 28 28 24 28 28
24 28 28 24 28 28 24 28 28 24 28 28 24 28 28 24 28 28 24 28 28 24 28 28 24 28 28 24 28 28 24 28 28 24 28 28 24 28 28 24 28 28 24 28 28 24 28 28
24 28 28 24 28 28 24 28 28 24 28 28 24 28 28 24 28 28 24 28 28 24 28 28 24 28 28 24 28 28 24 28 28 24 28 28 24 28 28 24 28 28 24 28 28 24 28 28
24 28 28 24 28 28 24 28 28 24 28 28 24 28 28 24 28 28 24 28 28 24 28 28 24 28 28 24 28 28 24 28 28 24 28 28 24 28 28 24 28 28 24 28 28 24 28 28
24 28 28 24 28 28 24 28 28 24 28 28 24 28 28 24 28 28 24 28 28 24 28 28 24 28 28 24 28 28 24 28 28 24 28 28 24 28 28 24 28 28 24 28 28 24 28 28
24 28 28 24 28 28 24 28 28 24 28 28 24 28 28 24 28 28 24 28 28 24 28 28 24 28 28 24 28 28 24 28 28 24 28 28 24 28 28 24 28 28 24 28 28 24 28 28
24 28 28 24 28 28 24 28 28 24 28 28 24 28 28 24 28 28 24 28 28 24 28 28 24 28 28 24 28 28 24 28 28 24 28 28 24 28 28 24 28 28 24 28 28 24 28 28
24 28 28 24 28 28 24 28 28 57 64 73 52 59 68 68 75 84 24 28 28 42 49 58 44 51 60 44 51 60 63 70 79 24 28 28 68 75 84 61 68 77 60 67 76 46 53 62
52 80 99 79 76 94 36 59 73 41 65 81 38 62 76 40 65 81 37 61 76 100 64 80 96 64 80 37 61 76 39 63 79 43 69 86 38 62 78 34 57 71 39 64 80 40 65 81
42 67 84 39 63 78 44 70 87 47 74 92 44 70 87 42 67 82 53 82 101 53 81 100 54 82 101 117 73 90 52 80 98 49 75 93 55 83 103 50 77 95 51 78 95 52 79 97
52 80 98 56 84 104 46 71 88 47 73 89 40 64 79 39 63 78 43 68 85 48 76 94 49 76 95 42 68 84 38 62 77 42 68 85 40 65 81 31 54 67 42 68 85 31 53 67
33 56 70 34 57 71 44 70 88 37 61 76 35 59 74 38 62 77 48 75 94 46 73 91 46 72 90 38 62 76 48 75 93 40 64 79 52 80 98 47 73 90 54 82 101 54 82 102
50 77 94 43 67 82 53 80 99 51 78 96 47 73 89 46 72 88 55 84 103 42 66 81 52 80 98 123 68 85 47 74 92 41 66 82 38 61 76 38 62 77 43 69 86 38 63 78
39 64 80 36 59 74 37 61 76 46 73 91 38 63 79 42 68 85 44 71 89 39 64 80 33 56 69 35 58 72 77 71 88 44 71 88 122 64 80 102 70 87 52 80 99 39 62 77
52 80 99 47 73 90 43 68 84 45 70 87 56 85 105 57 86 106 54 82 102 92 80 99 110 76 94 51 78 96 122 72 89 44 69 85 45 71 87 24 28 28 24 28 28 24 28 28
24 28 28 24 28 28 24 28 28 24 28 28 24 28 28 24 28 28 92 92 85 75 77 72 79 80 75 76 78 73 95 95 88 90 91 84 81 82 77 72 74 70 80 81 76 88 88 82
98 98 91 84 85 79 78 79 75 95 95 88 24 28 28 24 28 28 24 28 28 24 28 28 24 28 28 24 28 28 24 28 28 24 28 28 24 28 28 24 28 28 24 28 28 24 28 28
24 28 28 24 28 28 24 28 28 24 28 28 24 28 28 24 28 28 24 28 28 24 28 28 24 28 28 24 28 28 24 28 28 24 28 28 24 28 28 24 28 28 24 28 28 24 28 28
24 28 28 24 28 28 24 28 28 24 28 28 24 28 28 24 28 28 24 28 28 24 28 28 24 28 28 24 28 28 24 28 28 24 28 28 24 28 28 24 28 28 24 28 28 24 28 28
24 28 28 24 28 28 24 28 28 24 28 28 24 28 28 24 28 28 24 28 28 24 28 28 24 28 28 24 28 28 24 28 28 24 28 28 24 28 28 24 28 28 24 28 28 24 28 28
24 28 28 24 28 28 24 28 28 24 28 28 24 28 28 24 28 28 24 28 28 24 28 28 24 28 28 24 28 28 24 28 28 24 28 28 24 28 28 24 28 28 24 28 28 24 28 28
24 28 28 24 28 28 24 28 28 24 28 28 24 28 28 24 28 28 24 28 28 24 28 28 24 28 28 24 28 28 24 28 28 24 28 28 24 28 28 24 28 28 24 28 28 24 28 28
24 28 28 24 28 28 24 28 28 24 28 28 24 28 28 24 28 28 24 28 28 24 28 28 24 28 28 24 28 28 24 28 28 24 28 28 24 28 28 24 28 28 24 28 28 24 28 28
24 28 28 24 28 28 24 28 28 65 72 81 57 64 73 62 69 78 24 28 28 46 53 62 61 68 77 57 64 73 59 66 75 24 28 28 43 50 59 46 53 62 68 75 84 48 55 64
42 67 83 76 75 93 42 67 84 40 64 80 38 62 77 46 73 91 36 60 75 44 70 88 32 55 69 61 69 87 36 60 75 36 60 75 37 62 77 73 67 84 46 73 91 45 72 90
32 54 68 39 64 80 42 68 84 48 76 94 38 62 77 105 69 86 51 78 97 40 65 80 51 78 97 51 79 97 60 84 104 82 80 99 55 83 103 54 82 102 46 72 89 67 83 103
51 78 97 46 71 88 42 67 83 46 72 90 51 79 98 41 65 81 38 62 76 35 58 72 37 61 75 40 65 81 41 66 83 37 61 76 96 63 79 41 66 83 33 57 71 32 55 68
41 67 84 43 70 87 32 55 69 105 61 77 38 63 78 42 68 85 48 76 94 37 61 76 102 68 84 51 79 98 38 62 77 49 77 95 52 80 99 46 72 89 42 66 82 68 83 102
42 66 82 77 82 101 52 80 98 46 72 89 82 80 99 82 80 99 45 71 88 39 63 78 42 67 82 46 73 90 90 72 90 42 67 83 47 74 92 40 65 81 34 58 72 44 70 88
34 58 72 30 52 66 35 59 74 38 63 80 31 54 68 34 58 72 74 67 84 33 56 70 32 55 69 44 70 88 44 70 88 43 69 85 36 60 74 55 78 97 47 74 91 39 63 78
38 62 77 50 78 96 116 72 89 52 80 99 56 85 105 52 79 98 70 83 103 48 74 91 45 71 87 54 82 101 49 76 94 47 73 90 52 80 99 24 28 28 24 28 28 24 28 28
24 28 28 24 28 28 24 28 28 24 28 28 24 28 28 24 28 28 89 89 83 81 83 77 90 91 84 95 95 88 101 101 93 81 82 77 102 102 94 75 77 72 85 86 80 97 97 90
95 95 88 88 88 82 85 86 80 88 88 82 24 28 28 24 28 28 24 28 28 24 28 28 24 28 28 24 28 28 24 28 28 24 28 28 24 28 28 24 28 28 24 28 28 24 28 28
24 28 28 24 28 28 24 28 28 24 28 28 24 28 28 24 28 28 24 28 28 24 28 28 24 28 28 24 28 28 24 28 28 24 28 28 24 28 28 24 28 28 24 28 28 24 28 28
24 28 28 24 28 28 24 28 28 24 28 28 24 28 28 24 28 28 24 28 28 24 28 28 24 28 28 24 28 28 24 28 28 24 28 28 24 28 28 24 28 28 24 28 28 24 28 28
24 28 28 24 28 28 24 28 28 24 28 28 24 28 28 24 28 28 24 28 28 24 28 28 24 28 28 24 28 28 24 28 28 24 28 28 24 28 28 24 28 28 24 28 28 24 28 28
24 28 28 24 28 28 24 28 28 24 28 28 24 28 28 24 28 28 24 28 28 24 28 28 24 28 28 24 28 28 24 28 28 24 28 28 24 28 28 24 28 28 24 28 28 24 28 28
24 28 28 24 28 28 24 28 28 24 28 28 24 28 28 24 28 28 24 28 28 24 28 28 24 28 28 24 28 28 24 28 28 24 28 28 24 28 28 24 28 28 24 28 28 24 28 28
24 28 28 24 28 28 24 28 28 24 28 28 24 28 28 24 28 28 24 28 28 24 28 28 24 28 28 24 28 28 24 28 28 24 28 28 24 28 28 24 28 28 24 28 28 24 28 28
24 28 28 24 28 28 24 28 28 68 75 84 67 74 83 52 59 68 24 28 28 46 53 62 68 75 84 67 74 83 51 58 67 24 28 28 67 74 83 48 55 64 41 48 57 67 74 83
46 73 90 60 77 96 45 72 89 34 57 71 38 62 78 34 57 72 35 59 74 79 66 83 30 53 66 31 54 67 31 53 67 33 56 71 51 70 88 33 56 71 37 61 77 35 59 74
55 72 90 46 74 92 44 71 88 47 74 92 39 63 78 43 69 85 42 67 83 51 79 98 51 79 98 50 77 96 44 69 85 47 73 90 53 82 101 50 77 95 43 67 83 43 68 84
48 74 91 54 83 103 52 81 100 49 77 95 50 77 96 47 74 92 36 60 74 36 60 75 44 71 88 47 74 93 32 54 68 34 58 73 71 67 85 30 52 65 41 67 84 43 70 88
107 59 74 39 64 80 40 65 82 33 56 70 44 70 88 74 69 86 34 57 71 41 66 83 37 60 75 103 68 85 46 73 90 39 63 78 53 81 101 49 76 94 52 80 100 52 80 99
126 71 88 63 84 104 45 70 87 42 66 81 46 72 89 62 83 102 43 67 83 42 66 82 41 65 80 40 65 80 36 59 73 48 76 94 34 57 71 44 71 88 96 65 81 35 59 74
31 54 68 37 61 77 37 62 78 43 70 88 41 67 84 61 68 85 33 56 71 35 59 74 105 61 77 40 65 81 37 61 77 46 73 92 66 73 92 48 76 94 46 73 91 43 69 85
43 68 84 44 69 85 50 77 96 50 77 96 52 80 99 46 72 88 44 69 85 46 72 88 44 69 85 42 67 82 47 73 90 45 70 87 42 67 83 24 28 28 24 28 28 24 28 28
24 28 28 24 28 28 24 28 28 24 28 28 24 28 28 24 28 28 97 97 90 98 98 90 80 81 76 93 93 86 81 82 77 98 98 91 88 89 82 79 81 75 101 100 93 72 74 70
97 97 90 82 83 78 76 77 73 93 93 86 24 28 28 24 28 28 24 28 28 24 28 28 24 28 28 24 28 28 24 28 28 24 28 28 24 28 28 24 28 28 24 28 28 24 28 28
24 28 28 24 28 28 24 28 28 24 28 28 24 28 28 24 28 28 24 28 28 24 28 28 24 28 28 24 28 28 24 28 28 24 28 28 24 28 28 24 28 28 24 28 28 24 28 28
24 28 28 24 28 28 24 28 28 24 28 28 24 28 28 24 28 28 24 28 28 24 28 28 24 28 28 24 28 28 24 28 28 24 28 28 24 28 28 24 28 28 24 28 28 24 28 28
24 28 28 24 28 28 24 28 28 24 28 28 24 28 28 24 28 28 24 28 28 24 28 28 24 28 28 24 28 28 24 28 28 24 28 28 24 28 28 24 28 28 24 28 28 24 28 28
24 28 28 24 28 28 24 28 28 24 28 28 24 28 28 24 28 28 24 28 28 24 28 28 24 28 28 24 28 28 24 28 28 24 28 28 24 28 28 24 28 28 24 28 28 24 28 28
24 28 28 24 28 28 24 28 28 24 28 28 24 28 28 24 28 28 24 28 28 24 28 28 24 28 28 24 28 28 24 28 28 24 28 28 24 28 28 24 28 28 24 28 28 24 28 28
24 28 28 24 28 28 24 28 28 24 28 28 24 28 28 24 28 28 24 28 28 24 28 28 24 28 28 24 28 28 24 28 28 24 28 28 24 28 28 24 28 28 24 28 28 24 28 28
24 28 28 24 28 28 24 28 28 49 56 65 45 52 61 67 74 83 24 28 28 42 49 58 68 75 84 58 65 74 68 75 84 24 28 28 66 73 82 53 60 69 63 70 79 45 52 61
48 75 94 46 73 91 35 59 73 45 72 90 39 64 80 41 67 84 39 65 81 36 60 76 38 63 80 39 65 81 39 65 81 42 69 87 30 52 66 36 60 76 44 71 89 44 71 90
36 60 76 43 70 87 89 66 83 33 56 70 40 65 81 42 68 84 72 75 94 38 62 77 45 72 89 41 66 82 50 78 97 45 71 88 120 71 88 53 81 100 48 75 92 41 66 81
43 68 84 46 72 89 40 65 80 52 81 100 39 63 78 43 69 85 34 57 71 35 58 73 40 66 82 31 54 68 41 68 85 36 60 75 34 58 73 36 61 77 28 50 63 41 67 84
36 61 77 34 58 73 31 54 68 34 58 73 38 64 80 41 67 83 38 63 78 46 73 91 33 56 70 43 69 86 42 67 84 106 69 86 50 78 97 39 62 77 39 63 78 53 81 101
43 68 84 45 71 87 45 71 87 52 80 99 47 73 91 52 80 99 48 75 94 52 81 101 49 77 95 39 63 79 45 71 89 34 57 70 102 65 81 42 68 85 38 63 79 38 62 78
29 51 64 44 71 89 39 64 81 38 64 81 30 53 66 101 58 74 43 70 88 38 63 79 34 58 73 41 67 85 37 62 77 35 59 74 36 60 75 40 65 81 49 77 96 44 70 87
49 76 95 50 78 96 61 81 100 53 81 100 50 77 96 55 84 104 50 77 96 42 67 83 55 84 104 48 74 92 43 68 84 50 78 97 49 76 94 24 28 28 24 28 28 24 28 28
24 28 28 24 28 28 24 28 28 24 28 28 24 28 28 24 28 28 102 101 93 74 75 71 83 83 78 70 72 68 86 87 81 91 91 85 91 91 85 76 77 73 73 75 71 82 83 78
98 98 91 83 84 78 85 86 80 82 83 77 24 28 28 24 28 28 24 28 28 24 28 28 24 28 28 24 28 28 24 28 28 24 28 28 24 28 28 24 28 28 24 28 28 24 28 28
24 28 28 24 28 28 24 28 28 24 28 28 24 28 28 24 28 28 24 28 28 24 28 28 24 28 28 24 28 28 24 28 28 24 28 28 24 28 28 24 28 28 24 28 28 24 28 28
24 28 28 24 28 28 24 28 28 24 28 28 24 28 28 24 28 28 24 28 28 24 28 28 24 28 28 24 28 28 24 28 28 24 28 28 24 28 28 24 28 28 24 28 28 24 28 28
24 28 28 24 28 28 24 28 28 24 28 28 24 28 28 24 28 28 24 28 28 24 28 28 24 28 28 24 28 28 24 28 28 24 28 28 24 28 28 24 28 28 24 28 28 24 28 28
24 28 28 24 28 28 24 28 28 24 28 28 24 28 28 24 28 28 24 28 28 24 28 28 24 28 28 24 28 28 24 28 28 24 28 28 24 28 28 24 28 28 24 28 28 24 28 28
24 28 28 24 28 28 24 28 28 24 28 28 24 28 28 24 28 28 24 28 28 24 28 28 24 28 28 24 28 28 24 28 28 24 28 28 24 28 28 24 28 28 24 28 28 24 28 28
24 28 28 24 28 28 24 28 28 24 28 28 24 28 28 24 28 28 24 28 28 24 28 28 24 28 28 24 28 28 24 28 28 24 28 28 24 28 28 24 28 28 24 28 28 24 28 28
24 28 28 24 28 28 24 28 28 58 65 74 47 54 63 62 69 78 24 28 28 66 73 82 51 58 67 62 69 78 64 71 80 24 28 28 49 56 65 56 63 72 61 68 77 67 74 83
84 70 87 35 59 73 46 74 93 45 73 91 32 55 70 37 62 78 33 57 72 28 50 64 41 67 85 41 68 86 32 56 70 30 53 68 35 59 75 35 60 76 31 54 68 37 63 79
30 52 66 43 70 88 45 72 91 59 71 89 38 63 78 33 56 71 46 73 92 48 76 95 38 62 77 45 71 89 51 79 98 41 65 81 38 62 77 94 73 91 42 67 84 69 78 97
50 78 97 39 63 78 49 77 96 35 58 72 42 67 84 39 64 80 43 70 87 32 55 69 34 58 72 41 68 85 31 54 68 35 60 76 28 50 64 39 65 83 36 62 78 93 57 73
28 51 65 33 57 72 58 65 82 28 50 63 28 50 64 39 65 82 41 67 84 108 60 76 34 58 73 36 60 75 47 74 93 60 75 94 50 78 97 96 70 88 48 76 94 51 80 99
98 72 90 43 68 85 47 74 92 38 62 77 38 62 76 47 74 93 39 64 79 55 78 97 40 65 81 42 68 85 46 74 92 47 74 93 30 53 66 34 58 74 34 57 72 39 65 82
95 59 74 38 64 81 26 48 61 35 60 77 26 48 61 30 53 68 39 65 82 36 62 78 31 54 69 54 68 86 30 53 67 37 62 77 101 62 78 32 55 69 46 73 91 48 76 95
36 59 74 50 78 97 38 62 78 49 77 96 44 70 86 43 69 86 40 64 80 50 78 97 39 63 78 47 75 93 38 63 78 40 65 81 41 66 82 24 28 28 24 28 28 24 28 28
24 28 28 24 28 28 24 28 28 24 28 28 24 28 28 24 28 28 70 72 68 94 94 88 102 101 94 77 79 74 104 103 95 78 80 75 102 102 94 77 78 73 92 92 85 73 75 71
84 85 79 90 90 84 90 91 84 79 80 75 24 28 28 24 28 28 24 28 28 24 28 28 24 28 28 24 28 28 24 28 28 24 28 28 24 28 28 24 28 28 24 28 28 24 28 28
24 28 28 24 28 28 24 28 28 24 28 28 24 28 28 24 28 28 24 28 28 24 28 28 24 28 28 24 28 28 24 28 28 24 28 28 24 28 28 24 28 28 24 28 28 24 28 28
24 28 28 24 28 28 24 28 28 24 28 28 24 28 28 24 28 28 24 28 28 24 28 28 24 28 28 24 28 28 24 28 28 24 28 28 24 28 28 24 28 28 24 28 28 24 28 28
24 28 28 24 28 28 24 28 28 24 28 28 24 28 28 24 28 28 24 28 28 24 28 28 24 28 28 24 28 28 24 28 28 24 28 28 24 28 28 24 28 28 24 28 28 24 28 28
24 28 28 24 28 28 24 28 28 24 28 28 24 28 28 24 28 28 24 28 28 24 28 28 24 28 28 24 28 28 24 28 28 24 28 28 24 28 28 24 28 28 24 28 28 24 28 28
24 28 28 24 28 28 24 28 28 24 28 28 24 28 28 24 28 28 24 28 28 24 28 28 24 28 28 24 28 28 24 28 28 24 28 28 24 28 28 24 28 28 24 28 28 24 28 28
24 28 28 24 28 28 24 28 28 24 28 28 24 28 28 24 28 28 24 28 28 24 28 28 24 28 28 24 28 28 24 28 28 24 28 28 24 28 28 24 28 28 24 28 28 24 28 28
24 28 28 24 28 28 24 28 28 62 69 78 68 75 84 52 59 68 24 28 28 46 53 62 55 62 71 52 59 68 54 61 70 24 28 28 66 73 82 48 55 64 66 73 82 66 73 82
32 56 70 40 66 83 35 59 75 31 54 69 53 66 84 25 47 60 27 50 64 31 55 71 69 59 75 37 63 80 32 56 72 29 53 68 36 62 79 36 62 79 29 52 67 36 62 79
31 55 70 27 50 64 86 60 76 35 59 75 33 57 72 37 62 78 42 69 87 43 69 87 79 69 87 48 76 95 51 77 96 39 64 81 41 67 84 37 62 77 44 70 88 39 65 81
40 65 82 59 74 93 114 62 79 41 67 84 31 53 67 41 67 84 76 65 82 89 61 77 58 66 83 31 54 69 39 66 84 30 54 69 31 55 71 26 48 62 34 59 76 34 60 76
23 45 58 64 59 76 26 49 63 34 59 76 26 49 62 30 53 68 30 53 67 38 64 81 31 54 69 37 62 78 31 54 68 38 63 80 37 61 77 36 61 76 38 62 78 46 73 91
45 73 91 39 65 81 43 70 87 49 78 97 45 73 91 56 76 95 47 75 94 95 66 83 45 72 90 102 62 78 89 63 80 34 58 73 38 64 81 39 65 82 61 63 80 37 64 81
28 51 65 26 49 62 27 50 64 29 52 67 32 57 72 29 53 68 25 47 61 30 54 68 32 56 71 88 57 72 26 49 62 35 60 76 39 65 82 32 55 70 40 66 84 33 57 71
43 70 89 36 61 76 69 72 90 43 70 88 40 65 82 48 77 96 46 73 91 45 72 90 45 72 90 43 69 87 48 77 96 56 74 93 113 62 78 24 28 28 24 28 28 24 28 28
24 28 28 24 28 28 24 28 28 24 28 28 24 28 28 24 28 28 84 84 79 77 78 73 85 86 80 88 89 83 88 88 82 74 76 71 93 93 86 95 95 88 102 101 94 77 79 74
91 91 85 73 75 71 72 73 69 84 85 79 24 28 28 24 28 28 24 28 28 24 28 28 24 28 28 24 28 28 24 28 28 24 28 28 24 28 28 24 28 28 24 28 28 24 28 28
24 28 28 24 28 28 24 28 28 24 28 28 24 28 28 24 28 28 24 28 28 24 28 28 24 28 28 24 28 28 24 28 28 24 28 28 24 28 28 24 28 28 24 28 28 24 28 28
24 28 28 24 28 28 24 28 28 24 28 28 24 28 28 24 28 28 24 28 28 24 28 28 24 28 28 24 28 28 24 28 28 24 28 28 24 28 28 24 28 28 24 28 28 24 28 28
24 28 28 24 28 28 24 28 28 24 28 28 24 28 28 24 28 28 24 28 28 24 28 28 24 28 28 24 28 28 24 28 28 24 28 28 24 28 28 24 28 28 24 28 28 24 28 28
24 28 28 24 28 28 24 28 28 24 28 28 24 28 28 24 28 28 24 28 28 24 28 28 24 28 28 24 28 28 24 28 28 24 28 28 24 28 28 24 28 28 24 28 28 24 28 28
24 28 28 24 28 28 24 28 28 24 28 28 24 28 28 24 28 28 24 28 28 24 28 28 24 28 28 24 28 28 24 28 28 24 28 28 24 28 28 24 28 28 24 28 28 24 28 28
24 28 28 24 28 28 24 28 28 24 28 28 24 28 28 24 28 28 24 28 28 24 28 28 24 28 28 24 28 28 24 28 28 24 28 28 24 28 28 24 28 28 24 28 28 24 28 28
24 28 28 24 28 28 24 28 28 48 55 64 55 62 71 48 55 64 24 28 28 65 72 81 51 58 67 65 72 81 51 58 67 24 28 28 45 52 61 62 69 78 42 49 58 49 56 65
36 61 78 40 67 85 59 63 81 26 48 62 28 52 67 22 43 56 33 59 76 22 45 58 66 55 71 34 60 77 24 47 61 24 47 61 22 45 58 31 56 72 22 44 57 33 59 76
33 59 75 29 53 69 27 50 64 25 47 61 26 49 62 110 55 70 35 60 76 92 61 78 38 64 81 41 67 85 115 59 76 44 72 90 34 58 74 39 66 83 44 72 90 46 74 93
37 63 79 44 71 90 42 69 88 37 63 80 37 62 79 41 69 87 28 52 66 30 54 69 29 54 69 26 49 63 26 49 63 42 61 78 27 51 66 34 60 77 32 58 75 29 54 69
22 45 58 32 57 74 33 59 76 24 47 61 29 54 69 89 53 68 35 61 78 28 52 67 76 59 76 27 50 64 29 53 67 42 69 88 31 55 69 34 59 75 36 61 77 43 70 88
65 70 89 80 67 85 44 72 90 39 64 81 44 71 90 36 61 77 35 60 76 39 65 82 43 71 89 42 69 88 26 48 62 101 55 70 36 62 80 36 62 79 84 54 70 23 45 58
25 48 63 25 48 62 30 54 70 27 51 65 31 57 73 29 54 69 28 52 68 31 56 72 34 60 77 34 60 77 27 50 64 43 64 82 29 52 67 26 49 63 36 61 78 87 60 77
42 70 89 31 55 70 35 60 75 37 63 80 39 65 82 37 63 79 43 70 88 41 67 85 33 57 72 45 73 92 41 68 86 44 71 90 34 59 75 24 28 28 24 28 28 24 28 28
24 28 28 24 28 28 24 28 28 24 28 28 24 28 28 24 28 28 102 102 94 77 78 74 76 78 73 92 92 85 86 87 81 91 91 85 77 79 74 94 94 87 73 75 71 94 94 87
86 87 81 71 73 69 90 90 84 104 103 95 24 28 28 24 28 28 24 28 28 24 28 28 24 28 28 24 28 28 24 28 28 24 28 28 24 28 28 24 28 28 24 28 28 24 28 28
24 28 28 24 28 28 24 28 28 24 28 28 24 28 28 24 28 28 24 28 28 24 28 28 24 28 28 24 28 28 24 28 28 24 28 28 24 28 28 24 28 28 24 28 28 24 28 28
24 28 28 24 28 28 24 28 28 24 28 28 24 28 28 24 28 28 24 28 28 24 28 28 24 28 28 24 28 28 24 28 28 24 28 28 24 28 28 24 28 28 24 28 28 24 28 28
24 28 28 24 28 28 24 28 28 24 28 28 24 28 28 24 28 28 24 28 28 24 28 28 24 28 28 24 28 28 24 28 28 24 28 28 24 28 28 24 28 28 24 28 28 24 28 28
24 28 28 24 28 28 24 28 28 24 28 28 24 28 28 24 28 28 24 28 28 24 28 28 24 28 28 24 28 28 24 28 28 24 28 28 24 28 28 24 28 28 24 28 28 24 28 28
24 28 28 24 28 28 24 28 28 24 28 28 24 28 28 24 28 28 24 28 28 24 28 28 24 28 28 24 28 28 24 28 28 24 28 28 24 28 28 24 28 28 24 28 28 24 28 28
24 28 28 24 28 28 24 28 28 24 28 28 24 28 28 24 28 28 24 28 28 24 28 28 24 28 28 24 28 28 24 28 28 24 28 28 24 28 28 24 28 28 24 28 28 24 28 28
24 28 28 24 28 28 24 28 28 56 63 72 57 64 73 46 53 62 24 28 28 43 50 59 41 48 57 48 55 64 47 54 63 24 28 28 65 72 81 62 69 78 51 58 67 54 61 70
29 53 67 33 59 75 38 64 82 90 53 69 29 54 69 23 46 59 30 55 71 25 48 63 32 58 75 20 42 55 18 39 52 55 54 70 24 48 62 25 49 64 18 39 51 94 48 63
31 56 72 28 52 67 35 61 78 29 54 69 25 48 62 25 48 61 31 55 70 37 63 80 28 51 65 72 65 83 32 56 71 38 64 80 38 64 81 30 53 68 32 56 71 42 70 88
30 53 67 110 58 74 36 62 79 98 58 74 32 57 72 38 65 83 33 58 75 34 60 77 35 62 79 32 58 75 29 54 69 25 49 63 31 56 73 30 56 72 20 42 55 23 45 59
25 48 63 31 57 74 82 50 65 20 42 55 22 44 58 31 56 72 21 43 56 29 54 69 33 59 75 39 66 84 38 64 82 30 54 69 34 59 75 29 52 66 37 63 80 34 59 75
32 56 71 30 54 68 29 52 66 29 52 66 29 52 66 42 69 88 37 63 80 37 63 79 78 62 79 92 58 74 34 60 77 27 50 64 32 58 74 28 52 67 91 51 66 86 51 66
29 54 70 28 52 68 31 56 73 25 48 63 29 54 69 28 53 68 33 59 76 27 51 66 22 45 58 25 49 63 24 47 61 35 61 79 24 46 60 26 49 63 35 61 78 30 54 69
39 66 84 33 57 73 40 67 84 37 63 80 32 56 71 40 67 85 35 60 76 42 69 87 33 57 72 38 64 80 29 53 67 39 65 83 40 67 85 24 28 28 24 28 28 24 28 28
24 28 28 24 28 28 24 28 28 24 28 28 24 28 28 24 28 28 80 81 76 95 95 88 99 99 91 90 90 84 100 99 92 72 74 70 75 77 72 78 79 74 81 82 77 80 81 76
73 75 70 78 80 75 79 80 75 87 88 82 24 28 28 24 28 28 24 28 28 24 28 28 24 28 28 24 28 28 24 28 28 24 28 28 24 28 28 24 28 28 24 28 28 24 28 28
24 28 28 24 28 28 24 28 28 24 28 28 24 28 28 24 28 28 24 28 28 24 28 28 24 28 28 24 28 28 24 28 28 24 28 28 24 28 28 24 28 28 24 28 28 24 28 28
24 28 28 24 28 28 24 28 28 24 28 28 24 28 28 24 28 28 24 28 28 24 28 28 24 28 28 24 28 28 24 28 28 24 28 28 24 28 28 24 28 28 24 28 28 24 28 28
24 28 28 24 28 28 24 28 28 24 28 28 24 28 28 24 28 28 24 28 28 24 28 28 24 28 28 24 28 28 24 28 28 24 28 28 24 28 28 24 28 28 24 28 28 24 28 28
24 28 28 24 28 28 24 28 28 24 28 28 24 28 28 24 28 28 24 28 28 24 28 28 24 28 28 24 28 28 24 28 28 24 28 28 24 28 28 24 28 28 24 28 28 24 28 28
24 28 28 24 28 28 24 28 28 24 28 28 24 28 28 24 28 28 24 28 28 24 28 28 24 28 28 24 28 28 24 28 28 24 28 28 24 28 28 24 28 28 24 28 28 24 28 28
24 28 28 24 28 28 24 28 28 24 28 28 24 28 28 24 28 28 24 28 28 24 28 28 24 28 28 24 28 28 24 28 28 24 28 28 24 28 28 24 28 28 24 28 28 24 28 28
24 28 28 24 28 28 24 28 28 60 67 76 61 68 77 61 68 77 24 28 28 59 66 75 52 59 68 53 60 69 61 68 77 24 28 28 55 62 71 68 75 84 65 72 81 63 70 79
108 56 71 49 66 84 37 64 81 36 62 79 28 52 67 33 59 76 47 60 77 32 58 74 24 47 61 27 50 65 29 54 69 23 46 60 29 53 69 29 54 70 26 49 63 29 53 69
30 54 70 25 47 61 34 59 76 81 57 73 37 63 81 68 62 80 38 64 82 41 69 87 65 67 85 34 59 75 40 66 83 43 71 89 31 55 69 31 54 68 45 73 92 37 62 78
50 72 91 62 69 87 39 65 83 100 59 75 38 64 82 26 49 63 31 55 71 35 61 78 28 52 67 28 52 67 30 54 70 32 57 73 78 52 68 29 54 69 25 48 62 29 54 70
28 52 67 33 59 75 22 44 58 31 56 73 23 45 59 29 53 68 25 48 61 67 59 76 32 57 72 25 48 61 27 50 64 27 50 63 29 53 67 37 63 79 43 71 89 43 71 90
36 61 77 32 56 71 31 54 68 32 56 71 44 72 91 41 67 85 95 62 79 33 57 72 33 57 73 38 64 82 39 66 84 32 57 73 36 62 80 106 50 65 35 61 79 42 61 78
34 60 77 32 58 74 27 51 66 32 58 74 18 39 51 22 44 58 30 55 71 22 45 58 24 47 61 28 53 68 28 52 67 26 50 64 28 52 67 33 58 74 40 67 85 28 51 65
28 51 64 41 68 86 34 59 75 42 69 88 41 68 86 40 67 85 39 65 81 101 63 79 39 65 82 44 72 91 30 54 68 42 70 89 30 53 67 24 28 28 24 28 28 24 28 28
24 28 28 24 28 28 24 28 28 24 28 28 24 28 28 24 28 28 75 76 72 71 73 69 104 103 95 87 88 82 75 77 72 91 91 85 79 80 75 102 101 93 93 93 86 77 78 73
78 79 74 82 83 78 91 91 85 83 84 78 24 28 28 24 28 28 24 28 28 24 28 28 24 28 28 24 28 28 24 28 28 24 28 28 24 28 28 24 28 28 24 28 28 24 28 28
24 28 28 24 28 28 24 28 28 24 28 28 24 28 28 24 28 28 24 28 28 24 28 28 24 28 28 24 28 28 24 28 28 24 28 28 24 28 28 24 28 28 24 28 28 24 28 28
24 28 28 24 28 28 24 28 28 24 28 28 24 28 28 24 28 28 24 28 28 24 28 28 24 28 28 24 28 28 24 28 28 24 28 28 24 28 28 24 28 28 24 28 28 24 28 28
24 28 28 24 28 28 24 28 28 24 28 28 24 28 28 24 28 28 24 28 28 24 28 28 24 28 28 24 28 28 24 28 28 24 28 28 24 28 28 24 28 28 24 28 28 24 28 28
24 28 28 24 28 28 24 28 28 24 28 28 24 28 28 24 28 28 24 28 28 24 28 28 24 28 28 24 28 28 24 28 28 24 28 28 24 28 28 24 28 28 24 28 28 24 28 28
24 28 28 24 28 28 24 28 28 24 28 28 24 28 28 24 28 28 24 28 28 24 28 28 24 28 28 24 28 28 24 28 28 24 28 28 24 28 28 24 28 28 24 28 28 24 28 28
24 28 28 24 28 28 24 28 28 24 28 28 24 28 28 24 28 28 24 28 28 24 28 28 24 28 28 24 28 28 24 28 28 24 28 28 24 28 28 24 28 28 24 28 28 24 28 28
24 28 28 24 28 28 24 28 28 43 50 59 63 70 79 45 52 61 24 28 28 52 59 68 64 71 80 60 67 76 50 57 66 24 28 28 52 59 68 66 73 82 41 48 57 48 55 64
37 62 79 43 71 89 31 54 69 90 59 75 38 64 81 33 58 73 33 57 73 35 61 78 30 54 69 29 53 68 33 58 74 22 44 57 36 62 79 23 45 58 23 45 58 23 44 57
38 64 82 26 48 62 92 57 73 32 56 71 36 61 77 35 60 76 33 56 71 31 54 68 32 56 70 50 75 94 44 71 89 39 64 80 40 66 82 42 68 86 42 69 86 40 66 83
39 64 81 39 65 82 43 70 87 108 62 78 44 72 90 30 53 67 35 59 75 34 58 74 36 61 78 34 59 76 36 62 78 28 52 66 29 53 68 25 48 61 30 54 70 32 58 74
35 60 77 31 56 71 34 59 76 27 51 65 24 46 59 37 64 81 33 58 74 27 49 63 33 57 73 33 57 72 29 52 65 43 71 89 44 71 89 41 68 85 43 69 87 39 65 81
46 73 92 39 64 80 37 62 77 91 68 86 40 65 82 44 71 89 36 61 77 110 62 78 36 60 76 32 56 71 71 66 83 41 67 85 31 54 69 25 47 61 47 65 83 27 49 63
25 48 61 36 63 80 32 57 73 24 46 59 83 54 69 75 56 71 24 47 60 36 62 80 27 50 64 42 65 83 60 62 80 38 64 82 39 65 82 61 66 84 43 70 88 67 68 86
43 70 88 37 62 78 45 72 91 43 70 88 102 66 83 47 75 94 36 60 75 44 71 89 104 66 83 47 75 94 47 75 94 43 70 87 43 70 88 24 28 28 24 28 28 24 28 28
24 28 28 24 28 28 24 28 28 24 28 28 24 28 28 24 28 28 73 75 70 77 79 74 86 87 81 88 88 82 79 80 75 85 86 80 102 101 94 78 79 74 72 73 69 98 97 90
79 80 75 89 89 83 96 96 89 75 76 72 24 28 28 24 28 28 24 28 28 24 28 28 24 28 28 24 28 28 24 28 28 24 28 28 24 28 28 24 28 28 24 28 28 24 28 28
24 28 28 24 28 28 24 28 28 24 28 28 24 28 28 24 28 28 24 28 28 24 28 28 24 28 28 24 28 28 24 28 28 24 28 28 24 28 28 24 28 28 24 28 28 24 28 28
24 28 28 24 28 28 24 28 28 24 28 28 24 28 28 24 28 28 24 28 28 24 28 28 24 28 28 24 28 28 24 28 28 24 28 28 24 28 28 24 28 28 24 28 28 24 28 28
24 28 28 24 28 28 24 28 28 24 28 28 24 28 28 24 28 28 24 28 28 24 28 28 24 28 28 24 28 28 24 28 28 24 28 28 24 28 28 24 28 28 24 28 28 24 28 28
24 28 28 24 28 28 24 28 28 24 28 28 24 28 28 24 28 28 24 28 28 24 28 28 24 28 28 24 28 28 24 28 28 24 28 28 24 28 28 24 28 28 24 28 28 24 28 28
24 28 28 24 28 28 24 28 28 24 28 28 24 28 28 24 28 28 24 28 28 24 28 28 24 28 28 24 28 28 24 28 28 24 28 28 24 28 28 24 28 28 24 28 28 24 28 28
24 28 28 24 28 28 24 28 28 24 28 28 24 28 28 24 28 28 24 28 28 24 28 28 24 28 28 24 28 28 24 28 28 24 28 28 24 28 28 24 28 28 24 28 28 24 28 28
24 28 28 24 28 28 24 28 28 44 51 60 56 63 72 57 64 73 24 28 28 45 52 61 55 62 71 45 52 61 48 55 64 24 28 28 62 69 78 63 70 79 53 60 69 56 63 72
36 60 75 38 62 78 116 60 75 33 56 71 37 62 78 41 67 85 41 67 85 34 58 74 30 53 68 26 48 61 26 48 61 79 59 75 59 63 80 32 56 70 26 48 61 28 50 63
35 60 76 37 62 79 34 58 73 43 70 88 36 60 75 37 61 77 44 71 89 39 64 81 44 70 88 40 65 81 43 68 85 51 80 99 97 72 90 43 68 85 115 68 85 48 75 94
39 64 79 36 59 74 48 75 94 45 71 89 45 71 89 37 62 77 43 70 88 43 70 88 32 55 69 37 63 79 32 55 70 40 66 84 33 57 72 33 57 73 30 53 67 32 56 71
53 64 82 31 54 69 37 62 79 40 67 85 71 63 80 72 64 81 60 68 85 41 68 85 31 54 68 66 71 89 44 71 89 47 74 93 47 74 92 42 68 85 65 77 96 56 79 99
45 71 89 91 73 91 50 78 97 44 70 87 48 76 94 37 62 77 105 68 85 49 77 97 39 64 80 33 56 70 101 64 81 33 56 71 42 69 87 42 69 87 102 59 74 32 55 70
28 50 63 31 55 69 26 48 61 25 47 60 39 65 83 35 60 77 35 60 77 33 57 72 31 54 69 39 65 82 38 63 80 33 57 72 73 67 84 35 59 74 44 72 90 36 60 76
44 71 89 37 61 76 82 73 91 42 67 84 42 67 83 48 76 95 49 77 96 38 62 77 51 80 99 50 79 98 48 76 94 39 64 80 49 77 97 24 28 28 24 28 28 24 28 28
24 28 28 24 28 28 24 28 28 24 28 28 24 28 28 24 28 28 101 101 93 103 102 94 103 103 95 97 97 90 75 76 72 94 94 87 78 79 74 73 75 70 78 80 75 87 87 81
99 99 91 76 77 73 80 81 76 87 88 82 24 28 28 24 28 28 24 28 28 24 28 28 24 28 28 24 28 28 24 28 28 24 28 28 24 28 28 24 28 28 24 28 28 24 28 28
24 28 28 24 28 28 24 28 28 24 28 28 24 28 28 24 28 28 24 28 28 24 28 28 24 28 28 24 28 28 24 28 28 24 28 28 24 28 28 24 28 28 24 28 28 24 28 28
24 28 28 24 28 28 24 28 28 24 28 28 24 28 28 24 28 28 24 28 28 24 28 28 24 28 28 24 28 28 24 28 28 24 28 28 24 28 28 24 28 28 24 28 28 24 28 28
24 28 28 24 28 28 24 28 28 24 28 28 24 28 28 24 28 28 24 28 28 24 28 28 24 28 28 24 28 28 24 28 28 24 28 28 24 28 28 24 28 28 24 28 28 24 28 28
24 28 28 24 28 28 24 28 28 24 28 28 24 28 28 24 28 28 24 28 28 24 28 28 24 28 28 24 28 28 24 28 28 24 28 28 24 28 28 24 28 28 24 28 28 24 28 28
24 28 28 24 28 28 24 28 28 24 28 28 24 28 28 24 28 28 24 28 28 24 28 28 24 28 28 24 28 28 24 28 28 24 28 28 24 28 28 24 28 28 24 28 28 24 28 28
24 28 28 24 28 28 24 28 28 24 28 28 24 28 28 24 28 28 24 28 28 24 28 28 24 28 28 24 28 28 24 28 28 24 28 28 24 28 28 24 28 28 24 28 28 24 28 28
24 28 28 24 28 28 24 28 28 50 57 66 51 58 67 43 50 59 24 28 28 44 51 60 52 59 68 46 53 62 59 66 75 24 28 28 47 54 63 52 59 68 52 59 68 64 71 80
38 63 78 40 65 81 38 62 77 47 75 94 46 74 92 34 57 72 38 63 78 40 66 84 38 63 79 114 56 71 38 64 80 32 55 70 41 68 85 39 65 81 34 57 72 99 60 76
31 53 67 38 63 80 36 60 75 47 74 93 36 60 75 38 63 78 61 77 96 47 74 92 47 74 92 48 74 92 51 79 98 46 73 90 48 75 93 45 71 87 40 64 80 45 71 87
40 64 79 43 69 85 45 72 89 48 75 93 120 65 82 44 70 88 41 66 83 38 63 78 48 75 93 39 64 80 41 67 83 34 58 73 37 62 78 42 69 86 40 66 84 30 53 67
96 59 75 35 60 75 63 66 84 43 70 88 29 51 65 43 70 87 35 59 75 39 64 80 41 66 83 41 66 82 40 65 80 38 62 77 124 66 82 39 63 79 75 78 97 42 67 83
50 77 96 49 77 95 40 64 79 50 78 97 48 74 92 44 70 86 44 70 87 49 77 95 50 78 96 37 60 75 47 74 92 43 69 86 46 73 91 36 61 76 45 73 91 38 63 79
42 68 86 31 54 68 41 67 84 38 63 80 35 60 76 33 56 71 78 63 80 28 50 64 43 70 88 42 69 87 37 62 77 41 67 84 36 60 75 34 57 70 47 74 92 48 76 94
50 78 97 98 72 89 49 77 95 53 82 101 53 81 101 50 77 96 50 77 96 49 76 94 53 82 102 94 75 93 40 64 79 85 75 93 43 68 85 24 28 28 24 28 28 24 28 28
24 28 28 24 28 28 24 28 28 24 28 28 24 28 28 24 28 28 96 96 89 100 100 92 75 77 72 82 83 78 92 92 86 103 102 94 73 75 71 92 92 85 95 95 88 73 74 70
101 100 93 77 78 73 71 73 69 103 102 94 24 28 28 24 28 28 24 28 28 24 28 28 24 28 28 24 28 28 24 28 28 24 28 28 24 28 28 24 28 28 24 28 28 24 28 28
24 28 28 24 28 28 24 28 28 24 28 28 24 28 28 24 28 28 24 28 28 24 28 28 24 28 28 24 28 28 24 28 28 24 28 28 24 28 28 24 28 28 24 28 28 24 28 28
24 28 28 24 28 28 24 28 28 24 28 28 24 28 28 24 28 28 24 28 28 24 28 28 24 28 28 24 28 28 24 28 28 24 28 28 24 28 28 24 28 28 24 28 28 24 28 28
24 28 28 24 28 28 24 28 28 24 28 28 24 28 28 24 28 28 24 28 28 24 28 28 24 28 28 24 28 28 24 28 28 24 28 28 24 28 28 24 28 28 24 28 28 24 28 28
24 28 28 24 28 28 24 28 28 24 28 28 24 28 28 24 28 28 24 28 28 24 28 28 24 28 28 24 28 28 24 28 28 24 28 28 24 28 28 24 28 28 24 28 28 24 28 28
24 28 28 24 28 28 24 28 28 24 28 28 24 28 28 24 28 28 24 28 28 24 28 28 24 28 28 24 28 28 24 28 28 24 28 28 24 28 28 24 28 28 24 28 28 24 28 28
24 28 28 24 28 28 24 28 28 24 28 28 24 28 28 24 28 28 24 28 28 24 28 28 24 28 28 24 28 28 24 28 28 24 28 28 24 28 28 24 28 28 24 28 28 24 28 28
24 28 28 24 28 28 24 28 28 51 58 67 63 70 79 47 54 63 24 28 28 54 61 70 42 49 58 49 56 65 63 70 79 24 28 28 65 72 81 43 50 59 48 55 64 45 52 61
52 80 99 41 66 82 48 75 93 39 63 79 45 71 89 39 64 80 117 59 75 33 56 70 35 60 75 37 62 78 38 64 80 97 60 76 116 57 72 29 52 65 40 65 82 31 53 67
39 64 80 34 57 72 33 55 69 41 66 83 42 67 83 49 77 95 44 70 87 43 68 84 43 68 84 52 80 99 50 78 96 42 67 82 53 81 101 44 69 85 55 83 103 52 80 99
105 74 92 54 83 102 43 68 85 47 74 92 43 69 85 44 70 87 49 77 96 45 71 89 45 72 90 34 57 71 31 54 68 37 61 76 38 63 79 35 59 74 34 58 72 40 66 83
36 61 76 37 62 78 30 52 66 44 71 89 30 53 66 36 60 75 105 63 80 62 74 92 42 68 84 67 75 94 37 61 75 50 78 96 97 73 91 50 77 96 50 77 96 74 81 100
40 64 79 56 85 105 54 83 103 50 77 95 118 72 89 54 83 103 40 63 78 50 78 97 49 77 95 44 70 87 49 76 95 35 58 72 37 61 76 39 64 80 42 69 86 32 55 68
32 55 69 30 53 66 75 65 82 43 70 87 78 64 81 40 65 82 39 64 81 44 70 88 38 63 79 38 63 79 43 69 87 33 56 70 42 67 84 42 67 84 37 61 76 91 72 90
62 79 99 50 78 97 43 68 84 120 71 88 55 84 104 53 81 100 54 82 102 48 75 92 43 68 83 53 82 101 50 78 96 42 66 82 45 71 88 24 28 28 24 28 28 24 28 28
24 28 28 24 28 28 24 28 28 24 28 28 24 28 28 24 28 28 89 90 83 72 74 70 95 95 88 80 82 76 104 103 95 92 92 85 88 89 83 101 100 93 99 98 91 91 91 85
96 95 88 86 87 81 87 88 82 102 102 94 24 28 28 24 28 28 24 28 28 24 28 28 24 28 28 24 28 28 24 28 28 24 28 28 24 28 28 24 28 28 24 28 28 24 28 28
24 28 28 24 28 28 24 28 28 24 28 28 24 28 28 24 28 28 24 28 28 24 28 28 24 28 28 24 28 28 24 28 28 24 28 28 24 28 28 24 28 28 24 28 28 24 28 28
24 28 28 24 28 28 24 28 28 24 28 28 24 28 28 24 28 28 24 28 28 24 28 28 24 28 28 24 28 28 24 28 28 24 28 28 24 28 28 24 28 28 24 28 28 24 28 28
24 28 28 24 28 28 24 28 28 24 28 28 24 28 28 24 28 28 24 28 28 24 28 28 24 28 28 24 28 28 24 28 28 24 28 28 24 28 28 24 28 28 24 28 28 24 28 28
24 28 28 24 28 28 24 28 28 24 28 28 24 28 28 24 28 28 24 28 28 24 28 28 24 28 28 24 28 28 24 28 28 24 28 28 24 28 28 24 28 28 24 28 28 24 28 28
24 28 28 24 28 28 24 28 28 24 28 28 24 28 28 24 28 28 24 28 28 24 28 28 24 28 28 24 28 28 24 28 28 24 28 28 24 28 28 24 28 28 24 28 28 24 28 28
24 28 28 24 28 28 24 28 28 24 28 28 24 28 28 24 28 28 24 28 28 24 28 28 24 28 28 24 28 28 24 28 28 24 28 28 24 28 28 24 28 28 24 28 28 24 28 28
24 28 28 24 28 28 24 28 28 59 66 75 43 50 59 48 55 64 24 28 28 43 50 59 56 63 72 54 61 70 67 74 83 24 28 28 43 50 59 53 60 69 42 49 58 65 72 81
116 68 85 48 76 94 37 60 75 36 60 75 46 73 91 40 65 81 39 64 80 38 62 78 31 53 66 31 54 68 33 56 70 39 64 80 111 59 74 34 58 73 37 62 77 38 62 78
42 69 86 93 66 83 45 72 90 36 60 74 39 63 79 46 73 90 45 71 88 42 67 82 48 74 92 54 82 102 42 67 82 55 83 103 42 67 82 70 83 103 50 77 95 41 65 80
102 76 94 45 71 88 52 80 98 49 76 94 52 80 100 96 72 89 49 76 95 40 65 81 48 76 94 43 69 85 41 66 82 32 55 69 44 71 89 33 57 71 102 60 76 95 62 78
41 67 83 71 67 84 89 64 80 36 61 76 31 54 67 42 68 85 37 61 76 34 57 72 49 77 96 119 66 82 43 68 84 78 76 95 45 70 87 40 64 79 50 77 95 46 72 89
49 76 94 51 79 97 61 85 105 47 73 90 45 71 88 52 80 99 45 71 88 42 66 82 51 79 98 124 67 83 38 62 76 42 68 84 43 69 86 117 63 78 43 69 86 39 65 81
46 73 91 96 63 79 41 67 84 43 69 87 76 66 82 77 65 82 41 67 84 104 61 77 42 68 85 43 69 86 33 56 69 43 69 86 38 62 77 89 71 88 42 67 83 54 81 100
109 71 88 42 66 82 40 64 78 44 69 86 56 85 105 48 74 91 53 81 100 42 66 81 42 66 81 51 79 97 47 74 91 46 72 89 48 75 93 24 28 28 24 28 28 24 28 28
24 28 28 24 28 28 24 28 28 24 28 28 24 28 28 24 28 28 97 96 89 74 75 71 102 101 93 105 104 96 98 98 91 73 74 70 75 76 72 85 85 80 97 97 89 96 96 89
76 78 73 74 76 71 102 101 94 99 99 91 24 28 28 24 28 28 24 28 28 24 28 28 24 28 28 24 28 28 24 28 28 24 28 28 24 28 28 24 28 28 24 28 28 24 28 28
24 28 28 24 28 28 24 28 28 24 28 28 24 28 28 24 28 28 24 28 28 24 28 28 24 28 28 24 28 28 24 28 28 24 28 28 24 28 28 24 28 28 24 28 28 24 28 28
24 28 28 24 28 28 24 28 28 24 28 28 24 28 28 24 28 28 24 28 28 24 28 28 24 28 28 24 28 28 24 28 28 24 28 28 24 28 28 24 28 28 24 28 28 24 28 28
24 28 28 24 28 28 24 28 28 24 28 28 24 28 28 24 28 28 24 28 28 24 28 28 24 28 28 24 28 28 24 28 28 24 28 28 24 28 28 24 28 28 24 28 28 24 28 28
24 28 28 24 28 28 24 28 28 24 28 28 24 28 28 24 28 28 24 28 28 24 28 28 24 28 28 24 28 28 24 28 28 24 28 28 24 28 28 24 28 28 24 28 28 24 28 28
24 28 28 24 28 28 24 28 28 24 28 28 24 28 28 24 28 28 24 28 28 24 28 28 24 28 28 24 28 28 24 28 28 24 28 28 24 28 28 24 28 28 24 28 28 24 28 28
24 28 28 24 28 28 24 28 28 24 28 28 24 28 28 24 28 28 24 28 28 24 28 28 24 28 28 24 28 28 24 28 28 24 28 28 24 28 28 24 28 28 24 28 28 24 28 28
24 28 28 24 28 28 24 28 28 45 52 61 51 58 67 45 52 61 24 28 28 53 60 69 60 67 76 57 64 73 60 67 76 24 28 28 65 72 81 61 68 77 42 49 58 61 68 77
41 66 81 49 76 94 37 61 76 35 58 72 48 75 94 45 72 90 41 66 83 40 65 81 39 64 80 39 64 80 32 54 68 39 64 80 34 58 72 37 61 76 36 60 75 39 64 80
88 67 84 40 65 80 36 59 74 49 76 95 44 70 87 48 75 93 46 72 90 50 78 96 47 73 90 49 75 92 43 68 83 45 70 86 53 81 100 56 85 105 66 85 105 51 78 96
47 72 89 53 82 101 55 83 103 51 79 97 40 65 80 49 76 94 42 67 84 50 78 97 39 63 79 36 60 75 48 75 94 46 73 91 38 63 79 44 71 88 37 61 76 81 66 82
36 60 75 32 55 69 41 66 83 39 64 79 38 63 78 41 66 83 34 57 71 35 59 73 43 68 85 68 77 95 112 69 86 40 65 80 109 72 90 52 79 98 55 83 103 45 71 87
45 70 86 55 84 103 51 77 95 54 82 101 46 72 88 50 77 95 46 72 88 54 83 103 46 71 88 40 64 79 40 64 80 37 61 76 47 74 92 49 76 95 47 75 93 35 58 73
47 74 93 39 64 80 41 66 83 42 68 84 105 61 76 31 53 67 33 57 71 31 54 67 38 62 78 41 67 83 33 56 69 62 75 93 37 61 75 44 69 86 42 67 83 50 77 96
63 81 101 47 73 90 107 75 92 56 85 104 108 76 94 50 77 95 43 68 83 48 74 91 43 67 82 46 72 88 128 71 88 49 76 94 41 65 81 24 28 28 24 28 28 24 28 28
24 28 28 24 28 28 24 28 28 24 28 28 24 28 28 24 28 28 78 80 75 85 86 80 104 103 95 90 90 84 73 74 70 86 87 81 75 77 72 73 75 70 101 100 93 76 78 73
90 90 84 103 102 94 84 85 79 101 100 93 24 28 28 24 28 28 24 28 28 24 28 28 24 28 28 24 28 28 24 28 28 24 28 28 24 28 28 24 28 28 24 28 28 24 28 28
24 28 28 24 28 28 24 28 28 24 28 28 24 28 28 24 28 28 24 28 28 24 28 28 24 28 28 24 28 28 24 28 28 24 28 28 24 28 28 24 28 28 24 28 28 24 28 28
24 28 28 24 28 28 24 28 28 24 28 28 24 28 28 24 28 28 24 28 28 24 28 28 24 28 28 24 28 28 24 28 28 24 28 28 24 28 28 24 28 28 24 28 28 24 28 28
24 28 28 24 28 28 24 28 28 24 28 28 24 28 28 24 28 28 24 28 28 24 28 28 24 28 28 24 28 28 24 28 28 24 28 28 24 28 28 24 28 28 24 28 28 24 28 28
24 28 28 24 28 28 24 28 28 24 28 28 24 28 28 24 28 28 24 28 28 24 28 28 24 28 28 24 28 28 24 28 28 24 28 28 24 28 28 24 28 28 24 28 28 24 28 28
24 28 28 24 28 28 24 28 28 24 28 28 24 28 28 24 28 28 24 28 28 24 28 28 24 28 28 24 28 28 24 28 28 24 28 28 24 28 28 24 28 28 24 28 28 24 28 28
24 28 28 24 28 28 24 28 28 24 28 28 24 28 28 24 28 28 24 28 28 24 28 28 24 28 28 24 28 28 24 28 28 24 28 28 24 28 28 24 28 28 24 28 28 24 28 28
24 28 28 24 28 28 24 28 28 60 67 76 42 49 58 64 71 80 24 28 28 60 67 76 59 66 75 67 74 83 51 58 67 24 28 28 57 64 73 67 74 83 52 59 68 51 58 67
46 72 88 111 71 88 100 72 89 105 69 86 48 75 93 43 69 86 39 63 79 44 70 86 72 70 88 33 55 69 45 72 90 41 67 83 45 72 90 37 61 76 103 64 80 47 74 93
42 67 83 105 67 83 48 76 94 41 65 80 43 68 84 46 71 88 44 69 84 49 76 93 43 67 82 52 79 97 47 73 89 57 86 105 51 77 94 59 88 108 116 77 95 54 81 100
56 84 104 50 76 93 112 75 93 43 67 82 50 77 95 54 83 102 63 80 99 50 77 95 44 69 85 36 59 73 45 71 89 42 67 84 52 75 93 36 60 75 39 63 79 43 68 85
43 69 86 41 67 83 33 56 70 39 63 78 47 74 92 37 61 76 40 64 80 46 73 90 47 73 91 46 72 89 43 68 84 45 71 87 45 70 86 45 70 86 54 82 101 54 82 101
76 85 104 52 79 97 55 84 103 51 78 96 55 83 103 43 67 82 44 68 84 52 79 97 53 81 100 43 67 83 51 79 97 104 71 88 43 68 84 40 65 80 48 75 93 40 64 80
41 67 83 33 55 68 40 64 80 35 58 72 46 74 92 32 54 67 43 69 86 32 55 68 34 57 70 43 68 85 39 63 78 43 68 84 47 73 90 42 67 83 86 76 94 44 69 85
41 65 80 50 77 94 43 67 82 56 85 104 45 70 86 44 68 83 44 68 84 131 74 91 55 83 102 56 85 104 53 81 99 47 73 89 113 74 91 24 28 28 24 28 28 24 28 28
24 28 28 24 28 28 24 28 28 24 28 28 24 28 28 24 28 28 88 88 82 73 74 70 88 89 83 92 92 86 92 92 85 91 91 85 89 89 83 100 99 92 71 73 69 74 76 71
97 97 90 73 75 71 96 96 89 88 88 82 24 28 28 24 28 28 24 28 28 24 28 28 24 28 28 24 28 28 24 28 28 24 28 28 24 28 28 24 28 28 24 28 28 24 28 28
24 28 28 24 28 28 24 28 28 24 28 28 24 28 28 24 28 28 24 28 28 24 28 28 24 28 28 24 28 28 24 28 28 24 28 28 24 28 28 24 28 28 24 28 28 24 28 28
24 28 28 24 28 28 24 28 28 24 28 28 24 28 28 24 28 28 24 28 28 24 28 28 24 28 28 24 28 28 24 28 28 24 28 28 24 28 28 24 28 28 24 28 28 24 28 28
24 28 28 24 28 28 24 28 28 24 28 28 24 28 28 24 28 28 24 28 28 24 28 28 24 28 28 24 28 28 24 28 28 24 28 28 24 28 28 24 28 28 24 28 28 24 28 28
24 28 28 24 28 28 24 28 28 24 28 28 24 28 28 24 28 28 24 28 28 24 28 28 24 28 28 24 28 28 24 28 28 24 28 28 24 28 28 24 28 28 24 28 28 24 28 28
24 28 28 24 28 28 24 28 28 24 28 28 24 28 28 24 28 28 24 28 28 24 28 28 24 28 28 24 28 28 24 28 28 24 28 28 24 28 28 24 28 28 24 28 28 24 28 28
24 28 28 24 28 28 24 28 28 24 28 28 24 28 28 24 28 28 24 28 28 24 28 28 24 28 28 24 28 28 24 28 28 24 28 28 24 28 28 24 28 28 24 28 28 24 28 28
24 28 28 24 28 28 24 28 28 62 69 78 66 73 82 57 64 73 24 28 28 50 57 66 65 72 81 59 66 75 63 70 79 24 28 28 61 68 77 64 71 80 61 68 77 58 65 74
47 73 89 118 73 90 109 73 90 54 81 100 75 77 96 47 73 90 38 61 75 49 75 93 44 69 85 48 75 93 49 76 94 48 75 93 42 67 83 37 60 74 101 68 85 49 76 94
109 69 85 49 76 93 50 77 95 45 70 87 50 77 95 43 67 81 101 78 96 130 73 90 48 73 89 60 89 109 102 82 101 50 76 92 59 87 107 92 85 104 53 80 97 56 84 102
59 87 107 132 76 93 49 75 92 53 79 97 56 84 103 52 80 98 53 80 99 45 70 86 44 69 85 47 73 90 44 69 85 46 72 89 38 61 76 47 74 92 46 73 90 37 60 74
36 59 72 46 72 89 37 60 75 37 60 74 44 69 85 43 68 84 40 64 79 39 62 77 54 81 100 49 75 92 45 69 84 55 82 101 55 83 102 57 85 104 48 73 89 55 83 101
56 83 102 109 82 100 50 76 92 47 72 87 53 80 98 57 84 103 51 77 94 45 69 84 44 68 83 56 84 103 47 73 89 42 66 80 50 77 95 50 76 94 41 65 80 49 75 93
40 64 79 44 69 85 42 66 82 42 67 83 47 74 92 49 76 94 47 73 90 40 64 80 116 66 82 38 62 76 46 71 88 90 75 92 50 76 94 70 81 100 49 75 92 54 81 100
57 86 105 50 76 93 55 82 100 104 82 100 55 82 100 49 74 90 48 73 89 58 86 105 54 81 99 46 70 85 53 80 98 114 78 96 52 79 96 24 28 28 24 28 28 24 28 28
24 28 28 24 28 28 24 28 28 24 28 28 24 28 28 24 28 28 76 78 73 71 73 69 101 100 93 83 84 79 104 103 95 98 97 90 75 77 72 79 80 75 79 80 75 93 93 86
104 103 95 75 77 72 87 88 82 77 79 74 24 28 28 24 28 28 24 28 28 24 28 28 24 28 28 24 28 28 24 28 28 24 28 28 24 28 28 24 28 28 24 28 28 24 28 28
24 28 28 24 28 28 24 28 28 24 28 28 24 28 28 24 28 28 24 28 28 24 28 28 24 28 28 24 28 28 24 28 28 24 28 28 24 28 28 24 28 28 24 28 28 24 28 28
24 28 28 24 28 28 24 28 28 24 28 28 24 28 28 24 28 28 24 28 28 24 28 28 24 28 28 24 28 28 24 28 28 24 28 28 24 28 28 24 28 28 24 28 28 24 28 28
24 28 28 24 28 28 24 28 28 24 28 28 24 28 28 24 28 28 24 28 28 24 28 28 24 28 28 24 28 28 24 28 28 24 28 28 24 28 28 24 28 28 24 28 28 24 28 28
24 28 28 24 28 28 24 28 28 24 28 28 24 28 28 24 28 28 24 28 28 24 28 28 24 28 28 24 28 28 24 28 28 24 28 28 24 28 28 24 28 28 24 28 28 24 28 28
24 28 28 24 28 28 24 28 28 24 28 28 24 28 28 24 28 28 24 28 28 24 28 28 24 28 28 24 28 28 24 28 28 24 28 28 24 28 28 24 28 28 24 28 28 24 28 28
24 28 28 24 28 28 24 28 28 24 28 28 24 28 28 24 28 28 24 28 28 24 28 28 24 28 28 24 28 28 24 28 28 24 28 28 24 28 28 24 28 28 24 28 28 24 28 28
24 28 28 24 28 28 24 28 28 55 62 71 61 68 77 47 54 63 24 28 28 48 55 64 67 74 83 48 55 64 44 51 60 24 28 28 60 67 76 50 57 66 59 66 75 52 59 68
52 77 94 61 89 109 54 80 98 44 67 82 73 83 101 101 76 93 41 64 79 52 79 96 53 80 98 43 68 83 49 75 93 46 71 88 54 81 100 54 82 101 124 69 84 51 77 95
56 84 103 54 81 99 129 72 88 43 67 81 45 69 84 49 74 89 54 81 98 54 81 98 50 75 91 55 81 99 50 75 90 62 90 110 70 95 115 75 94 114 64 93 113 58 85 104
56 83 100 50 75 90 58 85 104 90 87 106 58 86 105 91 84 103 56 84 102 45 69 84 57 84 103 45 69 84 42 65 79 43 67 82 126 68 84 40 63 77 40 63 77 52 80 98
43 67 81 53 80 98 48 74 91 46 71 88 43 66 81 53 80 98 45 69 85 73 84 103 48 72 88 45 68 83 58 86 104 51 76 93 61 90 110 55 81 99 63 92 112 52 77 93
57 84 102 65 95 116 56 82 100 59 86 105 61 89 108 64 93 113 58 85 104 50 75 90 62 92 112 47 71 87 60 89 108 58 86 105 46 70 85 120 74 90 76 81 99 42 66 80
45 69 84 48 74 90 47 73 89 46 71 87 93 74 91 53 80 98 46 71 87 51 78 95 48 73 90 54 81 100 54 82 100 45 69 84 46 70 85 55 82 100 54 80 98 53 80 97
52 77 94 52 77 93 58 85 103 133 81 98 56 83 100 66 95 116 52 78 94 65 95 115 55 81 99 57 84 102 57 84 102 76 91 111 55 81 99 24 28 28 24 28 28 24 28 28
24 28 28 24 28 28 24 28 28 24 28 28 24 28 28 24 28 28 96 96 89 73 75 71 104 103 95 95 95 88 98 98 91 72 74 69 82 83 78 79 80 75 76 77 73 102 101 93
100 100 92 99 98 91 73 74 70 73 74 70 24 28 28 24 28 28 24 28 28 24 28 28 24 28 28 24 28 28 24 28 28 24 28 28 24 28 28 24 28 28 24 28 28 24 28 28
24 28 28 24 28 28 24 28 28 24 28 28 24 28 28 24 28 28 24 28 28 24 28 28 24 28 28 24 28 28 24 28 28 24 28 28 24 28 28 24 28 28 24 28 28 24 28 28
24 28 28 24 28 28 24 28 28 24 28 28 24 28 28 24 28 28 24 28 28 24 28 28 24 28 28 24 28 28 24 28 28 24 28 28 24 28 28 24 28 28 24 28 28 24 28 28
24 28 28 24 28 28 24 28 28 24 28 28 24 28 28 24 28 28 24 28 28 24 28 28 24 28 28 24 28 28 24 28 28 24 28 28 24 28 28 24 28 28 24 28 28 24 28 28
24 28 28 24 28 28 24 28 28 24 28 28 24 28 28 24 28 28 24 28 28 24 28 28 24 28 28 24 28 28 24 28 28 24 28 28 24 28 28 24 28 28 24 28 28 24 28 28
24 28 28 24 28 28 24 28 28 24 28 28 24 28 28 24 28 28 24 28 28 24 28 28 24 28 28 24 28 28 24 28 28 24 28 28 24 28 28 24 28 28 24 28 28 24 28 28
24 28 28 24 28 28 24 28 28 24 28 28 24 28 28 24 28 28 24 28 28 24 28 28 24 28 28 24 28 28 24 28 28 24 28 28 24 28 28 24 28 28 24 28 28 24 28 28
24 28 28 24 28 28 24 28 28 68 75 84 60 67 76 49 56 65 24 28 28 58 65 74 46 53 62 44 51 60 43 50 59 24 28 28 67 74 83 45 52 61 67 74 83 50 57 66
58 85 103 58 85 103 64 92 112 54 79 96 54 79 96 61 89 109 55 81 99 54 80 98 58 85 104 53 79 96 55 82 100 91 79 97 54 80 97 51 77 93 44 67 82 50 75 91
51 77 93 48 72 87 55 81 98 55 81 98 57 84 102 52 77 93 130 83 100 63 91 110 62 89 108 67 96 116 65 93 112 67 96 116 61 88 106 131 88 106 67 96 116 114 91 110
59 85 102 81 96 116 54 79 94 67 96 116 59 86 104 53 78 94 59 86 104 48 72 87 56 82 100 57 84 102 57 85 103 60 88 107 47 71 86 54 80 97 54 81 99 54 81 98
45 69 84 53 79 97 57 84 103 46 70 85 53 78 95 48 72 87 102 82 100 55 81 98 60 88 107 61 89 108 60 87 105 58 84 101 67 96 117 62 90 109 62 89 107 57 83 100
61 87 105 60 87 105 69 99 119 60 86 104 74 99 119 124 88 106 61 88 106 68 97 118 71 96 116 64 93 112 64 92 112 52 77 93 59 86 104 49 73 89 54 81 98 56 83 101
52 78 94 119 75 91 130 72 88 45 68 83 43 66 80 51 77 94 51 76 92 51 76 92 54 81 98 56 83 101 60 87 106 72 88 108 52 77 93 58 85 103 59 86 103 52 77 93
78 94 114 57 83 100 67 96 117 62 89 107 57 83 99 58 83 100 99 94 114 64 92 111 94 95 115 63 90 109 77 97 118 114 89 107 65 94 114 24 28 28 24 28 28 24 28 28
24 28 28 24 28 28 24 28 28 24 28 28 24 28 28 24 28 28 73 75 71 89 90 83 83 84 79 101 101 93 91 91 85 84 85 80 85 86 80 103 103 95 94 94 87 71 72 68
74 76 71 87 87 81 79 80 75 73 75 71 24 28 28 24 28 28 24 28 28 24 28 28 24 28 28 24 28 28 24 28 28 24 28 28 24 28 28 24 28 28 24 28 28 24 28 28
24 28 28 24 28 28 24 28 28 24 28 28 24 28 28 24 28 28 24 28 28 24 28 28 24 28 28 24 28 28 24 28 28 24 28 28 24 28 28 24 28 28 24 28 28 24 28 28
24 28 28 24 28 28 24 28 28 24 28 28 24 28 28 24 28 28 24 28 28 24 28 28 24 28 28 24 28 28 24 28 28 24 28 28 24 28 28 24 28 28 24 28 28 24 28 28
24 28 28 24 28 28 24 28 28 24 28 28 24 28 28 24 28 28 24 28 28 24 28 28 24 28 28 24 28 28 24 28 28 24 28 28 24 28 28 24 28 28 24 28 28 24 28 28
24 28 28 24 28 28 24 28 28 24 28 28 24 28 28 24 28 28 24 28 28 24 28 28 24 28 28 24 28 28 24 28 28 24 28 28 24 28 28 24 28 28 24 28 28 24 28 28
24 28 28 24 28 28 24 28 28 24 28 28 24 28 28 24 28 28 24 28 28 24 28 28 24 28 28 24 28 28 24 28 28 24 28 28 24 28 28 24 28 28 24 28 28 24 28 28
24 28 28 24 28 28 24 28 28 24 28 28 24 28 28 24 28 28 24 28 28 24 28 28 24 28 28 24 28 28 24 28 28 24 28 28 24 28 28 24 28 28 24 28 28 24 28 28
24 28 28 24 28 28 24 28 28 64 71 80 45 52 61 52 59 68 24 28 28 46 53 62 65 72 81 67 74 83 47 54 63 24 28 28 53 60 69 61 68 77 65 72 81 64 71 80
60 86 104 54 78 93 73 95 115 61 88 106 50 74 89 58 85 102 54 80 96 48 71 86 58 85 103 56 83 100 59 87 105 48 72 87 101 82 99 56 82 99 53 78 95 62 91 110
58 84 102 59 85 103 113 85 102 59 86 104 65 94 113 57 82 99 108 91 110 66 95 114 66 93 112 87 99 119 57 82 98 69 98 118 62 89 106 68 97 116 70 98 118 84 101 122
103 97 116 63 90 108 124 91 109 65 92 111 68 96 116 59 86 103 56 81 97 63 91 110 66 94 114 60 87 105 57 84 101 50 75 90 55 81 98 60 87 106 54 79 96 55 81 98
53 78 95 51 75 90 61 89 107 78 88 106 61 89 108 53 78 94 52 76 91 52 77 92 65 93 112 54 79 95 59 86 103 61 87 105 66 95 114 66 94 112 71 100 121 59 84 100
72 101 122 60 86 103 63 90 108 70 99 118 138 90 108 62 89 106 71 101 122 128 89 108 98 94 114 55 80 96 61 87 105 60 87 104 54 78 94 63 90 109 112 83 101 58 85 102
50 74 89 52 77 93 56 83 100 57 84 102 51 75 91 51 76 92 51 75 91 58 84 102 55 80 97 59 86 104 58 85 103 58 84 101 119 85 102 54 79 95 66 95 114 61 88 106
56 81 97 57 82 98 61 87 105 60 85 102 58 84 100 61 87 104 63 89 106 65 92 111 100 98 118 73 103 124 68 96 116 62 89 107 59 84 101 24 28 28 24 28 28 24 28 28
24 28 28 24 28 28 24 28 28 24 28 28 24 28 28 24 28 28 90 90 84 74 75 71 87 87 81 103 102 95 74 76 71 74 76 71 100 100 92 102 101 94 85 86 80 101 100 93
84 84 79 92 92 85 70 72 68 93 93 87 24 28 28 24 28 28 24 28 28 24 28 28 24 28 28 24 28 28 24 28 28 24 28 28 24 28 28 24 28 28 24 28 28 24 28 28
24 28 28 24 28 28 24 28 28 24 28 28 24 28 28 24 28 28 24 28 28 24 28 28 24 28 28 24 28 28 24 28 28 24 28 28 24 28 28 24 28 28 24 28 28 24 28 28
24 28 28 24 28 28 24 28 28 24 28 28 24 28 28 24 28 28 24 28 28 24 28 28 24 28 28 24 28 28 24 28 28 24 28 28 24 28 28 24 28 28 24 28 28 24 28 28
24 28 28 24 28 28 24 28 28 24 28 28 24 28 28 24 28 28 24 28 28 24 28 28 24 28 28 24 28 28 24 28 28 24 28 28 24 28 28 24 28 28 24 28 28 24 28 28
24 28 28 24 28 28 24 28 28 24 28 28 24 28 28 24 28 28 24 28 28 24 28 28 24 28 28 24 28 28 24 28 28 24 28 28 24 28 28 24 28 28 24 28 28 24 28 28
24 28 28 24 28 28 24 28 28 24 28 28 24 28 28 24 28 28 24 28 28 24 28 28 24 28 28 24 28 28 24 28 28 24 28 28 24 28 28 24 28 28 24 28 28 24 28 28
24 28 28 24 28 28 24 28 28 24 28 28 24 28 28 24 28 28 24 28 28 24 28 28 24 28 28 24 28 28 24 28 28 24 28 28 24 28 28 24 28 28 24 28 28 24 28 28
24 28 28 24 28 28 24 28 28 51 58 67 67 74 83 47 54 63 24 28 28 60 67 76 51 58 67 67 74 83 67 74 83 24 28 28 61 68 77 51 58 67 45 52 61 51 58 67
67 95 115 107 91 110 68 97 117 66 94 114 52 75 90 65 94 114 54 79 94 60 87 105 51 75 90 59 86 104 56 82 99 51 76 91 52 77 93 106 82 100 52 76 91 59 86 104
64 92 111 51 74 89 62 89 108 55 80 96 63 90 108 59 85 102 70 99 119 62 89 106 99 97 116 142 89 107 64 91 109 94 100 120 143 91 109 60 86 102 66 94 112 63 90 107
61 87 104 65 92 110 70 99 119 60 86 103 63 90 108 56 81 97 60 86 103 64 92 111 62 90 108 55 81 97 55 80 97 56 82 98 79 89 107 63 91 110 49 73 88 58 85 103
53 79 95 61 88 107 51 75 90 57 83 100 58 85 102 60 88 106 63 90 109 56 82 98 135 83 101 62 89 107 56 81 96 66 93 112 69 98 118 61 87 104 69 98 117 66 93 111
65 93 111 72 102 122 61 86 103 121 95 114 70 99 119 69 98 117 68 96 115 64 91 109 62 89 106 111 92 110 84 96 115 65 93 111 53 77 92 61 88 106 61 88 107 51 75 91
81 89 108 57 83 100 58 84 102 50 74 88 86 86 104 49 72 87 48 71 86 56 82 99 50 74 89 90 88 106 110 85 103 55 80 95 53 77 92 65 93 111 60 86 103 63 90 108
69 98 118 59 85 101 72 102 122 71 101 121 66 94 112 69 97 116 62 88 105 67 95 114 72 102 122 64 91 109 67 95 114 63 90 107 64 92 110 24 28 28 24 28 28 24 28 28
24 28 28 24 28 28 24 28 28 24 28 28 24 28 28 24 28 28 77 79 74 85 86 80 87 88 82 70 72 68 76 78 73 77 78 73 85 86 80 74 76 71 102 102 94 80 81 76
101 100 93 77 78 73 73 75 71 88 88 82 24 28 28 24 28 28 24 28 28 24 28 28 24 28 28 24 28 28 24 28 28 24 28 28 24 28 28 24 28 28 24 28 28 24 28 28
24 28 28 24 28 28 24 28 28 24 28 28 24 28 28 24 28 28 24 28 28 24 28 28 24 28 28 24 28 28 24 28 28 24 28 28 24 28 28 24 28 28 24 28 28 24 28 28
24 28 28 24 28 28 24 28 28 24 28 28 24 28 28 24 28 28 24 28 28 24 28 28 24 28 28 24 28 28 24 28 28 24 28 28 24 28 28 24 28 28 24 28 28 24 28 28
24 28 28 24 28 28 24 28 28 24 28 28 24 28 28 24 28 28 24 28 28 24 28 28 24 28 28 24 28 28 24 28 28 24 28 28 24 28 28 24 28 28 24 28 28 24 28 28
24 28 28 24 28 28 24 28 28 24 28 28 24 28 28 24 28 28 24 28 28 24 28 28 24 28 28 24 28 28 24 28 28 24 28 28 24 28 28 24 28 28 24 28 28 24 28 28
24 28 28 24 28 28 24 28 28 24 28 28 24 28 28 24 28 28 24 28 28 24 28 28 24 28 28 24 28 28 24 28 28 24 28 28 24 28 28 24 28 28 24 28 28 24 28 28
24 28 28 24 28 28 24 28 28 24 28 28 24 28 28 24 28 28 24 28 28 24 28 28 24 28 28 24 28 28 24 28 28 24 28 28 24 28 28 24 28 28 24 28 28 24 28 28
24 28 28 24 28 28 24 28 28 54 61 70 41 48 57 62 69 78 24 28 28 50 57 66 47 54 63 41 48 57 44 51 60 24 28 28 43 50 59 68 75 84 60 67 76 50 57 66
63 90 108 67 96 116 66 95 115 61 89 107 51 76 91 55 81 98 83 87 106 57 84 101 52 77 92 57 83 101 56 82 100 60 88 107 95 82 100 55 81 98 49 73 88 53 79 95
48 71 85 61 89 108 60 87 105 52 76 92 62 89 108 53 77 92 56 81 98 70 99 120 78 99 119 57 82 98 59 85 102 59 85 102 139 89 108 66 94 113 70 99 119 123 93 111
70 99 120 62 89 107 58 83 100 56 81 97 62 89 106 58 84 100 67 96 116 58 84 101 62 89 108 79 90 109 62 91 110 71 89 108 52 77 93 80 86 104 48 71 86 49 74 89
49 73 88 51 75 91 113 79 96 53 78 95 61 89 108 63 91 111 60 87 105 50 73 88 59 86 103 55 80 96 61 88 106 63 90 108 69 98 118 67 96 116 64 91 109 60 86 103
65 93 112 71 100 121 61 87 104 64 91 109 72 102 123 71 100 121 94 97 116 135 87 105 62 89 108 58 84 101 52 77 92 64 92 111 56 81 98 55 81 98 52 77 93 134 77 94
92 85 103 52 77 93 60 87 106 54 79 96 46 70 84 61 89 107 48 72 87 48 72 86 61 88 107 87 86 105 49 73 87 58 85 102 63 90 109 92 91 110 61 88 106 63 91 109
67 96 116 138 87 104 65 93 111 71 100 121 59 84 100 59 84 101 64 91 109 73 103 124 63 90 108 141 88 106 65 93 112 66 95 114 67 95 114 24 28 28 24 28 28 24 28 28
24 28 28 24 28 28 24 28 28 24 28 28 24 28 28 24 28 28 83 84 78 103 102 95 89 89 83 97 97 90 77 79 74 95 95 88 96 96 89 87 87 81 97 97 90 87 87 82
92 92 86 102 101 93 78 79 75 103 102 95 24 28 28 24 28 28 24 28 28 24 28 28 24 28 28 24 28 28 24 28 28 24 28 28 24 28 28 24 28 28 24 28 28 24 28 28
24 28 28 24 28 28 24 28 28 24 28 28 24 28 28 24 28 28 24 28 28 24 28 28 24 28 28 24 28 28 24 28 28 24 28 28 24 28 28 24 28 28 24 28 28 24 28 28
24 28 28 24 28 28 24 28 28 24 28 28 24 28 28 24 28 28 24 28 28 24 28 28 24 28 28 24 28 28 24 28 28 24 28 28 24 28 28 24 28 28 24 28 28 24 28 28
24 28 28 24 28 28 24 28 28 24 28 28 24 28 28 24 28 28 24 28 28 24 28 28 24 28 28 24 28 28 24 28 28 24 28 28 24 28 28 24 28 28 24 28 28 24 28 28
24 28 28 24 28 28 24 28 28 24 28 28 24 28 28 24 28 28 24 28 28 24 28 28 24 28 28 24 28 28 24 28 28 24 28 28 24 28 28 24 28 28 24 28 28 24 28 28
24 28 28 24 28 28 24 28 28 24 28 28 24 28 28 24 28 28 24 28 28 24 28 28 24 28 28 24 28 28 24 28 28 24 28 28 24 28 28 24 28 28 24 28 28 24 28 28
24 28 28 24 28 28 24 28 28 24 28 28 24 28 28 24 28 28 24 28 28 24 28 28 24 28 28 24 28 28 24 28 28 24 28 28 24 28 28 24 28 28 24 28 28 24 28 28
24 28 28 24 28 28 24 28 28 43 50 59 54 61 70 53 60 69 24 28 28 45 52 61 69 76 85 50 57 66 49 56 65 24 28 28 49 56 65 49 56 65 55 62 71 46 53 62
62 90 109 62 91 110 57 84 102 59 86 105 52 78 95 56 83 101 46 69 84 53 80 97 46 70 85 57 84 103 118 73 89 46 70 85 44 67 81 52 78 95 55 82 100 55 82 100
79 84 102 52 78 94 53 79 95 51 76 92 59 87 105 54 80 97 59 86 104 52 76 92 58 84 102 53 77 93 55 81 97 57 83 100 59 85 103 62 89 107 59 85 102 60 87 105
57 83 100 61 88 107 58 84 102 63 91 110 59 86 104 103 86 104 52 77 93 48 71 86 49 73 89 89 83 102 67 87 106 48 72 87 45 69 84 50 76 92 54 81 98 46 71 86
78 81 99 54 81 99 54 81 99 57 85 104 49 73 89 49 73 89 46 70 84 56 82 100 58 85 103 62 91 110 61 89 108 53 78 94 65 94 114 66 95 115 68 98 118 60 87 105
58 84 101 68 98 119 68 98 119 60 87 104 60 87 105 66 94 114 55 80 97 66 95 115 61 88 106 50 74 89 57 84 102 48 72 87 122 79 96 48 72 87 52 78 94 55 82 99
56 83 102 57 85 104 45 69 83 54 80 98 47 72 87 56 83 102 52 78 95 45 68 83 51 76 93 57 84 103 45 69 83 50 75 91 50 74 89 61 89 107 56 82 99 64 93 113
64 93 113 59 86 103 64 93 112 60 87 105 110 90 109 67 97 117 60 87 105 64 92 112 67 96 117 63 91 110 121 87 105 63 91 110 111 87 106 24 28 28 24 28 28 24 28 28
24 28 28 24 28 28 24 28 28 24 28 28 24 28 28 24 28 28 71 73 69 85 86 80 95 95 88 82 83 77 81 82 77 92 92 86 93 93 86 79 81 75 80 81 76 71 73 69
75 77 72 94 94 87 78 80 75 99 98 91 24 28 28 24 28 28 24 28 28 24 28 28 24 28 28 24 28 28 24 28 28 24 28 28 24 28 28 24 28 28 24 28 28 24 28 28
24 28 28 24 28 28 24 28 28 24 28 28 24 28 28 24 28 28 24 28 28 24 28 28 24 28 28 24 28 28 24 28 28 24 28 28 24 28 28 24 28 28 24 28 28 24 28 28
24 28 28 24 28 28 24 28 28 24 28 28 24 28 28 24 28 28 24 28 28 24 28 28 24 28 28 24 28 28 24 28 28 24 28 28 24 28 28 24 28 28 24 28 28 24 28 28
24 28 28 24 28 28 24 28 28 24 28 28 24 28 28 24 28 28 24 28 28 24 28 28 24 28 28 24 28 28 24 28 28 24 28 28 24 28 28 24 28 28 24 28 28 24 28 28
24 28 28 24 28 28 24 28 28 24 28 28 24 28 28 24 28 28 24 28 28 24 28 28 24 28 28 24 28 28 24 28 28 24 28 28 24 28 28 24 28 28 24 28 28 24 28 28
24 28 28 24 28 28 24 28 28 24 28 28 24 28 28 24 28 28 24 28 28 24 28 28 24 28 28 24 28 28 24 28 28 24 28 28 24 28 28 24 28 28 24 28 28 24 28 28
24 28 28 24 28 28 24 28 28 24 28 28 24 28 28 24 28 28 24 28 28 24 28 28 24 28 28 24 28 28 24 28 28 24 28 28 24 28 28 24 28 28 24 28 28 24 28 28
24 28 28 24 28 28 24 28 28 47 54 63 44 51 60 63 70 79 24 28 28 61 68 77 59 66 75 46 53 62 61 68 77 24 28 28 57 64 73 67 74 83 46 53 62 64 71 80
50 76 92 52 78 95 49 74 90 87 80 98 49 74 91 49 75 92 53 80 98 46 71 87 45 69 85 45 70 86 48 74 91 38 61 75 40 63 77 52 80 98 40 64 78 40 63 77
45 70 85 64 83 101 73 82 101 57 85 105 52 78 95 76 86 105 51 76 93 58 86 104 61 90 110 74 91 111 98 87 106 64 93 113 58 85 104 62 91 110 119 84 102 62 91 111
55 81 98 52 78 94 79 89 109 62 91 111 46 70 85 47 72 87 57 85 104 44 68 82 43 67 82 109 74 91 46 71 87 55 83 102 44 68 83 44 69 84 39 63 77 79 75 93
44 69 85 53 81 99 64 79 97 52 80 98 70 80 98 55 82 101 50 75 92 46 71 87 51 77 94 46 70 85 60 89 108 121 78 96 66 91 111 54 81 98 56 83 101 55 82 99
52 78 94 63 91 111 58 85 104 52 77 94 57 85 103 59 87 106 61 89 109 52 78 95 47 71 86 54 81 98 58 86 105 47 71 87 54 81 99 115 74 90 44 68 83 49 76 93
40 63 76 46 71 87 47 73 89 51 77 95 52 79 98 40 63 78 51 78 96 50 76 93 49 76 93 40 63 77 45 69 85 44 68 83 53 80 98 48 73 90 48 73 89 48 73 88
90 85 104 49 74 90 75 90 110 51 76 93 62 91 110 63 92 112 54 80 97 64 93 113 63 92 112 64 94 114 82 90 109 56 83 101 53 80 97 24 28 28 24 28 28 24 28 28
24 28 28 24 28 28 24 28 28 24 28 28 24 28 28 24 28 28 102 101 94 99 99 91 73 75 71 89 89 83 89 90 83 85 85 80 101 100 93 71 73 69 76 77 73 80 81 76
73 75 71 78 79 74 78 80 75 91 92 85 24 28 28 24 28 28 24 28 28 24 28 28 24 28 28 24 28 28 24 28 28 24 28 28 24 28 28 24 28 28 24 28 28 24 28 28
24 28 28 24 28 28 24 28 28 24 28 28 24 28 28 24 28 28 24 28 28 24 28 28 24 28 28 24 28 28 24 28 28 24 28 28 24 28 28 24 28 28 24 28 28 24 28 28
24 28 28 24 28 28 24 28 28 24 28 28 24 28 28 24 28 28 24 28 28 24 28 28 24 28 28 24 28 28 24 28 28 24 28 28 24 28 28 24 28 28 24 28 28 24 28 28
24 28 28 24 28 28 24 28 28 24 28 28 24 28 28 24 28 28 24 28 28 24 28 28 24 28 28 24 28 28 24 28 28 24 28 28 24 28 28 24 28 28 24 28 28 24 28 28
24 28 28 24 28 28 24 28 28 24 28 28 24 28 28 24 28 28 24 28 28 24 28 28 24 28 28 24 28 28 24 28 28 24 28 28 24 28 28 24 28 28 24 28 28 24 28 28
24 28 28 24 28 28 24 28 28 24 28 28 24 28 28 24 28 28 24 28 28 24 28 28 24 28 28 24 28 28 24 28 28 24 28 28 24 28 28 24 28 28 24 28 28 24 28 28
24 28 28 24 28 28 24 28 28 24 28 28 24 28 28 24 28 28 24 28 28 24 28 28 24 28 28 24 28 28 24 28 28 24 28 28 24 28 28 24 28 28 24 28 28 24 28 28
24 28 28 24 28 28 24 28 28 55 62 71 64 71 80 54 61 70 24 28 28 66 73 82 44 51 60 51 58 67 66 73 82 24 28 28 58 65 74 69 76 85 45 52 61 58 65 74
44 69 84 41 64 79 43 67 83 43 67 83 43 68 83 48 74 91 50 77 96 46 73 90 48 75 93 43 68 84 43 69 85 46 73 90 36 59 73 38 61 76 36 58 72 43 68 84
41 65 80 51 79 98 42 66 82 52 80 98 42 66 81 49 75 92 121 73 90 45 69 85 93 81 100 50 76 93 56 83 102 57 85 105 47 71 87 133 76 94 46 70 86 47 71 87
45 70 85 46 71 87 51 78 95 44 68 83 44 68 83 49 75 92 47 72 89 49 76 93 41 65 80 120 67 83 48 74 92 47 73 90 44 70 86 37 61 75 43 68 84 44 70 87
44 70 87 35 57 71 122 63 78 38 61 75 46 72 89 49 76 94 39 62 77 53 81 100 44 68 84 46 72 88 46 72 88 55 83 102 52 79 97 48 74 90 55 82 101 46 71 86
100 83 101 57 85 104 55 82 101 86 86 105 55 82 101 60 89 109 56 85 104 52 79 97 46 70 86 72 83 102 44 69 85 44 69 85 57 82 101 52 80 98 48 74 92 104 68 85
45 71 88 35 58 71 47 73 90 113 64 80 39 64 79 39 63 78 49 77 95 43 68 85 38 62 76 47 73 90 47 73 90 46 71 88 54 82 101 47 73 90 120 72 89 55 84 103
45 70 85 56 84 103 48 73 89 54 81 100 52 79 96 53 79 97 55 82 101 52 78 96 53 79 97 110 80 98 66 88 108 49 75 92 54 82 100 24 28 28 24 28 28 24 28 28
24 28 28 24 28 28 24 28 28 24 28 28 24 28 28 24 28 28 76 78 73 78 79 75 95 95 88 100 100 92 79 80 75 87 87 81 97 96 89 82 83 78 94 94 87 81 82 77
74 75 71 83 84 78 79 80 75 83 84 79 24 28 28 24 28 28 24 28 28 24 28 28 24 28 28 24 28 28 24 28 28 24 28 28 24 28 28 24 28 28 24 28 28 24 28 28
24 28 28 24 28 28 24 28 28 24 28 28 24 28 28 24 28 28 24 28 28 24 28 28 24 28 28 24 28 28 24 28 28 24 28 28 24 28 28 24 28 28 24 28 28 24 28 28
24 28 28 24 28 28 24 28 28 24 28 28 24 28 28 24 28 28 24 28 28 24 28 28 24 28 28 24 28 28 24 28 28 24 28 28 24 28 28 24 28 28 24 28 28 24 28 28
24 28 28 24 28 28 24 28 28 24 28 28 24 28 28 24 28 28 24 28 28 24 28 28 24 28 28 24 28 28 24 28 28 24 28 28 24 28 28 24 28 28 24 28 28 24 28 28
24 28 28 24 28 28 24 28 28 24 28 28 24 28 28 24 28 28 24 28 28 24 28 28 24 28 28 24 28 28 24 28 28 24 28 28 24 28 28 24 28 28 24 28 28 24 28 28
24 28 28 24 28 28 24 28 28 24 28 28 24 28 28 24 28 28 24 28 28 24 28 28 24 28 28 24 28 28 24 28 28 24 28 28 24 28 28 24 28 28 24 28 28 24 28 28
24 28 28 24 28 28 24 28 28 24 28 28 24 28 28 24 28 28 24 28 28 24 28 28 24 28 28 24 28 28 24 28 28 24 28 28 24 28 28 24 28 28 24 28 28 24 28 28
24 28 28 24 28 28 24 28 28 43 50 59 65 72 81 43 50 59 24 28 28 49 56 65 69 76 85 42 49 58 51 58 67 24 28 28 67 74 83 64 71 80 44 51 60 45 52 61
48 74 91 43 68 84 43 69 85 39 63 78 53 78 97 34 57 71 83 69 86 40 65 81 33 55 69 35 59 73 39 64 80 98 64 80 82 67 84 95 65 81 44 70 87 40 64 80
49 76 95 43 68 85 46 72 89 47 73 91 48 74 92 46 72 89 45 70 87 48 74 91 54 82 101 84 81 100 73 84 103 94 80 99 47 72 89 54 82 101 113 77 95 48 74 91
44 69 84 47 73 90 42 65 80 55 83 102 50 77 95 42 67 82 41 65 80 50 77 96 38 61 76 50 77 96 39 64 79 35 59 73 43 69 86 42 67 84 34 56 70 43 69 86
107 62 78 33 55 69 41 67 83 36 59 73 45 72 89 43 69 86 47 73 91 43 68 85 42 67 83 39 63 78 50 77 95 50 77 96 47 72 89 51 79 97 54 82 101 47 72 89
47 73 90 52 79 97 55 83 102 46 71 87 46 72 88 46 71 87 55 84 103 44 69 85 47 72 89 49 75 93 51 79 97 50 77 95 46 72 89 37 61 75 45 71 88 36 60 75
41 67 83 33 56 69 44 70 87 32 55 68 39 64 79 119 59 75 34 57 71 120 60 76 46 73 91 37 60 75 42 67 83 37 60 75 50 77 96 51 79 98 49 76 94 46 72 88
50 77 95 48 74 91 84 81 100 48 73 90 52 79 98 57 86 105 58 88 108 47 72 89 54 82 101 52 79 98 49 75 92 47 73 89 48 74 91 24 28 28 24 28 28 24 28 28
24 28 28 24 28 28 24 28 28 24 28 28 24 28 28 24 28 28 89 89 83 99 98 91 85 85 80 91 92 85 78 79 74 86 87 81 92 92 86 99 99 92 72 74 70 80 81 76
98 98 91 91 91 85 101 101 93 89 90 84 24 28 28 24 28 28 24 28 28 24 28 28 24 28 28 24 28 28 24 28 28 24 28 28 24 28 28 24 28 28 24 28 28 24 28 28
24 28 28 24 28 28 24 28 28 24 28 28 24 28 28 24 28 28 24 28 28 24 28 28 24 28 28 24 28 28 24 28 28 24 28 28 24 28 28 24 28 28 24 28 28 24 28 28
24 28 28 24 28 28 24 28 28 24 28 28 24 28 28 24 28 28 24 28 28 24 28 28 24 28 28 24 28 28 24 28 28 24 28 28 24 28 28 24 28 28 24 28 28 24 28 28
24 28 28 24 28 28 24 28 28 24 28 28 24 28 28 24 28 28 24 28 28 24 28 28 24 28 28 24 28 28 24 28 28 24 28 28 24 28 28 24 28 28 24 28 28 24 28 28
24 28 28 24 28 28 24 28 28 24 28 28 24 28 28 24 28 28 24 28 28 24 28 28 24 28 28 24 28 28 24 28 28 24 28 28 24 28 28 24 28 28 24 28 28 24 28 28
24 28 28 24 28 28 24 28 28 24 28 28 24 28 28 24 28 28 24 28 28 24 28 28 24 28 28 24 28 28 24 28 28 24 28 28 24 28 28 24 28 28 24 28 28 24 28 28
24 28 28 24 28 28 24 28 28 24 28 28 24 28 28 24 28 28 24 28 28 24 28 28 24 28 28 24 28 28 24 28 28 24 28 28 24 28 28 24 28 28 24 28 28 24 28 28
24 28 28 24 28 28 24 28 28 51 58 67 67 74 83 57 64 73 24 28 28 61 68 77 60 67 76 43 50 59 53 60 69 24 28 28 65 72 81 57 64 73 60 67 76 57 64 73
44 70 87 39 64 79 42 67 82 45 71 88 42 68 84 47 75 93 39 63 79 32 54 68 40 65 81 33 56 70 45 72 90 117 58 73 36 60 75 34 57 72 46 73 91 40 65 82
89 67 83 38 62 77 84 70 87 40 65 80 50 78 97 46 73 90 52 81 100 41 65 80 41 65 81 55 83 103 45 71 87 110 75 93 54 82 100 44 69 84 43 67 83 53 81 100
69 83 103 49 76 94 47 73 90 54 83 103 43 68 84 51 79 97 38 62 77 41 66 82 46 73 91 35 59 73 34 56 70 46 73 91 41 66 82 41 67 84 34 57 71 43 70 87
36 60 75 102 61 77 38 63 79 38 62 77 46 73 91 40 65 81 46 73 91 78 72 89 37 61 75 40 65 80 52 80 99 47 73 90 109 72 90 50 78 96 41 64 79 53 80 99
42 66 81 57 86 105 84 81 100 56 85 104 41 65 80 53 81 100 42 66 81 55 83 103 43 68 84 52 80 99 77 75 94 45 72 89 46 73 90 116 63 79 37 61 75 35 58 72
60 71 89 33 56 70 45 72 89 42 68 85 45 72 90 30 52 65 31 53 67 38 63 79 46 73 92 42 68 85 46 73 91 42 67 84 45 72 89 45 72 89 37 60 74 42 67 82
64 81 100 84 78 96 50 77 95 53 82 101 50 77 95 53 81 100 56 84 104 47 73 90 46 71 87 47 73 90 53 81 100 42 67 82 53 81 101 24 28 28 24 28 28 24 28 28
24 28 28 24 28 28 24 28 28 24 28 28 24 28 28 24 28 28 100 99 92 82 83 77 72 74 69 71 73 69 79 80 75 74 75 71 90 90 84 78 79 74 94 94 87 83 84 79
86 87 81 82 83 77 93 93 86 88 88 82 24 28 28 24 28 28 24 28 28 24 28 28 24 28 28 24 28 28 24 28 28 24 28 28 24 28 28 24 28 28 24 28 28 24 28 28
24 28 28 24 28 28 24 28 28 24 28 28 24 28 28 24 28 28 24 28 28 24 28 28 24 28 28 24 28 28 24 28 28 24 28 28 24 28 28 24 28 28 24 28 28 24 28 28
24 28 28 24 28 28 24 28 28 24 28 28 24 28 28 24 28 28 24 28 28 24 28 28 24 28 28 24 28 28 24 28 28 24 28 28 24 28 28 24 28 28 24 28 28 24 28 28
24 28 28 24 28 28 24 28 28 24 28 28 24 28 28 24 28 28 24 28 28 24 28 28 24 28 28 24 28 28 24 28 28 24 28 28 24 28 28 24 28 28 24 28 28 24 28 28
24 28 28 24 28 28 24 28 28 24 28 28 24 28 28 24 28 28 24 28 28 24 28 28 24 28 28 24 28 28 24 28 28 24 28 28 24 28 28 24 28 28 24 28 28 24 28 28
24 28 28 24 28 28 24 28 28 24 28 28 24 28 28 24 28 28 24 28 28 24 28 28 24 28 28 24 28 28 24 28 28 24 28 28 24 28 28 24 28 28 24 28 28 24 28 28
24 28 28 24 28 28 24 28 28 24 28 28 24 28 28 24 28 28 24 28 28 24 28 28 24 28 28 24 28 28 24 28 28 24 28 28 24 28 28 24 28 28 24 28 28 24 28 28
24 28 28 24 28 28 24 28 28 60 67 76 55 62 71 52 59 68 24 28 28 50 57 66 56 63 72 55 62 71 65 72 81 24 28 28 69 76 85 61 68 77 59 66 75 42 49 58
40 64 79 39 63 78 108 67 83 39 63 79 44 70 87 118 61 76 54 73 91 40 65 81 40 66 83 44 72 90 115 58 73 29 52 65 45 72 90 41 67 85 43 70 87 39 65 81
36 60 75 41 66 82 84 69 86 36 60 74 50 78 96 40 65 80 52 80 99 39 63 77 40 63 78 40 63 78 85 79 97 43 67 83 53 81 100 50 77 94 48 75 92 46 72 89
54 82 102 42 66 82 42 66 82 43 68 84 39 63 78 46 72 89 43 68 85 44 70 87 37 61 76 44 70 87 44 71 89 44 71 88 38 62 78 44 71 89 31 54 68 71 66 84
40 65 82 35 59 73 38 63 79 39 64 80 32 55 69 32 55 69 44 70 87 42 68 84 42 68 84 44 70 87 81 75 93 41 65 81 44 70 86 51 78 97 42 66 82 51 78 97
41 65 80 53 81 100 48 74 91 44 69 85 54 82 101 44 69 85 42 66 82 51 79 98 52 80 99 43 69 85 38 62 77 35 58 72 41 66 82 36 59 74 36 60 75 33 55 69
44 70 88 44 70 88 37 61 77 76 65 82 37 61 77 34 58 73 39 64 81 32 55 68 38 63 79 34 57 71 93 66 83 40 66 82 40 65 81 43 68 85 36 59 73 37 61 75
45 71 87 51 78 97 53 81 101 56 84 104 55 84 104 64 84 104 41 65 80 51 78 96 52 80 99 47 73 90 40 64 79 41 65 81 46 72 90 24 28 28 24 28 28 24 28 28
24 28 28 24 28 28 24 28 28 24 28 28 24 28 28 24 28 28 98 98 91 77 79 74 91 92 85 88 88 82 85 86 80 93 93 86 90 91 84 99 99 91 101 101 93 91 91 85
99 99 91 82 83 77 90 90 84 83 84 78 24 28 28 24 28 28 24 28 28 24 28 28 24 28 28 24 28 28 24 28 28 24 28 28 24 28 28 24 28 28 24 28 28 24 28 28
24 28 28 24 28 28 24 28 28 24 28 28 24 28 28 24 28 28 24 28 28 24 28 28 24 28 28 24 28 28 24 28 28 24 28 28 24 28 28 24 28 28 24 28 28 24 28 28
24 28 28 24 28 28 24 28 28 24 28 28 24 28 28 24 28 28 24 28 28 24 28 28 24 28 28 24 28 28 24 28 28 24 28 28 24 28 28 24 28 28 24 28 28 24 28 28
24 28 28 24 28 28 24 28 28 24 28 28 24 28 28 24 28 28 24 28 28 24 28 28 24 28 28 24 28 28 24 28 28 24 28 28 24 28 28 24 28 28 24 28 28 24 28 28
24 28 28 24 28 28 24 28 28 24 28 28 24 28 28 24 28 28 24 28 28 24 28 28 24 28 28 24 28 28 24 28 28 24 28 28 24 28 28 24 28 28 24 28 28 24 28 28
24 28 28 24 28 28 24 28 28 24 28 28 24 28 28 24 28 28 24 28 28 24 28 28 24 28 28 24 28 28 24 28 28 24 28 28 24 28 28 24 28 28 24 28 28 24 28 28
24 28 28 24 28 28 24 28 28 24 28 28 24 28 28 24 28 28 24 28 28 24 28 28 24 28 28 24 28 28 24 28 28 24 28 28 24 28 28 24 28 28 24 28 28 24 28 28
24 28 28 24 28 28 24 28 28 64 71 80 60 67 76 65 72 81 24 28 28 59 66 75 60 67 76 50 57 66 60 67 76 24 28 28 62 69 78 57 64 73 45 52 61 42 49 58
50 78 97 50 77 96 114 65 81 45 72 90 44 71 88 38 63 79 35 58 73 41 67 84 36 60 76 33 56 70 37 62 77 33 57 71 31 54 68 42 68 86 37 62 78 41 68 85
41 66 83 41 67 84 43 70 87 47 75 93 36 59 74 81 73 91 49 76 95 41 65 81 40 65 80 39 63 77 54 83 102 52 80 99 50 77 96 48 75 92 41 65 80 60 84 104
49 76 94 46 73 90 48 75 93 49 76 94 39 63 78 42 67 84 40 65 81 97 67 84 91 67 84 42 68 84 40 66 83 43 70 87 39 64 81 36 60 76 41 67 84 31 54 68
41 67 84 42 69 86 43 70 88 36 60 76 44 70 88 58 71 89 49 75 93 77 70 88 40 66 82 49 77 96 51 79 98 40 64 79 40 64 79 116 70 87 52 80 99 44 70 86
48 75 93 56 85 105 54 83 103 92 77 96 50 77 95 40 64 79 46 72 90 72 78 97 49 77 95 47 74 92 37 61 76 36 59 74 40 65 82 42 68 85 35 58 73 95 63 80
43 70 88 84 64 80 43 70 88 30 52 66 33 56 71 32 55 69 37 62 78 35 59 74 35 59 75 38 63 79 34 57 71 46 74 92 39 64 80 49 77 96 47 74 91 51 80 99
51 79 98 49 76 94 44 70 86 117 71 89 51 79 98 52 79 98 40 64 79 51 78 96 43 68 84 51 78 97 54 82 102 79 78 96 45 71 88 24 28 28 24 28 28 24 28 28
24 28 28 24 28 28 24 28 28 24 28 28 24 28 28 24 28 28 95 95 88 84 85 79 104 104 96 99 99 91 81 82 77 72 74 70 92 92 85 87 88 82 86 87 81 82 83 77
70 72 68 74 75 71 105 104 96 91 91 85 24 28 28 24 28 28 24 28 28 24 28 28 24 28 28 24 28 28 24 28 28 24 28 28 24 28 28 24 28 28 24 28 28 24 28 28
24 28 28 24 28 28 24 28 28 24 28 28 24 28 28 24 28 28 24 28 28 24 28 28 24 28 28 24 28 28 24 28 28 24 28 28 24 28 28 24 28 28 24 28 28 24 28 28
24 28 28 24 28 28 24 28 28 24 28 28 24 28 28 24 28 28 24 28 28 24 28 28 24 28 28 24 28 28 24 28 28 24 28 28 24 28 28 24 28 28 24 28 28 24 28 28
24 28 28 24 28 28 24 28 28 24 28 28 24 28 28 24 28 28 24 28 28 24 28 28 24 28 28 24 28 28 24 28 28 24 28 28 24 28 28 24 28 28 24 28 28 24 28 28
24 28 28 24 28 28 24 28 28 24 28 28 24 28 28 24 28 28 24 28 28 24 28 28 24 28 28 24 28 28 24 28 28 24 28 28 24 28 28 24 28 28 24 28 28 24 28 28
24 28 28 24 28 28 24 28 28 24 28 28 24 28 28 24 28 28 24 28 28 24 28 28 24 28 28 24 28 28 24 28 28 24 28 28 24 28 28 24 28 28 24 28 28 24 28 28
24 28 28 24 28 28 24 28 28 24 28 28 24 28 28 24 28 28 24 28 28 24 28 28 24 28 28 24 28 28 24 28 28 24 28 28 24 28 28 24 28 28 24 28 28 24 28 28
24 28 28 24 28 28 24 28 28 58 65 74 67 74 83 69 76 85 24 28 28 63 70 79 68 75 84 48 55 64 68 75 84 24 28 28 65 72 81 41 48 57 60 67 76 58 65 74
50 78 97 37 61 76 43 69 87 34 57 71 31 53 67 33 57 71 44 71 89 31 54 67 30 53 67 39 65 82 42 68 86 55 67 84 34 59 74 35 60 75 38 63 79 42 69 86
96 61 77 44 71 89 31 54 68 101 64 81 40 66 82 46 74 92 68 75 94 41 66 82 42 67 83 38 62 77 46 73 90 51 79 98 53 81 101 49 77 95 39 63 78 53 81 100
43 68 84 80 77 95 43 68 85 59 79 98 41 66 82 47 74 92 33 56 70 41 67 84 35 59 74 109 60 76 42 68 86 40 66 82 34 58 73 38 64 80 106 57 72 28 51 64
39 64 81 34 58 73 77 63 80 43 69 87 39 64 81 33 57 71 44 70 88 37 61 76 33 56 70 39 64 79 37 61 76 38 62 77 47 74 92 48 75 93 47 73 91 40 65 80
82 77 96 44 69 85 52 81 100 41 66 81 62 81 101 123 68 85 77 77 95 48 76 94 40 65 81 48 76 94 58 76 94 34 57 72 47 74 93 44 71 89 39 64 81 39 65 81
39 64 81 31 54 68 40 66 83 33 56 71 34 58 74 91 59 75 39 65 82 40 66 83 29 51 65 47 71 89 35 59 74 45 72 91 34 58 72 45 73 91 59 75 94 43 69 85
46 73 91 46 73 90 48 76 94 38 62 77 43 68 84 39 63 78 46 72 89 54 83 103 47 74 92 51 79 98 113 70 87 39 63 78 50 77 96 24 28 28 24 28 28 24 28 28
24 28 28 24 28 28 24 28 28 24 28 28 24 28 28 24 28 28 74 75 71 78 79 74 76 77 73 92 92 85 84 85 79 84 84 79 79 80 75 72 74 69 81 82 77 100 99 92
77 79 74 83 84 78 80 81 76 86 87 81 24 28 28 24 28 28 24 28 28 24 28 28 24 28 28 24 28 28 24 28 28 24 28 28 24 28 28 24 28 28 24 28 28 24 28 28
24 28 28 24 28 28 24 28 28 24 28 28 24 28 28 24 28 28 24 28 28 24 28 28 24 28 28 24 28 28 24 28 28 24 28 28 24 28 28 24 28 28 24 28 28 24 28 28
24 28 28 24 28 28 24 28 28 24 28 28 24 28 28 24 28 28 24 28 28 24 28 28 24 28 28 24 28 28 24 28 28 24 28 28 24 28 28 24 28 28 24 28 28 24 28 28
24 28 28 24 28 28 24 28 28 24 28 28 24 28 28 24 28 28 24 28 28 24 28 28 24 28 28 24 28 28 24 28 28 24 28 28 24 28 28 24 28 28 24 28 28 24 28 28
24 28 28 24 28 28 24 28 28 24 28 28 24 28 28 24 28 28 24 28 28 24 28 28 24 28 28 24 28 28 24 28 28 24 28 28 24 28 28 24 28 28 24 28 28 24 28 28
24 28 28 24 28 28 24 28 28 24 28 28 24 28 28 24 28 28 24 28 28 24 28 28 24 28 28 24 28 28 24 28 28 24 28 28 24 28 28 24 28 28 24 28 28 24 28 28
24 28 28 24 28 28 24 28 28 24 28 28 24 28 28 24 28 28 24 28 28 24 28 28 24 28 28 24 28 28 24 28 28 24 28 28 24 28 28 24 28 28 24 28 28 24 28 28
24 28 28 24 28 28 24 28 28 43 50 59 56 63 72 44 51 60 24 28 28 48 55 64 50 57 66 63 70 79 68 75 84 24 28 28 43 50 59 56 63 72 56 63 72 67 74 83
34 57 71 33 57 72 36 60 76 91 62 79 34 58 73 31 54 69 27 49 62 35 61 77 88 58 73 31 55 69 31 54 69 31 55 69 26 49 62 54 64 81 35 61 77 29 53 67
27 50 63 36 62 78 50 70 88 32 55 70 42 69 87 46 74 93 38 63 79 36 61 76 48 76 95 42 68 85 39 63 79 49 77 96 46 73 91 48 75 93 39 64 79 49 76 95
45 71 89 44 70 88 38 63 79 38 63 78 41 66 83 39 64 80 37 62 77 75 66 84 34 59 74 40 67 84 37 63 79 41 68 86 26 49 62 27 50 63 36 62 78 30 53 68
25 46 59 28 51 65 34 59 74 27 50 64 40 67 84 60 66 83 29 51 65 38 64 80 32 55 69 33 57 71 78 69 86 37 61 77 36 61 76 36 60 75 45 71 89 39 63 79
87 73 91 51 79 98 49 77 96 41 66 82 46 73 91 101 69 86 41 67 84 36 60 74 34 57 72 47 75 94 33 56 70 44 71 89 38 64 80 32 56 70 34 59 74 29 52 66
28 51 65 30 53 68 36 62 78 29 52 67 30 54 69 33 58 74 31 54 69 37 63 79 41 67 85 26 48 61 50 68 86 32 56 70 35 59 75 35 59 74 35 59 74 41 67 84
45 73 91 109 65 82 83 72 90 47 74 92 47 75 93 45 71 89 45 71 88 50 78 97 38 63 78 111 67 84 77 74 92 50 78 97 36 60 75 24 28 28 24 28 28 24 28 28
24 28 28 24 28 28 24 28 28 24 28 28 24 28 28 24 28 28 87 88 82 98 97 90 71 73 69 95 95 88 70 72 68 70 72 68 78 79 75 92 92 85 99 98 91 71 72 68
101 101 93 99 99 91 83 84 78 83 84 79 24 28 28 24 28 28 24 28 28 24 28 28 24 28 28 24 28 28 24 28 28 24 28 28 24 28 28 24 28 28 24 28 28 24 28 28
24 28 28 24 28 28 24 28 28 24 28 28 24 28 28 24 28 28 24 28 28 24 28 28 24 28 28 24 28 28 24 28 28 24 28 28 24 28 28 24 28 28 24 28 28 24 28 28
24 28 28 24 28 28 24 28 28 24 28 28 24 28 28 24 28 28 24 28 28 24 28 28 24 28 28 24 28 28 24 28 28 24 28 28 24 28 28 24 28 28 24 28 28 24 28 28
24 28 28 24 28 28 24 28 28 24 28 28 24 28 28 24 28 28 24 28 28 24 28 28 24 28 28 24 28 28 24 28 28 24 28 28 24 28 28 24 28 28 24 28 28 24 28 28
24 28 28 24 28 28 24 28 28 24 28 28 24 28 28 24 28 28 24 28 28 24 28 28 24 28 28 24 28 28 24 28 28 24 28 28 24 28 28 24 28 28 24 28 28 24 28 28
24 28 28 24 28 28 24 28 28 24 28 28 24 28 28 24 28 28 24 28 28 24 28 28 24 28 28 24 28 28 24 28 28 24 28 28 24 28 28 24 28 28 24 28 28 24 28 28
24 28 28 24 28 28 24 28 28 24 28 28 24 28 28 24 28 28 24 28 28 24 28 28 24 28 28 24 28 28 24 28 28 24 28 28 24 28 28 24 28 28 24 28 28 24 28 28
24 28 28 24 28 28 24 28 28 53 60 69 49 56 65 42 49 58 24 28 28 66 73 82 67 74 83 55 62 71 45 52 61 24 28 28 42 49 58 44 51 60 59 66 75 51 58 67
39 66 83 36 61 77 35 60 76 40 66 84 26 48 62 36 62 79 26 49 62 100 51 66 36 63 80 35 62 79 26 49 64 33 59 75 41 62 79 45 61 78 76 56 71 33 58 74
37 63 81 30 53 68 43 66 84 32 57 72 27 50 63 40 67 85 31 54 68 41 68 86 41 68 85 42 69 87 42 69 87 41 67 84 41 68 85 40 65 82 46 74 93 37 61 77
41 67 85 36 60 76 45 72 91 48 73 92 40 66 84 32 56 71 28 50 64 31 54 69 39 65 83 39 66 84 24 46 59 72 57 74 30 54 69 100 50 65 28 52 66 28 51 66
26 49 63 35 61 78 22 44 56 28 52 67 25 48 61 29 53 67 36 62 79 37 64 81 26 49 62 37 63 80 29 52 66 82 65 82 36 60 76 34 58 73 44 72 90 40 66 83
47 75 94 82 70 88 51 76 95 49 76 96 44 71 90 41 67 84 41 68 85 35 60 76 42 69 87 55 70 88 39 66 83 102 57 73 33 58 73 29 52 67 44 65 83 36 62 79
88 54 69 27 51 65 31 56 72 31 55 71 37 62 80 31 55 71 34 60 76 22 44 57 29 53 68 32 56 72 26 49 63 31 55 70 48 67 85 63 65 83 28 51 65 44 71 90
36 61 76 80 67 84 42 68 86 35 59 75 34 58 73 36 60 76 35 59 75 39 64 80 34 57 72 33 57 72 43 70 89 36 61 77 33 57 72 24 28 28 24 28 28 24 28 28
24 28 28 24 28 28 24 28 28 24 28 28 24 28 28 24 28 28 102 101 94 93 93 86 94 94 87 90 90 84 79 81 75 95 95 88 98 98 90 95 95 88 98 97 90 71 73 69
94 94 87 73 74 70 101 100 93 76 77 73 24 28 28 24 28 28 24 28 28 24 28 28 24 28 28 24 28 28 24 28 28 24 28 28 24 28 28 24 28 28 24 28 28 24 28 28
24 28 28 24 28 28 24 28 28 24 28 28 24 28 28 24 28 28 24 28 28 24 28 28 24 28 28 24 28 28 24 28 28 24 28 28 24 28 28 24 28 28 24 28 28 24 28 28
24 28 28 24 28 28 24 28 28 24 28 28 24 28 28 24 28 28 24 28 28 24 28 28 24 28 28 24 28 28 24 28 28 24 28 28 24 28 28 24 28 28 24 28 28 24 28 28
24 28 28 24 28 28 24 28 28 24 28 28 24 28 28 24 28 28 24 28 28 24 28 28 24 28 28 24 28 28 24 28 28 24 28 28 24 28 28 24 28 28 24 28 28 24 28 28
24 28 28 24 28 28 24 28 28 24 28 28 24 28 28 24 28 28 24 28 28 24 28 28 24 28 28 24 28 28 24 28 28 24 28 28 24 28 28 24 28 28 24 28 28 24 28 28
24 28 28 24 28 28 24 28 28 24 28 28 24 28 28 24 28 28 24 28 28 24 28 28 24 28 28 24 28 28 24 28 28 24 28 28 24 28 28 24 28 28 24 28 28 24 28 28
24 28 28 24 28 28 24 28 28 24 28 28 24 28 28 24 28 28 24 28 28 24 28 28 24 28 28 24 28 28 24 28 28 24 28 28 24 28 28 24 28 28 24 28 28 24 28 28
24 28 28 24 28 28 24 28 28 64 71 80 62 69 78 64 71 80 24 28 28 50 57 66 66 73 82 63 70 79 67 74 83 24 28 28 41 48 57 67 74 83 44 51 60 50 57 66
32 57 72 84 58 75 39 66 84 29 53 68 65 58 75 24 47 61 33 59 76 32 58 74 89 49 64 23 46 60 38 59 76 19 40 52 24 47 61 91 48 63 33 58 75 21 43 56
22 44 58 33 59 75 27 51 65 36 62 79 37 63 80 33 58 74 35 61 77 31 55 70 113 57 72 33 58 74 33 58 73 51 72 90 45 73 92 37 63 79 45 73 92 34 58 73
36 61 78 43 71 90 72 65 83 31 55 70 31 55 70 34 59 75 31 55 70 36 63 80 90 54 69 36 62 80 24 46 60 29 54 69 27 51 67 30 55 71 21 44 57 30 55 71
26 50 65 18 39 52 26 50 65 34 61 78 23 45 59 28 52 67 93 52 67 31 56 71 23 45 59 108 53 68 32 57 73 38 65 82 40 67 85 33 57 72 33 57 72 41 69 87
37 62 78 39 65 82 44 71 90 34 58 74 34 59 74 36 61 77 38 64 81 40 66 84 27 50 64 28 51 65 39 66 84 38 65 83 24 46 60 31 56 71 29 54 69 35 62 79
20 42 54 27 51 66 23 45 59 20 42 55 21 43 56 21 43 56 33 59 76 50 57 74 28 52 68 25 49 63 25 49 63 27 51 65 27 51 65 39 66 84 28 52 66 28 51 65
33 58 74 40 67 85 30 54 69 38 64 81 37 62 78 38 64 81 77 67 85 35 59 75 37 63 79 100 61 78 96 62 78 35 61 77 87 61 78 24 28 28 24 28 28 24 28 28
24 28 28 24 28 28 24 28 28 24 28 28 24 28 28 24 28 28 99 98 91 90 90 84 94 94 87 100 99 92 95 95 88 85 85 80 85 86 80 72 74 70 73 75 70 100 100 92
85 86 80 82 83 78 95 95 88 76 77 72 24 28 28 24 28 28 24 28 28 24 28 28 24 28 28 24 28 28 24 28 28 24 28 28 24 28 28 24 28 28 24 28 28 24 28 28
24 28 28 24 28 28 24 28 28 24 28 28 24 28 28 24 28 28 24 28 28 24 28 28 24 28 28 24 28 28 24 28 28 24 28 28 24 28 28 24 28 28 24 28 28 24 28 28
24 28 28 24 28 28 24 28 28 24 28 28 24 28 28 24 28 28 24 28 28 24 28 28 24 28 28 24 28 28 24 28 28 24 28 28 24 28 28 24 28 28 24 28 28 24 28 28
24 28 28 24 28 28 24 28 28 24 28 28 24 28 28 24 28 28 24 28 28 24 28 28 24 28 28 24 28 28 24 28 28 24 28 28 24 28 28 24 28 28 24 28 28 24 28 28
24 28 28 24 28 28 24 28 28 24 28 28 24 28 28 24 28 28 24 28 28 24 28 28 24 28 28 24 28 28 24 28 28 24 28 28 24 28 28 24 28 28 24 28 28 24 28 28
24 28 28 24 28 28 24 28 28 24 28 28 24 28 28 24 28 28 24 28 28 24 28 28 24 28 28 24 28 28 24 28 28 24 28 28 24 28 28 24 28 28 24 28 28 24 28 28
24 28 28 24 28 28 24 28 28 24 28 28 24 28 28 24 28 28 24 28 28 24 28 28 24 28 28 24 28 28 24 28 28 24 28 28 24 28 28 24 28 28 24 28 28 24 28 28
24 28 28 24 28 28 24 28 28 53 60 69 65 72 81 60 67 76 24 28 28 48 55 64 49 56 65 60 67 76 53 60 69 24 28 28 45 52 61 51 58 67 43 50 59 62 69 78
88 58 75 25 48 61 31 55 71 37 64 82 25 48 61 31 57 73 30 54 70 21 43 56 29 54 70 20 43 56 30 55 71 23 46 60 59 54 70 22 45 59 28 53 68 28 53 68
20 41 54 31 56 72 31 56 72 25 48 62 27 50 65 56 64 81 27 49 63 26 49 62 38 65 82 36 61 77 38 64 81 115 58 74 31 55 70 36 61 77 67 68 86 35 60 76
37 63 80 79 64 82 101 59 75 33 58 73 28 51 65 29 52 67 30 54 69 35 61 78 28 51 66 97 50 65 34 60 78 34 60 78 25 49 63 28 53 69 28 52 67 79 49 65
25 49 63 23 46 59 43 58 74 26 50 64 37 60 77 46 60 77 21 42 55 29 54 69 26 49 63 37 64 81 26 48 62 27 50 63 37 64 81 98 59 76 33 58 74 32 56 71
31 55 69 39 65 82 43 71 90 32 56 71 33 58 73 34 58 74 32 56 71 29 52 66 34 60 76 34 59 76 37 63 80 30 54 70 22 44 57 28 52 67 33 59 75 34 60 77
36 60 77 33 59 76 25 48 62 23 46 59 22 44 58 28 53 69 26 50 65 26 50 65 21 43 56 20 42 55 23 45 59 28 52 67 23 46 59 23 45 58 55 64 81 37 63 81
27 50 64 42 70 88 31 55 70 30 54 68 39 66 83 79 66 83 34 58 74 30 53 67 31 55 70 42 70 88 31 54 69 39 66 84 72 64 81 24 28 28 24 28 28 24 28 28
24 28 28 24 28 28 24 28 28 24 28 28 24 28 28 24 28 28 89 89 83 73 75 71 79 80 75 100 100 92 78 79 74 100 100 92 97 96 89 80 81 76 76 77 73 92 92 85
101 100 93 92 92 86 88 89 83 73 75 70 24 28 28 24 28 28 24 28 28 24 28 28 24 28 28 24 28 28 24 28 28 24 28 28 24 28 28 24 28 28 24 28 28 24 28 28
24 28 28 24 28 28 24 28 28 24 28 28 24 28 28 24 28 28 24 28 28 24 28 28 24 28 28 24 28 28 24 28 28 24 28 28 24 28 28 24 28 28 24 28 28 24 28 28
24 28 28 24 28 28 24 28 28 24 28 28 24 28 28 24 28 28 24 28 28 24 28 28 24 28 28 24 28 28 24 28 28 24 28 28 24 28 28 24 28 28 24 28 28 24 28 28
24 28 28 24 28 28 24 28 28 24 28 28 24 28 28 24 28 28 24 28 28 24 28 28 24 28 28 24 28 28 24 28 28 24 28 28 24 28 28 24 28 28 24 28 28 24 28 28
24 28 28 24 28 28 24 28 28 24 28 28 24 28 28 24 28 28 24 28 28 24 28 28 24 28 28 24 28 28 24 28 28 24 28 28 24 28 28 24 28 28 24 28 28 24 28 28
24 28 28 24 28 28 24 28 28 24 28 28 24 28 28 24 28 28 24 28 28 24 28 28 24 28 28 24 28 28 24 28 28 24 28 28 24 28 28 24 28 28 24 28 28 24 28 28
24 28 28 24 28 28 24 28 28 24 28 28 24 28 28 24 28 28 24 28 28 24 28 28 24 28 28 24 28 28 24 28 28 24 28 28 24 28 28 24 28 28 24 28 28 24 28 28
24 28 28 24 28 28 24 28 28 68 75 84 44 51 60 45 52 61 24 28 28 54 61 70 64 71 80 54 61 70 60 67 76 24 28 28 50 57 66 59 66 75 46 53 62 68 75 84
38 64 81 36 61 78 63 63 81 75 59 76 36 62 79 29 52 67 23 45 58 28 51 66 22 43 56 24 47 61 20 41 54 42 60 77 26 50 64 25 48 62 22 44 57 31 56 72
28 52 66 106 51 66 38 65 83 98 55 71 28 51 65 41 68 86 38 64 81 38 64 80 43 71 90 30 53 67 61 71 89 32 56 71 43 70 88 33 57 72 110 62 79 52 74 93
38 63 80 45 73 92 44 72 90 38 64 80 34 58 74 27 49 63 32 57 72 35 61 78 82 57 74 34 59 76 46 62 79 32 57 73 22 44 57 26 50 64 21 42 55 30 54 70
28 52 68 28 52 67 77 53 69 25 48 62 33 58 74 27 51 65 75 58 74 26 48 62 37 64 81 70 63 80 32 56 71 35 60 76 39 66 83 42 69 87 43 70 88 31 54 69
37 62 78 36 60 76 42 69 87 36 61 77 112 61 78 35 60 76 31 55 69 100 61 78 35 59 75 31 55 70 34 59 76 30 53 68 25 47 60 38 64 82 36 63 80 34 60 76
28 51 66 34 59 76 24 47 60 27 51 65 57 56 73 30 55 70 51 58 75 24 47 61 23 45 58 34 60 77 36 62 80 90 55 71 33 58 74 39 65 83 35 61 77 88 61 78
33 58 73 38 63 80 44 72 91 38 64 81 35 60 75 46 74 93 33 57 72 45 72 91 33 57 72 32 56 70 38 64 81 34 58 74 35 60 76 24 28 28 24 28 28 24 28 28
24 28 28 24 28 28 24 28 28 24 28 28 24 28 28 24 28 28 95 95 88 96 96 89 73 75 70 90 90 84 96 96 89 100 99 92 75 77 72 105 104 96 100 100 92 79 80 75
79 80 75 81 82 76 74 75 71 73 75 70 24 28 28 24 28 28 24 28 28 24 28 28 24 28 28 24 28 28 24 28 28 24 28 28 24 28 28 24 28 28 24 28 28 24 28 28
24 28 28 24 28 28 24 28 28 24 28 28 24 28 28 24 28 28 24 28 28 24 28 28 24 28 28 24 28 28 24 28 28 24 28 28 24 28 28 24 28 28 24 28 28 24 28 28
24 28 28 24 28 28 24 28 28 24 28 28 24 28 28 24 28 28 24 28 28 24 28 28 24 28 28 24 28 28 24 28 28 24 28 28 24 28 28 24 28 28 24 28 28 24 28 28
24 28 28 24 28 28 24 28 28 24 28 28 24 28 28 24 28 28 24 28 28 24 28 28 24 28 28 24 28 28 24 28 28 24 28 28 24 28 28 24 28 28 24 28 28 24 28 28
24 28 28 24 28 28 24 28 28 24 28 28 24 28 28 24 28 28 24 28 28 24 28 28 24 28 28 24 28 28 24 28 28 24 28 28 24 28 28 24 28 28 24 28 28 24 28 28
24 28 28 24 28 28 24 28 28 24 28 28 24 28 28 24 28 28 24 28 28 24 28 28 24 28 28 24 28 28 24 28 28 24 28 28 24 28 28 24 28 28 24 28 28 24 28 28
24 28 28 24 28 28 24 28 28 24 28 28 24 28 28 24 28 28 24 28 28 24 28 28 24 28 28 24 28 28 24 28 28 24 28 28 24 28 28 24 28 28 24 28 28 24 28 28
24 28 28 24 28 28 24 28 28 51 58 67 51 58 67 57 64 73 24 28 28 62 69 78 43 50 59 64 71 80 45 52 61 24 28 28 60 67 76 59 66 75 46 53 62 66 73 82
41 67 84 34 58 73 39 64 81 30 54 68 27 49 62 37 63 80 38 64 81 33 57 73 33 58 74 24 46 59 32 56 72 33 58 74 109 51 65 23 45 58 33 57 73 82 58 74
86 58 74 27 49 63 31 55 69 33 57 72 96 61 78 39 65 82 42 69 87 43 69 87 45 72 90 42 69 86 48 76 95 44 71 89 50 79 98 36 60 75 41 67 83 47 74 93
45 72 90 44 71 89 45 73 91 38 63 79 108 62 78 75 67 85 39 65 82 107 58 74 95 59 75 33 58 73 38 64 81 48 65 83 58 62 79 24 45 58 37 63 80 30 53 68
106 51 66 26 49 62 31 55 70 29 53 67 25 47 60 37 62 79 28 50 64 41 68 86 34 59 74 33 56 71 35 59 75 37 61 77 47 76 95 43 70 88 45 72 90 40 65 82
43 69 87 91 71 88 38 62 78 49 77 96 40 66 82 47 75 94 48 76 95 45 72 90 43 70 87 66 70 88 37 62 78 31 54 68 41 67 85 57 66 84 28 51 65 35 60 77
34 59 75 35 61 77 36 62 79 24 46 59 32 56 72 40 64 82 24 46 59 94 55 70 105 53 68 29 52 67 35 61 77 29 53 67 41 68 86 41 68 86 43 70 88 43 70 88
37 62 78 33 56 70 68 73 91 47 75 94 36 60 75 46 74 92 44 71 88 38 63 78 39 64 80 34 58 72 35 58 73 40 66 83 43 69 87 24 28 28 24 28 28 24 28 28
24 28 28 24 28 28 24 28 28 24 28 28 24 28 28 24 28 28 82 83 78 96 95 88 91 91 85 79 80 75 90 90 84 83 84 78 93 93 86 95 95 88 70 72 68 73 75 70
90 90 84 74 75 71 94 94 87 99 98 91 24 28 28 24 28 28 24 28 28 24 28 28 24 28 28 24 28 28 24 28 28 24 28 28 24 28 28 24 28 28 24 28 28 24 28 28
24 28 28 24 28 28 24 28 28 24 28 28 24 28 28 24 28 28 24 28 28 24 28 28 24 28 28 24 28 28 24 28 28 24 28 28 24 28 28 24 28 28 24 28 28 24 28 28
24 28 28 24 28 28 24 28 28 24 28 28 24 28 28 24 28 28 24 28 28 24 28 28 24 28 28 24 28 28 24 28 28 24 28 28 24 28 28 24 28 28 24 28 28 24 28 28
24 28 28 24 28 28 24 28 28 24 28 28 24 28 28 24 28 28 24 28 28 24 28 28 24 28 28 24 28 28 24 28 28 24 28 28 24 28 28 24 28 28 24 28 28 24 28 28
24 28 28 24 28 28 24 28 28 24 28 28 24 28 28 24 28 28 24 28 28 24 28 28 24 28 28 24 28 28 24 28 28 24 28 28 24 28 28 24 28 28 24 28 28 24 28 28
24 28 28 24 28 28 24 28 28 24 28 28 24 28 28 24 28 28 24 28 28 24 28 28 24 28 28 24 28 28 24 28 28 24 28 28 24 28 28 24 28 28 24 28 28 24 28 28
24 28 28 24 28 28 24 28 28 24 28 28 24 28 28 24 28 28 24 28 28 24 28 28 24 28 28 24 28 28 24 28 28 24 28 28 24 28 28 24 28 28 24 28 28 24 28 28
24 28 28 24 28 28 24 28 28 67 74 83 67 74 83 48 55 64 24 28 28 57 64 73 59 66 75 54 61 70 68 75 84 24 28 28 67 74 83 63 70 79 64 71 80 62 69 78
35 58 72 38 62 78 47 74 93 33 56 71 39 65 81 39 65 82 95 60 76 32 55 70 32 55 70 29 51 65 28 51 64 26 48 61 33 58 73 29 52 65 33 57 72 40 66 83
37 62 79 43 70 88 30 53 67 36 60 76 40 66 83 41 67 83 49 77 96 41 66 83 83 73 91 44 70 87 46 72 89 49 76 95 39 64 79 41 65 81 45 71 88 61 80 100
92 74 92 38 62 77 39 63 79 42 67 84 42 68 85 41 66 83 46 73 91 38 62 78 45 72 90 100 61 77 35 60 75 42 69 87 37 62 79 33 57 72 30 54 68 29 52 66
29 51 65 36 62 78 55 66 84 41 67 85 35 59 75 45 71 89 88 63 80 43 69 87 37 61 77 47 74 93 37 61 76 48 76 94 47 75 93 50 78 96 41 66 82 52 81 101
67 79 98 41 66 82 42 67 84 53 82 101 39 63 78 44 70 87 46 73 91 48 76 94 42 68 85 38 63 78 37 62 77 47 74 93 43 69 87 41 67 84 42 69 86 31 55 69
32 56 71 34 58 73 31 54 69 32 56 71 38 64 81 41 68 86 39 65 82 32 55 70 39 65 82 35 60 75 80 64 81 37 62 78 113 60 76 40 65 81 36 59 74 38 63 78
39 63 79 40 65 81 39 64 79 44 69 86 41 66 81 43 69 86 44 70 87 68 79 98 40 65 80 50 78 97 52 80 100 47 74 92 43 69 86 24 28 28 24 28 28 24 28 28
24 28 28 24 28 28 24 28 28 24 28 28 24 28 28 24 28 28 78 79 74 75 76 72 103 103 95 88 89 83 99 98 91 75 77 72 80 82 76 94 94 87 74 76 71 90 90 84
104 103 95 96 95 89 94 94 87 85 86 80 24 28 28 24 28 28 24 28 28 24 28 28 24 28 28 24 28 28 24 28 28 24 28 28 24 28 28 24 28 28 24 28 28 24 28 28
24 28 28 24 28 28 24 28 28 24 28 28 24 28 28 24 28 28 24 28 28 24 28 28 24 28 28 24 28 28 24 28 28 24 28 28 24 28 28 24 28 28 24 28 28 24 28 28
24 28 28 24 28 28 24 28 28 24 28 28 24 28 28 24 28 28 24 28 28 24 28 28 24 28 28 24 28 28 24 28 28 24 28 28 24 28 28 24 28 28 24 28 28 24 28 28
24 28 28 24 28 28 24 28 28 24 28 28 24 28 28 24 28 28 24 28 28 24 28 28 24 28 28 24 28 28 24 28 28 24 28 28 24 28 28 24 28 28 24 28 28 24 28 28
24 28 28 24 28 28 24 28 28 24 28 28 24 28 28 24 28 28 24 28 28 24 28 28 24 28 28 24 28 28 24 28 28 24 28 28 24 28 28 24 28 28 24 28 28 24 28 28
24 28 28 24 28 28 24 28 28 24 28 28 24 28 28 24 28 28 24 28 28 24 28 28 24 28 28 24 28 28 24 28 28 24 28 28 24 28 28 24 28 28 24 28 28 24 28 28
24 28 28 24 28 28 24 28 28 24 28 28 24 28 28 24 28 28 24 28 28 24 28 28 24 28 28 24 28 28 24 28 28 24 28 28 24 28 28 24 28 28 24 28 28 24 28 28
24 28 28 24 28 28 24 28 28 66 73 82 48 55 64 65 72 81 24 28 28 45 52 61 68 75 84 50 57 66 67 74 83 24 28 28 42 49 58 61 68 77 65 72 81 64 71 80
43 68 85 38 62 77 57 76 94 34 57 71 35 58 73 40 65 81 117 58 74 40 66 83 40 66 83 43 70 88 28 50 63 35 59 74 43 69 87 38 63 79 94 61 77 45 72 90
34 57 72 36 60 75 42 69 86 95 67 83 42 67 84 36 60 75 50 78 96 96 72 90 40 65 80 46 73 90 43 68 83 53 81 100 47 74 91 52 80 99 85 78 97 53 81 100
54 82 102 90 76 94 52 80 99 44 69 86 44 70 86 41 67 83 44 71 88 36 60 75 33 55 69 39 63 79 41 67 84 34 58 73 42 68 85 43 70 88 41 68 85 31 54 67
40 66 82 38 63 79 42 69 86 32 56 70 31 53 67 34 57 72 82 67 84 36 59 74 47 74 93 35 58 73 42 68 84 43 69 86 42 67 83 41 66 82 40 64 80 40 64 79
54 82 102 47 74 91 42 66 82 42 66 82 42 67 82 47 73 91 47 74 92 41 66 81 45 72 89 43 68 84 110 66 83 45 71 89 47 74 93 34 57 72 40 65 82 33 56 70
80 65 82 33 56 71 34 58 73 31 54 68 34 59 74 40 65 82 39 64 81 86 63 79 77 65 82 44 72 90 31 54 67 44 71 89 36 60 75 46 73 91 42 67 84 48 75 94
43 68 85 40 64 79 53 82 101 52 81 100 75 80 99 52 79 98 49 76 94 48 75 92 55 84 103 99 75 93 44 70 87 46 73 90 113 69 86 24 28 28 24 28 28 24 28 28
24 28 28 24 28 28 24 28 28 24 28 28 24 28 28 24 28 28 78 79 74 88 89 82 92 92 85 75 77 72 71 73 69 105 104 96 103 102 94 84 85 79 87 87 81 99 98 91
83 83 78 89 89 83 91 91 85 91 91 85 24 28 28 24 28 28 24 28 28 24 28 28 24 28 28 24 28 28 24 28 28 24 28 28 24 28 28 24 28 28 24 28 28 24 28 28
24 28 28 24 28 28 24 28 28 24 28 28 24 28 28 24 28 28 24 28 28 24 28 28 24 28 28 24 28 28 24 28 28 24 28 28 24 28 28 24 28 28 24 28 28 24 28 28
24 28 28 24 28 28 24 28 28 24 28 28 24 28 28 24 28 28 24 28 28 24 28 28 24 28 28 24 28 28 24 28 28 24 28 28 24 28 28 24 28 28 24 28 28 24 28 28
24 28 28 24 28 28 24 28 28 24 28 28 24 28 28 24 28 28 24 28 28 24 28 28 24 28 28 24 28 28 24 28 28 24 28 28 24 28 28 24 28 28 24 28 28 24 28 28
24 28 28 24 28 28 24 28 28 24 28 28 24 28 28 24 28 28 24 28 28 24 28 28 24 28 28 24 28 28 24 28 28 24 28 28 24 28 28 24 28 28 24 28 28 24 28 28
24 28 28 24 28 28 24 28 28 24 28 28 24 28 28 24 28 28 24 28 28 24 28 28 24 28 28 24 28 28 24 28 28 24 28 28 24 28 28 24 28 28 24 28 28 24 28 28
24 28 28 24 28 28 24 28 28 24 28 28 24 28 28 24 28 28 24 28 28 24 28 28 24 28 28 24 28 28 24 28 28 24 28 28 24 28 28 24 28 28 24 28 28 24 28 28
24 28 28 24 28 28 24 28 28 46 53 62 68 75 84 60 67 76 24 28 28 49 56 65 56 63 72 67 74 83 56 63 72 24 28 28 63 70 79 64 71 80 62 69 78 58 65 74
43 69 85 123 65 81 37 60 75 37 61 76 42 68 85 46 74 92 36 60 75 40 66 82 30 52 65 44 71 89 30 52 65 91 62 78 36 60 75 30 53 66 37 61 77 38 63 79
39 64 80 43 69 86 46 73 91 36 60 74 47 73 91 62 77 96 90 73 91 41 65 81 49 77 95 45 70 86 45 70 87 44 69 86 53 81 100 46 71 88 81 80 99 47 73 89
55 84 104 44 69 85 42 67 83 40 64 79 42 67 84 38 62 77 48 75 94 59 76 94 92 68 85 50 75 93 45 73 91 37 62 77 36 60 75 33 57 71 35 59 75 43 70 88
35 59 74 33 57 71 35 59 74 34 57 71 42 67 84 37 62 77 38 62 78 37 61 76 35 58 72 48 75 94 47 74 92 39 63 78 47 73 91 43 68 84 47 73 91 50 77 95
73 82 101 112 74 92 49 75 93 51 79 98 44 69 84 49 76 93 41 65 81 47 74 91 51 79 97 48 75 93 43 69 85 47 74 92 41 67 83 37 61 76 35 59 73 33 56 71
37 61 76 53 71 89 44 72 90 29 51 65 44 71 89 33 56 70 35 59 74 33 56 70 31 54 67 44 71 89 33 56 70 36 60 75 35 58 72 49 77 96 46 73 91 108 69 86
50 77 95 99 74 92 54 82 102 51 78 96 46 72 89 48 74 91 50 76 94 55 83 103 55 84 103 48 75 92 44 69 85 119 70 87 47 74 92 24 28 28 24 28 28 24 28 28
24 28 28 24 28 28 24 28 28 24 28 28 24 28 28 24 28 28 98 98 91 82 83 78 101 101 93 74 76 71 72 74 70 84 84 79 90 90 84 100 100 92 81 82 77 83 84 78
92 92 85 101 100 93 89 90 84 80 81 76 24 28 28 24 28 28 24 28 28 24 28 28 24 28 28 24 28 28 24 28 28 24 28 28 24 28 28 24 28 28 24 28 28 24 28 28
24 28 28 24 28 28 24 28 28 24 28 28 24 28 28 24 28 28 24 28 28 24 28 28 24 28 28 24 28 28 24 28 28 24 28 28 24 28 28 24 28 28 24 28 28 24 28 28
24 28 28 24 28 28 24 28 28 24 28 28 24 28 28 24 28 28 24 28 28 24 28 28 24 28 28 24 28 28 24 28 28 24 28 28 24 28 28 24 28 28 24 28 28 24 28 28
24 28 28 24 28 28 24 28 28 24 28 28 24 28 28 24 28 28 24 28 28 24 28 28 24 28 28 24 28 28 24 28 28 24 28 28 24 28 28 24 28 28 24 28 28 24 28 28
24 28 28 24 28 28 24 28 28 24 28 28 24 28 28 24 28 28 24 28 28 24 28 28 24 28 28 24 28 28 24 28 28 24 28 28 24 28 28 24 28 28 24 28 28 24 28 28
24 28 28 24 28 28 24 28 28 24 28 28 24 28 28 24 28 28 24 28 28 24 28 28 24 28 28 24 28 28 24 28 28 24 28 28 24 28 28 24 28 28 24 28 28 24 28 28
24 28 28 24 28 28 24 28 28 24 28 28 24 28 28 24 28 28 24 28 28 24 28 28 24 28 28 24 28 28 24 28 28 24 28 28 24 28 28 24 28 28 24 28 28 24 28 28
24 28 28 24 28 28 24 28 28 49 56 65 54 61 70 49 56 65 24 28 28 59 66 75 42 49 58 53 60 69 51 58 67 24 28 28 61 68 77 68 75 84 53 60 69 61 68 77
47 73 91 51 79 98 47 74 92 42 67 83 85 69 86 36 59 74 43 70 87 36 61 76 35 59 74 43 70 87 43 69 87 41 67 84 44 70 88 114 59 74 36 60 75 32 55 69
33 56 70 101 65 81 41 66 82 40 65 81 37 61 76 51 79 98 39 63 78 41 66 82 53 81 101 52 79 98 55 83 103 45 70 87 47 73 90 45 70 86 44 68 84 117 74 91
50 77 95 48 75 92 107 73 91 43 68 84 49 76 94 80 75 93 40 64 80 83 72 89 37 61 76 39 64 80 37 61 76 80 67 84 42 69 86 117 58 73 39 64 80 41 67 84
44 71 89 45 72 90 42 68 85 45 72 90 32 55 68 40 65 81 106 64 81 35 58 72 48 75 93 44 70 86 43 69 85 38 62 76 40 63 78 50 78 96 41 65 80 48 74 92
49 76 93 44 69 85 43 68 83 45 70 87 55 84 104 45 71 87 44 69 85 44 70 86 73 79 97 41 65 81 48 76 94 46 73 90 58 76 95 42 67 84 39 63 79 36 60 74
42 68 85 39 64 80 35 59 74 38 63 79 40 65 81 105 60 76 40 65 82 40 65 82 45 73 91 46 73 92 33 56 70 41 66 82 41 66 82 38 63 78 44 69 86 80 76 94
49 76 94 41 65 80 47 74 91 46 72 89 49 76 93 45 70 86 44 69 85 111 75 93 45 70 86 50 76 94 43 68 83 49 77 95 87 76 95 24 28 28 24 28 28 24 28 28
24 28 28 24 28 28 24 28 28 24 28 28 24 28 28 24 28 28 81 82 77 73 75 71 95 95 88 102 101 94 78 80 75 93 93 86 91 92 85 85 86 80 104 103 95 103 102 94
91 91 85 76 78 73 83 84 78 91 91 85 24 28 28 24 28 28 24 28 28 24 28 28 24 28 28 24 28 28 24 28 28 24 28 28 24 28 28 24 28 28 24 28 28 24 28 28
24 28 28 24 28 28 24 28 28 24 28 28 24 28 28 24 28 28 24 28 28 24 28 28 24 28 28 24 28 28 24 28 28 24 28 28 24 28 28 24 28 28 24 28 28 24 28 28
24 28 28 24 28 28 24 28 28 24 28 28 24 28 28 24 28 28 24 28 28 24 28 28 24 28 28 24 28 28 24 28 28 24 28 28 24 28 28 24 28 28 24 28 28 24 28 28
24 28 28 24 28 28 24 28 28 24 28 28 24 28 28 24 28 28 24 28 28 24 28 28 24 28 28 24 28 28 24 28 28 24 28 28 24 28 28 24 28 28 24 28 28 24 28 28
24 28 28 24 28 28 24 28 28 24 28 28 24 28 28 24 28 28 24 28 28 24 28 28 24 28 28 24 28 28 24 28 28 24 28 28 24 28 28 24 28 28 24 28 28 24 28 28
24 28 28 24 28 28 24 28 28 24 28 28 24 28 28 24 28 28 24 28 28 24 28 28 24 28 28 24 28 28 24 28 28 24 28 28 24 28 28 24 28 28 24 28 28 24 28 28
24 28 28 24 28 28 24 28 28 24 28 28 24 28 28 24 28 28 24 28 28 24 28 28 24 28 28 24 28 28 24 28 28 24 28 28 24 28 28 24 28 28 24 28 28 24 28 28
24 28 28 24 28 28 24 28 28 50 57 66 61 68 77 66 73 82 24 28 28 66 73 82 53 60 69 57 64 73 66 73 82 24 28 28 48 55 64 66 73 82 43 50 59 56 63 72
38 62 76 38 62 76 42 66 82 104 68 85 36 60 74 33 56 70 44 70 87 43 69 86 45 72 89 32 55 69 44 70 87 66 69 87 36 60 74 37 61 77 48 74 92 44 71 88
35 59 73 39 64 79 40 65 81 45 71 88 39 63 77 49 76 94 109 72 89 67 81 100 41 65 80 55 83 102 50 77 94 44 69 84 51 79 97 49 75 92 43 67 82 57 86 106
113 75 93 55 84 103 44 69 84 55 84 104 45 71 88 81 76 95 45 71 88 44 69 86 48 75 93 49 77 96 47 74 93 46 73 91 47 74 93 42 67 84 32 55 69 36 60 75
43 69 86 31 53 66 42 68 85 39 63 79 34 57 71 38 62 77 44 70 88 44 70 87 51 79 98 94 72 90 41 65 80 43 68 84 49 75 93 120 72 89 48 75 92 56 85 105
48 74 91 84 82 101 46 71 87 51 78 96 51 78 96 56 85 105 46 72 88 47 72 89 46 72 89 57 82 101 52 80 99 39 62 77 46 72 89 34 57 71 40 65 80 33 56 69
64 72 89 45 71 89 34 57 72 39 64 80 42 68 85 38 62 77 33 56 70 46 73 91 32 54 68 43 68 85 40 65 81 49 76 95 89 71 88 38 62 76 42 67 83 77 78 96
53 81 100 48 75 92 120 73 90 51 78 96 44 68 84 44 69 84 125 74 91 49 75 92 57 85 105 47 72 89 43 68 83 126 71 88 49 76 94 24 28 28 24 28 28 24 28 28
24 28 28 24 28 28 24 28 28 24 28 28 24 28 28 24 28 28 105 104 96 74 76 71 83 84 78 75 76 72 94 94 88 82 83 77 100 99 92 101 100 93 79 80 75 88 88 82
84 85 79 102 101 93 98 97 90 90 90 84 24 28 28 24 28 28 24 28 28 24 28 28 24 28 28 24 28 28 24 28 28 24 28 28 24 28 28 24 28 28 24 28 28 24 28 28
24 28 28 24 28 28 24 28 28 24 28 28 24 28 28 24 28 28 24 28 28 24 28 28 24 28 28 24 28 28 24 28 28 24 28 28 24 28 28 24 28 28 24 28 28 24 28 28
24 28 28 24 28 28 24 28 28 24 28 28 24 28 28 24 28 28 24 28 28 24 28 28 24 28 28 24 28 28 24 28 28 24 28 28 24 28 28 24 28 28 24 28 28 24 28 28
24 28 28 24 28 28 24 28 28 24 28 28 24 28 28 24 28 28 24 28 28 24 28 28 24 28 28 24 28 28 24 28 28 24 28 28 24 28 28 24 28 28 24 28 28 24 28 28
24 28 28 24 28 28 24 28 28 24 28 28 24 28 28 24 28 28 24 28 28 24 28 28 24 28 28 24 28 28 24 28 28 24 28 28 24 28 28 24 28 28 24 28 28 24 28 28
24 28 28 24 28 28 24 28 28 24 28 28 24 28 28 24 28 28 24 28 28 24 28 28 24 28 28 24 28 28 24 28 28 24 28 28 24 28 28 24 28 28 24 28 28 24 28 28
24 28 28 24 28 28 24 28 28 24 28 28 24 28 28 24 28 28 24 28 28 24 28 28 24 28 28 24 28 28 24 28 28 24 28 28 24 28 28 24 28 28 24 28 28 24 28 28
24 28 28 24 28 28 24 28 28 69 76 85 50 57 66 46 53 62 24 28 28 67 74 83 44 51 60 45 52 61 49 56 65 24 28 28 60 67 76 55 62 71 62 69 78 56 63 72
49 76 93 44 68 84 106 72 89 50 77 95 48 75 92 49 76 94 41 66 81 46 73 90 35 58 71 45 71 88 90 67 84 45 71 88 48 75 93 41 66 82 43 69 85 35 58 72
49 77 95 44 69 86 46 72 89 44 69 85 121 69 85 62 82 101 70 82 101 42 66 80 53 81 99 46 71 87 59 88 108 129 75 92 63 89 109 52 79 97 55 83 101 54 81 99
58 87 106 51 78 96 54 81 100 51 78 96 44 69 85 52 80 98 52 79 98 51 78 97 48 75 93 41 65 81 43 68 84 103 67 83 48 75 93 42 67 84 39 64 79 38 62 77
48 75 93 44 69 86 46 73 91 44 70 86 45 71 88 36 58 72 45 70 87 41 65 81 45 70 87 47 73 90 95 76 94 52 79 98 48 74 91 43 67 83 48 74 91 58 87 106
52 79 97 54 81 100 52 78 96 56 84 103 53 80 98 45 70 85 97 80 98 100 78 96 43 67 82 55 83 103 113 72 89 47 73 90 52 80 99 38 61 75 43 68 85 65 75 93
42 67 84 96 67 83 35 58 72 45 72 89 41 66 82 48 75 93 71 71 89 47 75 93 47 74 92 48 76 94 46 72 90 47 73 91 39 62 77 49 76 93 44 68 84 45 70 86
52 79 97 54 81 100 74 84 104 47 72 88 46 70 86 52 79 97 50 76 93 60 89 109 51 78 95 46 71 87 46 71 87 55 83 103 45 69 85 24 28 28 24 28 28 24 28 28
24 28 28 24 28 28 24 28 28 24 28 28 24 28 28 24 28 28 94 94 87 84 84 79 90 90 84 75 77 72 85 86 80 96 96 89 91 91 85 93 93 86 78 79 75 99 99 92
104 103 95 87 87 81 88 89 83 74 76 71 24 28 28 24 28 28 24 28 28 24 28 28 24 28 28 24 28 28 24 28 28 24 28 28 24 28 28 24 28 28 24 28 28 24 28 28
24 28 28 24 28 28 24 28 28 24 28 28 24 28 28 24 28 28 24 28 28 24 28 28 24 28 28 24 28 28 24 28 28 24 28 28 24 28 28 24 28 28 24 28 28 24 28 28
24 28 28 24 28 28 24 28 28 24 28 28 24 28 28 24 28 28 24 28 28 24 28 28 24 28 28 24 28 28 24 28 28 24 28 28 24 28 28 24 28 28 24 28 28 24 28 28
24 28 28 24 28 28 24 28 28 24 28 28 24 28 28 24 28 28 24 28 28 24 28 28 24 28 28 24 28 28 24 28 28 24 28 28 24 28 28 24 28 28 24 28 28 24 28 28
24 28 28 24 28 28 24 28 28 24 28 28 24 28 28 24 28 28 24 28 28 24 28 28 24 28 28 24 28 28 24 28 28 24 28 28 24 28 28 24 28 28 24 28 28 24 28 28
24 28 28 24 28 28 24 28 28 24 28 28 24 28 28 24 28 28 24 28 28 24 28 28 24 28 28 24 28 28 24 28 28 24 28 28 24 28 28 24 28 28 24 28 28 24 28 28
24 28 28 24 28 28 24 28 28 24 28 28 24 28 28 24 28 28 24 28 28 24 28 28 24 28 28 24 28 28 24 28 28 24 28 28 24 28 28 24 28 28 24 28 28 24 28 28
24 28 28 24 28 28 24 28 28 50 57 66 61 68 77 67 74 83 24 28 28 58 65 74 66 73 82 45 52 61 63 70 79 24 28 28 68 75 84 54 61 70 51 58 67 44 51 60
53 80 98 55 82 100 110 75 92 41 65 79 48 73 90 51 78 96 51 78 96 53 80 99 47 73 89 50 76 94 101 69 85 44 70 86 43 67 83 48 75 92 50 76 94 52 80 99
45 70 86 48 74 91 41 64 78 55 82 101 56 84 103 48 73 89 52 78 96 54 81 98 55 82 100 127 78 96 109 83 101 54 80 97 63 92 112 55 82 99 53 79 96 53 80 97
62 92 112 52 78 95 52 79 96 56 84 102 46 71 86 128 74 90 52 78 96 54 81 100 48 73 90 43 68 83 44 69 85 53 80 99 119 67 83 51 78 97 47 73 90 46 72 89
81 73 90 122 65 81 48 74 91 47 74 91 47 73 90 89 75 92 45 70 86 51 77 95 63 84 103 56 83 102 45 69 84 59 88 107 101 82 100 46 71 86 127 78 96 58 86 106
48 72 88 49 74 90 50 75 91 102 85 104 72 91 111 48 72 88 56 83 102 54 81 99 46 70 86 46 70 86 44 68 83 67 84 103 54 82 101 51 78 96 43 67 82 43 68 83
75 76 94 48 74 91 47 73 89 48 75 92 46 72 89 46 71 88 42 67 82 39 62 76 52 79 98 52 79 97 46 71 87 53 81 100 41 64 79 43 67 82 110 76 94 51 77 94
55 82 100 121 78 96 54 81 99 55 82 100 57 84 103 56 83 101 60 89 108 58 85 104 58 86 104 53 79 96 60 89 109 60 89 109 52 79 96 24 28 28 24 28 28 24 28 28
24 28 28 24 28 28 24 28 28 24 28 28 24 28 28 24 28 28 95 94 88 88 88 82 90 90 84 104 103 95 95 95 88 90 91 84 70 72 68 99 99 92 77 78 73 84 85 79
91 91 84 76 78 73 90 90 84 85 86 80 24 28 28 24 28 28 24 28 28 24 28 28 24 28 28 24 28 28 24 28 28 24 28 28 24 28 28 24 28 28 24 28 28 24 28 28
24 28 28 24 28 28 24 28 28 24 28 28 24 28 28 24 28 28 24 28 28 24 28 28 24 28 28 24 28 28 24 28 28 24 28 28 24 28 28 24 28 28 24 28 28 24 28 28
24 28 28 24 28 28 24 28 28 24 28 28 24 28 28 24 28 28 24 28 28 24 28 28 24 28 28 24 28 28 24 28 28 24 28 28 24 28 28 24 28 28 24 28 28 24 28 28
24 28 28 24 28 28 24 28 28 24 28 28 24 28 28 24 28 28 24 28 28 24 28 28 24 28 28 24 28 28 24 28 28 24 28 28 24 28 28 24 28 28 24 28 28 24 28 28
24 28 28 24 28 28 24 28 28 24 28 28 24 28 28 24 28 28 24 28 28 24 28 28 24 28 28 24 28 28 24 28 28 24 28 28 24 28 28 24 28 28 24 28 28 24 28 28
24 28 28 24 28 28 24 28 28 24 28 28 24 28 28 24 28 28 24 28 28 24 28 28 24 28 28 24 28 28 24 28 28 24 28 28 24 28 28 24 28 28 24 28 28 24 28 28
24 28 28 24 28 28 24 28 28 24 28 28 24 28 28 24 28 28 24 28 28 24 28 28 24 28 28 24 28 28 24 28 28 24 28 28 24 28 28 24 28 28 24 28 28 24 28 28
24 28 28 24 28 28 24 28 28 43 50 59 56 63 72 42 49 58 24 28 28 46 53 62 51 58 67 63 70 79 67 74 83 24 28 28 67 74 83 62 69 78 46 53 62 56 63 72
52 78 94 129 78 95 59 87 106 93 82 101 61 88 107 43 66 81 52 78 95 46 70 85 50 76 93 54 81 99 41 63 77 42 65 79 42 65 79 46 70 86 44 67 82 86 79 97
53 80 97 99 79 96 57 84 102 55 81 99 53 79 96 48 72 87 56 82 99 119 83 101 61 89 108 56 82 99 57 83 101 59 86 104 61 89 107 63 91 110 52 77 93 53 78 94
52 77 92 54 79 96 55 81 98 55 81 98 55 82 99 55 82 99 60 88 107 56 83 101 127 75 92 45 68 83 57 85 104 57 85 104 55 82 101 63 83 101 41 64 77 46 71 86
48 74 90 43 67 82 69 82 100 65 83 102 47 72 88 55 82 101 56 83 102 104 80 97 46 69 84 48 72 87 56 82 100 63 92 112 59 87 105 64 92 112 53 78 94 55 81 98
140 83 100 59 86 103 62 90 109 130 85 103 71 96 117 56 81 98 62 90 109 63 92 111 52 77 93 54 80 96 59 87 105 61 90 110 49 74 90 53 80 97 53 79 96 45 69 84
124 72 88 42 65 79 67 82 100 47 72 88 48 73 89 50 76 92 44 67 82 50 76 93 45 69 85 43 66 80 56 83 101 47 72 87 51 76 92 49 74 90 47 71 86 49 74 89
55 81 98 52 78 94 66 95 116 55 80 97 57 83 101 56 82 99 54 79 95 58 85 102 53 77 93 131 84 102 52 77 92 63 92 111 57 84 102 24 28 28 24 28 28 24 28 28
24 28 28 24 28 28 24 28 28 24 28 28 24 28 28 24 28 28 78 79 74 75 76 72 99 98 91 103 102 94 91 91 85 96 96 89 100 100 92 85 85 80 71 73 69 101 101 93
103 103 95 84 85 79 101 101 93 89 89 83 24 28 28 24 28 28 24 28 28 24 28 28 24 28 28 24 28 28 24 28 28 24 28 28 24 28 28 24 28 28 24 28 28 24 28 28
24 28 28 24 28 28 24 28 28 24 28 28 24 28 28 24 28 28 24 28 28 24 28 28 24 28 28 24 28 28 24 28 28 24 28 28 24 28 28 24 28 28 24 28 28 24 28 28
24 28 28 24 28 28 24 28 28 24 28 28 24 28 28 24 28 28 24 28 28 24 28 28 24 28 28 24 28 28 24 28 28 24 28 28 24 28 28 24 28 28 24 28 28 24 28 28
24 28 28 24 28 28 24 28 28 24 28 28 24 28 28 24 28 28 24 28 28 24 28 28 24 28 28 24 28 28 24 28 28 24 28 28 24 28 28 24 28 28 24 28 28 24 28 28
24 28 28 24 28 28 24 28 28 24 28 28 24 28 28 24 28 28 24 28 28 24 28 28 24 28 28 24 28 28 24 28 28 24 28 28 24 28 28 24 28 28 24 28 28 24 28 28
24 28 28 24 28 28 24 28 28 24 28 28 24 28 28 24 28 28 24 28 28 24 28 28 24 28 28 24 28 28 24 28 28 24 28 28 24 28 28 24 28 28 24 28 28 24 28 28
24 28 28 24 28 28 24 28 28 24 28 28 24 28 28 24 28 28 24 28 28 24 28 28 24 28 28 24 28 28 24 28 28 24 28 28 24 28 28 24 28 28 24 28 28 24 28 28
24 28 28 24 28 28 24 28 28 64 71 80 54 61 70 54 61 70 24 28 28 53 60 69 44 51 60 53 60 69 58 65 74 24 28 28 52 59 68 56 63 72 56 63 72 43 50 59
60 87 104 66 94 114 65 94 113 56 82 99 48 72 86 124 79 95 48 71 86 47 70 85 59 87 106 124 75 91 58 86 104 132 73 89 46 70 85 57 84 102 53 79 96 52 77 94
108 81 98 60 87 106 54 80 97 53 77 93 60 87 105 65 94 113 93 92 111 69 98 118 68 97 117 57 82 98 57 82 98 66 94 114 113 93 112 70 99 119 66 94 113 58 84 100
60 87 104 66 94 113 56 82 98 60 87 104 63 91 110 65 94 114 122 84 101 61 88 107 132 79 96 48 71 86 59 86 105 60 88 107 50 75 91 54 80 97 57 84 102 53 78 95
53 78 95 57 84 102 50 74 90 52 77 93 53 79 95 56 83 100 49 72 87 59 86 105 57 83 100 57 83 100 65 94 113 61 88 106 59 86 103 70 99 120 57 82 98 69 98 119
105 94 114 57 82 98 63 91 109 107 94 114 63 90 108 62 89 106 63 91 109 62 89 107 56 81 97 60 87 105 63 90 109 58 84 101 52 77 92 93 86 105 49 73 88 52 77 94
57 84 102 52 77 93 127 75 91 48 72 87 45 68 82 56 83 101 56 83 100 71 86 105 61 89 108 50 74 89 55 80 97 114 82 99 62 90 109 51 75 91 65 94 113 64 92 111
65 93 112 67 96 116 97 94 114 118 91 110 60 86 104 68 97 117 65 93 112 72 102 122 70 99 120 61 88 105 57 82 98 62 89 107 60 86 104 24 28 28 24 28 28 24 28 28
24 28 28 24 28 28 24 28 28 24 28 28 24 28 28 24 28 28 81 82 76 101 100 93 75 77 72 91 91 85 99 98 91 96 96 89 79 81 75 80 81 76 73 75 70 92 92 86
94 94 87 72 74 70 78 80 75 81 82 77 24 28 28 24 28 28 24 28 28 24 28 28 24 28 28 24 28 28 24 28 28 24 28 28 24 28 28 24 28 28 24 28 28 24 28 28
24 28 28 24 28 28 24 28 28 24 28 28 24 28 28 24 28 28 24 28 28 24 28 28 24 28 28 24 28 28 24 28 28 24 28 28 24 28 28 24 28 28 24 28 28 24 28 28
24 28 28 24 28 28 24 28 28 24 28 28 24 28 28 24 28 28 24 28 28 24 28 28 24 28 28 24 28 28 24 28 28 24 28 28 24 28 28 24 28 28 24 28 28 24 28 28
24 28 28 24 28 28 24 28 28 24 28 28 24 28 28 24 28 28 24 28 28 24 28 28 24 28 28 24 28 28 24 28 28 24 28 28 24 28 28 24 28 28 24 28 28 24 28 28
24 28 28 24 28 28 24 28 28 24 28 28 24 28 28 24 28 28 24 28 28 24 28 28 24 28 28 24 28 28 24 28 28 24 28 28 24 28 28 24 28 28 24 28 28 24 28 28
24 28 28 24 28 28 24 28 28 24 28 28 24 28 28 24 28 28 24 28 28 24 28 28 24 28 28 24 28 28 24 28 28 24 28 28 24 28 28 24 28 28 24 28 28 24 28 28
24 28 28 24 28 28 24 28 28 24 28 28 24 28 28 24 28 28 24 28 28 24 28 28 24 28 28 24 28 28 24 28 28 24 28 28 24 28 28 24 28 28 24 28 28 24 28 28
24 28 28 24 28 28 24 28 28 58 65 74 51 58 67 65 72 81 24 28 28 54 61 70 60 67 76 44 51 60 69 76 85 24 28 28 52 59 68 46 53 62 68 75 84 55 62 71
60 86 103 58 83 100 63 91 109 79 93 113 55 80 97 61 88 106 55 81 97 61 89 107 50 74 89 53 78 94 100 83 100 59 86 104 54 79 95 53 78 94 51 75 90 87 87 106
58 84 102 51 75 90 66 94 114 59 86 103 61 88 106 67 95 114 99 94 113 56 80 96 61 87 104 69 98 117 112 95 115 65 92 110 72 101 122 121 95 114 63 89 107 132 92 111
69 98 117 101 97 117 64 91 109 67 95 115 65 92 111 61 88 106 55 80 96 108 88 106 65 93 113 65 93 112 114 83 101 52 77 92 50 74 89 53 78 94 57 84 101 102 82 100
58 85 103 86 86 104 87 86 104 49 73 88 112 83 100 59 86 103 59 85 102 93 90 109 58 84 100 55 80 96 58 83 100 133 87 105 64 91 109 67 95 115 88 100 120 67 95 115
67 95 114 106 98 118 66 93 112 118 95 115 138 91 109 73 102 123 68 96 115 61 88 105 64 92 110 65 93 112 71 98 118 64 92 111 64 92 111 65 93 113 117 83 100 60 87 105
59 86 104 61 89 108 47 70 85 59 86 104 62 90 109 107 81 99 53 78 94 55 80 97 56 82 99 52 76 92 65 94 113 60 87 105 53 78 93 60 87 104 114 89 107 63 90 108
60 85 102 70 99 120 59 84 100 66 93 111 74 104 125 61 87 103 139 91 109 61 87 104 62 88 105 142 90 108 71 100 120 60 86 103 63 90 108 24 28 28 24 28 28 24 28 28
24 28 28 24 28 28 24 28 28 24 28 28 24 28 28 24 28 28 100 100 92 97 97 90 94 94 87 99 99 91 92 92 86 84 85 79 91 91 85 105 104 96 104 103 95 100 99 92
82 83 78 104 103 95 75 76 72 88 88 82 24 28 28 24 28 28 24 28 28 24 28 28 24 28 28 24 28 28 24 28 28 24 28 28 24 28 28 24 28 28 24 28 28 24 28 28
24 28 28 24 28 28 24 28 28 24 28 28 24 28 28 24 28 28 24 28 28 24 28 28 24 28 28 24 28 28 24 28 28 24 28 28 24 28 28 24 28 28 24 28 28 24 28 28
24 28 28 24 28 28 24 28 28 24 28 28 24 28 28 24 28 28 24 28 28 24 28 28 24 28 28 24 28 28 24 28 28 24 28 28 24 28 28 24 28 28 24 28 28 24 28 28
24 28 28 24 28 28 24 28 28 24 28 28 24 28 28 24 28 28 24 28 28 24 28 28 24 28 28 24 28 28 24 28 28 24 28 28 24 28 28 24 28 28 24 28 28 24 28 28
24 28 28 24 28 28 24 28 28 24 28 28 24 28 28 24 28 28 24 28 28 24 28 28 24 28 28 24 28 28 24 28 28 24 28 28 24 28 28 24 28 28 24 28 28 24 28 28
24 28 28 24 28 28 24 28 28 24 28 28 24 28 28 24 28 28 24 28 28 24 28 28 24 28 28 24 28 28 24 28 28 24 28 28 24 28 28 24 28 28 24 28 28 24 28 28
24 28 28 24 28 28 24 28 28 24 28 28 24 28 28 24 28 28 24 28 28 24 28 28 24 28 28 24 28 28 24 28 28 24 28 28 24 28 28 24 28 28 24 28 28 24 28 28
24 28 28 24 28 28 24 28 28 62 69 78 58 65 74 56 63 72 24 28 28 58 65 74 63 70 79 43 50 59 68 75 84 24 28 28 63 70 79 49 56 65 52 59 68 54 61 70
61 87 104 64 92 111 56 80 96 56 81 97 55 80 96 64 92 111 53 78 93 57 84 101 109 82 99 58 84 102 49 73 87 50 74 89 51 76 92 49 72 87 59 86 105 51 75 90
55 80 96 58 85 102 55 81 97 59 86 103 67 96 115 58 84 101 129 88 105 136 88 105 62 89 106 69 97 117 71 100 120 65 93 111 69 97 116 69 97 116 73 103 123 66 94 112
62 88 105 66 93 112 68 97 117 57 82 98 62 89 106 58 83 100 132 85 102 54 79 95 57 83 99 52 77 92 54 80 96 51 76 91 55 81 97 56 82 99 53 78 95 50 74 89
54 79 95 59 86 104 57 83 100 49 73 87 55 80 96 51 75 90 51 75 90 57 82 99 63 91 110 109 90 108 54 79 94 58 84 100 56 81 96 62 88 105 68 97 116 68 96 115
66 94 112 67 95 113 69 97 117 62 88 105 128 93 112 61 87 104 67 95 114 62 89 107 66 94 113 62 88 106 54 79 94 62 89 107 52 76 91 56 81 97 64 92 112 56 81 98
61 89 107 52 77 92 61 88 107 62 90 108 61 88 107 48 71 85 61 89 107 49 73 87 56 82 98 53 78 93 55 80 97 62 89 108 53 78 93 58 84 100 61 87 105 63 90 109
60 87 104 64 91 109 60 86 103 65 93 111 90 100 121 70 99 119 59 84 100 65 92 110 59 84 100 66 94 112 106 96 116 133 90 108 59 85 101 24 28 28 24 28 28 24 28 28
24 28 28 24 28 28 24 28 28 24 28 28 24 28 28 24 28 28 97 97 90 73 75 70 101 100 93 86 86 81 86 87 81 82 83 78 89 89 83 82 83 77 99 98 91 79 80 75
99 98 91 93 93 86 103 102 94 74 75 71 24 28 28 24 28 28 24 28 28 24 28 28 24 28 28 24 28 28 24 28 28 24 28 28 24 28 28 24 28 28 24 28 28 24 28 28
24 28 28 24 28 28 24 28 28 24 28 28 24 28 28 24 28 28 24 28 28 24 28 28 24 28 28 24 28 28 24 28 28 24 28 28 24 28 28 24 28 28 24 28 28 24 28 28
24 28 28 24 28 28 24 28 28 24 28 28 24 28 28 24 28 28 24 28 28 24 28 28 24 28 28 24 28 28 24 28 28 24 28 28 24 28 28 24 28 28 24 28 28 24 28 28
24 28 28 24 28 28 24 28 28 24 28 28 24 28 28 24 28 28 24 28 28 24 28 28 24 28 28 24 28 28 24 28 28 24 28 28 24 28 28 24 28 28 24 28 28 24 28 28
24 28 28 24 28 28 24 28 28 24 28 28 24 28 28 24 28 28 24 28 28 24 28 28 24 28 28 24 28 28 24 28 28 24 28 28 24 28 28 24 28 28 24 28 28 24 28 28
24 28 28 24 28 28 24 28 28 24 28 28 24 28 28 24 28 28 24 28 28 24 28 28 24 28 28 24 28 28 24 28 28 24 28 28 24 28 28 24 28 28 24 28 28 24 28 28
24 28 28 24 28 28 24 28 28 24 28 28 24 28 28 24 28 28 24 28 28 24 28 28 24 28 28 24 28 28 24 28 28 24 28 28 24 28 28 24 28 28 24 28 28 24 28 28
24 28 28 24 28 28 24 28 28 51 58 67 52 59 68 50 57 66 24 28 28 42 49 58 58 65 74 61 68 77 54 61 70 24 28 28 68 75 84 55 62 71 66 73 82 61 68 77
58 84 102 53 77 93 62 89 108 74 91 111 49 73 88 54 79 96 46 70 84 54 80 96 56 82 100 51 76 92 48 73 88 57 85 103 46 70 85 114 77 94 49 73 89 61 89 108
123 78 94 51 76 91 58 84 102 61 88 107 50 74 89 54 78 94 66 94 114 124 87 105 66 94 114 58 84 101 69 98 118 67 95 115 66 95 114 64 91 109 57 82 99 67 95 114
62 89 106 62 90 108 68 97 117 64 92 111 66 94 114 59 86 103 54 80 96 63 91 110 59 86 104 53 78 94 60 88 107 98 82 100 49 73 88 53 79 96 52 77 94 48 73 88
61 87 106 55 81 98 57 84 102 46 70 84 73 87 106 61 90 109 50 74 90 53 79 95 55 81 98 52 77 92 56 81 98 63 91 110 67 96 116 61 87 105 63 91 109 61 87 105
69 99 119 88 98 118 68 96 116 57 82 99 64 92 111 73 100 121 137 86 104 54 79 95 60 86 104 61 88 106 66 95 115 63 91 110 58 85 102 50 74 89 49 73 88 60 87 106
54 80 97 60 87 106 52 78 94 52 77 94 119 76 92 56 83 100 50 74 90 49 74 89 54 80 97 55 82 99 54 80 97 53 78 94 63 91 110 65 93 113 52 77 92 133 84 101
65 94 113 75 98 118 59 85 101 62 89 107 61 87 104 59 85 102 116 93 112 63 90 108 67 96 116 60 86 103 62 89 107 65 93 113 63 90 109 24 28 28 24 28 28 24 28 28
24 28 28 24 28 28 24 28 28 24 28 28 24 28 28 24 28 28 104 103 95 89 89 83 100 99 92 87 87 81 105 104 96 81 82 77 88 88 82 92 92 85 71 73 69 101 100 93
72 74 70 96 96 89 74 76 72 86 87 81 24 28 28 24 28 28 24 28 28 24 28 28 24 28 28 24 28 28 24 28 28 24 28 28 24 28 28 24 28 28 24 28 28 24 28 28
24 28 28 24 28 28 24 28 28 24 28 28 24 28 28 24 28 28 24 28 28 24 28 28 24 28 28 24 28 28 24 28 28 24 28 28 24 28 28 24 28 28 24 28 28 24 28 28
24 28 28 24 28 28 24 28 28 24 28 28 24 28 28 24 28 28 24 28 28 24 28 28 24 28 28 24 28 28 24 28 28 24 28 28 24 28 28 24 28 28 24 28 28 24 28 28
24 28 28 24 28 28 24 28 28 24 28 28 24 28 28 24 28 28 24 28 28 24 28 28 24 28 28 24 28 28 24 28 28 24 28 28 24 28 28 24 28 28 24 28 28 24 28 28
24 28 28 24 28 28 24 28 28 24 28 28 24 28 28 24 28 28 24 28 28 24 28 28 24 28 28 24 28 28 24 28 28 24 28 28 24 28 28 24 28 28 24 28 28 24 28 28
24 28 28 24 28 28 24 28 28 24 28 28 24 28 28 24 28 28 24 28 28 24 28 28 24 28 28 24 28 28 24 28 28 24 28 28 24 28 28 24 28 28 24 28 28 24 28 28
24 28 28 24 28 28 24 28 28 24 28 28 24 28 28 24 28 28 24 28 28 24 28 28 24 28 28 24 28 28 24 28 28 24 28 28 24 28 28 24 28 28 24 28 28 24 28 28
24 28 28 24 28 28 24 28 28 68 75 84 51 58 67 53 60 69 24 28 28 44 51 60 53 60 69 60 67 76 60 67 76 24 28 28 65 72 81 67 74 83 44 51 60 53 60 69
60 88 107 53 78 95 55 82 100 59 88 107 58 86 105 50 76 93 49 75 91 49 75 91 52 79 97 42 66 80 51 77 94 42 66 80 56 83 102 51 78 95 51 78 95 42 65 79
54 80 98 55 82 100 55 82 100 72 87 106 56 83 101 55 82 99 60 87 106 51 76 92 129 82 99 54 79 95 99 90 109 59 86 104 56 82 99 68 97 118 62 90 108 55 81 97
58 85 102 56 82 99 83 92 111 50 74 90 58 85 104 54 80 96 61 89 109 53 78 95 50 76 92 44 67 81 50 75 91 43 67 81 53 80 98 43 66 80 108 73 90 43 66 81
41 64 78 54 82 100 103 75 92 42 66 80 52 79 96 51 77 93 131 73 89 58 86 105 52 77 94 62 91 110 54 80 96 64 93 113 134 80 98 61 88 107 64 93 113 52 76 92
54 79 96 131 84 102 64 92 112 52 77 93 111 88 107 92 91 111 108 87 106 64 92 112 60 88 107 59 87 106 48 71 86 49 74 90 54 81 98 76 85 103 43 67 81 45 70 85
49 75 91 50 76 92 49 74 90 62 82 101 47 72 88 78 79 97 51 78 95 49 75 91 44 67 82 46 70 85 51 77 94 57 84 103 56 83 101 59 88 107 61 89 108 57 84 102
58 85 103 56 83 100 52 77 93 96 90 110 55 80 97 57 83 100 60 88 106 56 81 98 67 96 117 61 88 107 54 80 96 95 89 108 57 83 101 24 28 28 24 28 28 24 28 28
24 28 28 24 28 28 24 28 28 24 28 28 24 28 28 24 28 28 84 85 79 95 95 88 104 103 95 92 92 85 75 76 72 102 101 94 99 99 91 79 80 75 103 102 94 81 82 77
86 87 81 73 74 70 83 84 78 72 74 70 24 28 28 24 28 28 24 28 28 24 28 28 24 28 28 24 28 28 24 28 28 24 28 28 24 28 28 24 28 28 24 28 28 24 28 28
24 28 28 24 28 28 24 28 28 24 28 28 24 28 28 24 28 28 24 28 28 24 28 28 24 28 28 24 28 28 24 28 28 24 28 28 24 28 28 24 28 28 24 28 28 24 28 28
24 28 28 24 28 28 24 28 28 24 28 28 24 28 28 24 28 28 24 28 28 24 28 28 24 28 28 24 28 28 24 28 28 24 28 28 24 28 28 24 28 28 24 28 28 24 28 28
24 28 28 24 28 28 24 28 28 24 28 28 24 28 28 24 28 28 24 28 28 24 28 28 24 28 28 24 28 28 24 28 28 24 28 28 24 28 28 24 28 28 24 28 28 24 28 28
24 28 28 24 28 28 24 28 28 24 28 28 24 28 28 24 28 28 24 28 28 24 28 28 24 28 28 24 28 28 24 28 28 24 28 28 24 28 28 24 28 28 24 28 28 24 28 28
24 28 28 24 28 28 24 28 28 24 28 28 24 28 28 24 28 28 24 28 28 24 28 28 24 28 28 24 28 28 24 28 28 24 28 28 24 28 28 24 28 28 24 28 28 24 28 28
24 28 28 24 28 28 24 28 28 24 28 28 24 28 28 24 28 28 24 28 28 24 28 28 24 28 28 24 28 28 24 28 28 24 28 28 24 28 28 24 28 28 24 28 28 24 28 28
24 28 28 24 28 28 24 28 28 68 75 84 53 60 69 67 74 83 24 28 28 55 62 71 53 60 69 44 51 60 65 72 81 24 28 28 59 66 75 62 69 78 59 66 75 47 54 63
102 79 97 45 69 84 56 84 103 44 68 84 41 64 78 49 75 92 39 62 76 45 70 86 112 68 84 105 69 85 37 60 73 48 75 93 74 75 92 42 66 81 52 79 97 38 61 75
46 72 89 49 75 92 50 76 94 52 79 96 49 74 91 50 76 92 58 86 105 46 70 86 48 73 89 56 84 102 53 80 97 58 86 104 83 89 109 120 82 100 57 84 103 49 74 89
78 89 109 49 74 90 56 83 102 47 71 86 50 76 93 53 80 98 54 82 100 48 74 91 40 63 78 47 73 89 95 73 91 45 70 86 84 74 91 38 60 74 49 75 93 39 63 77
49 76 94 51 78 96 46 72 89 44 69 85 46 72 88 50 77 95 43 67 82 56 84 103 44 68 84 51 77 94 45 69 84 48 73 89 57 84 103 56 84 102 49 74 90 60 88 107
53 79 95 63 93 113 62 91 111 124 81 99 58 86 105 52 78 94 46 71 86 54 80 98 48 72 88 59 87 107 43 67 82 44 69 84 52 79 98 63 82 101 51 77 95 40 63 77
49 76 93 45 71 87 47 73 90 48 74 91 51 78 97 46 71 88 100 70 86 104 69 86 41 64 79 43 67 83 54 82 101 46 71 87 48 74 91 54 81 100 54 82 100 58 87 107
57 85 104 54 81 99 48 73 88 50 75 91 58 85 104 118 82 100 50 75 91 56 83 101 49 74 90 88 87 106 67 91 111 56 83 101 58 86 105 24 28 28 24 28 28 24 28 28
24 28 28 24 28 28 24 28 28 24 28 28 24 28 28 24 28 28 83 84 78 103 103 95 88 88 82 87 88 82 87 88 82 72 74 70 101 101 93 74 76 71 88 88 82 102 101 94
99 98 91 93 93 86 102 101 93 76 78 73 24 28 28 24 28 28 24 28 28 24 28 28 24 28 28 24 28 28 24 28 28 24 28 28 24 28 28 24 28 28 24 28 28 24 28 28
100 100 92 72 74 69 83 84 78 80 81 76 86 87 81 96 96 89 102 102 94 104 103 96 80 81 76 71 72 68 91 91 84 104 103 95 91 91 85 100 99 92 71 73 69 90 90 84
98 98 91 99 99 91 94 94 87 87 87 81 80 81 76 103 102 94 105 104 96 91 92 85 95 95 88 83 84 79 75 77 72 83 84 78 93 93 86 99 98 91 99 99 91 99 99 91
84 85 79 73 74 70 71 73 68 98 98 91 104 103 95 97 97 90 82 83 78 103 102 94 93 93 87 104 103 95 79 80 75 85 86 80 93 93 86 77 79 74 87 87 81 24 28 28
24 28 28 24 28 28 24 28 28 24 28 28 24 28 28 24 28 28 24 28 28 24 28 28 24 28 28 24 28 28 24 28 28 24 28 28 24 28 28 24 28 28 24 28 28 24 28 28
24 28 28 24 28 28 24 28 28 24 28 28 24 28 28 24 28 28 24 28 28 24 28 28 24 28 28 24 28 28 24 28 28 24 28 28 24 28 28 24 28 28 24 28 28 24 28 28
24 28 28 24 28 28 24 28 28 24 28 28 24 28 28 24 28 28 24 28 28 24 28 28 24 28 28 24 28 28 24 28 28 24 28 28 24 28 28 24 28 28 24 28 28 24 28 28
24 28 28 24 28 28 24 28 28 47 54 63 61 68 77 62 69 78 24 28 28 58 65 74 46 53 62 68 75 84 66 73 82 24 28 28 44 51 60 59 66 75 58 65 74 53 60 69
49 76 93 44 70 86 39 62 76 53 81 100 51 78 97 104 68 85 49 76 95 38 62 77 47 74 91 121 61 76 42 67 83 35 57 71 41 67 83 41 66 82 48 76 94 42 67 83
42 67 83 51 78 97 48 75 93 45 71 87 45 71 87 40 63 78 48 74 91 100 77 95 88 81 99 52 78 96 99 80 99 58 87 107 54 82 100 54 82 100 58 86 106 60 89 109
52 79 97 54 82 100 56 84 104 55 83 102 41 65 80 54 82 101 53 81 100 51 78 96 94 72 89 43 68 85 114 65 81 42 67 84 35 58 71 57 74 92 33 56 69 38 62 77
106 64 80 48 76 94 38 62 76 44 70 87 49 76 95 39 63 78 43 69 85 37 60 74 45 71 87 50 77 95 48 74 91 47 73 89 53 80 99 92 80 99 57 85 104 56 84 103
49 75 91 50 76 93 47 72 89 52 78 96 47 72 88 51 77 95 45 70 86 48 73 90 52 80 98 43 68 83 41 65 79 42 67 82 51 79 97 43 68 84 38 61 75 45 71 88
48 76 94 35 58 72 34 57 70 33 56 69 46 72 90 41 66 82 42 67 83 43 69 86 48 75 93 36 60 74 40 65 80 112 68 84 38 62 76 40 63 78 47 73 90 64 83 102
43 68 83 43 68 83 63 87 106 49 75 91 49 75 92 52 79 97 51 78 95 50 75 92 49 75 92 54 81 100 45 69 85 52 79 97 73 83 102 24 28 28 24 28 28 24 28 28
24 28 28 24 28 28 24 28 28 24 28 28 24 28 28 24 28 28 94 94 87 103 103 95 76 78 73 87 88 82 72 74 70 73 74 70 99 98 91 84 84 79 72 74 70 105 104 96
88 88 82 76 77 73 95 95 88 92 92 86 24 28 28 24 28 28 24 28 28 24 28 28 24 28 28 24 28 28 24 28 28 24 28 28 24 28 28 24 28 28 24 28 28 24 28 28
100 99 92 77 78 73 90 91 84 88 89 82 80 81 76 79 80 75 82 83 78 73 75 70 91 91 85 84 85 79 80 81 76 103 103 95 102 102 94 74 76 72 88 89 83 70 72 68
88 88 82 99 98 91 91 91 84 90 90 84 93 93 87 88 88 82 100 99 92 84 85 79 105 104 96 81 82 77 72 74 70 83 84 78 100 99 92 93 93 86 96 96 89 74 75 71
90 90 84 88 89 83 76 78 73 103 102 94 104 103 95 79 80 75 94 94 87 71 73 69 73 75 70 82 83 78 105 104 96 99 99 91 78 79 75 80 81 76 89 89 83 24 28 28
24 28 28 24 28 28 24 28 28 24 28 28 24 28 28 24 28 28 24 28 28 24 28 28 24 28 28 24 28 28 24 28 28 24 28 28 24 28 28 24 28 28 24 28 28 24 28 28
24 28 28 24 28 28 24 28 28 24 28 28 24 28 28 24 28 28 24 28 28 24 28 28 24 28 28 24 28 28 24 28 28 24 28 28 24 28 28 24 28 28 24 28 28 24 28 28
24 28 28 24 28 28 24 28 28 24 28 28 24 28 28 24 28 28 24 28 28 24 28 28 24 28 28 24 28 28 24 28 28 24 28 28 24 28 28 24 28 28 24 28 28 24 28 28
24 28 28 24 28 28 24 28 28 52 59 68 60 67 76 46 53 62 24 28 28 63 70 79 48 55 64 45 52 61 58 65 74 24 28 28 44 51 60 61 68 77 51 58 67 61 68 77
110 71 88 51 79 98 51 78 97 37 60 75 94 69 86 35 58 72 44 70 87 47 74 92 43 69 86 42 68 85 40 66 82 36 60 75 38 62 78 47 74 92 40 65 81 34 57 71
45 72 90 35 58 72 38 63 78 84 72 90 52 80 99 41 65 80 50 78 96 49 76 93 79 80 99 47 73 89 117 74 92 67 85 105 50 77 94 45 70 86 54 82 101 45 70 86
47 73 90 48 74 91 41 65 80 49 76 94 123 69 86 104 72 89 39 63 78 43 69 86 43 69 86 45 71 89 35 58 72 33 56 69 46 74 92 32 55 69 39 64 80 45 72 90
36 60 76 36 60 75 35 59 74 45 72 90 56 74 92 113 63 79 43 68 85 53 78 97 41 66 82 48 74 92 47 74 91 51 78 97 50 77 95 52 80 98 46 71 87 48 73 90
51 78 96 55 83 102 53 81 100 46 71 87 55 84 103 46 72 89 50 77 95 50 76 94 47 73 90 81 77 95 45 70 87 42 67 83 48 76 94 45 71 88 38 62 77 45 71 89
45 72 90 45 71 89 37 61 76 33 57 71 38 63 78 45 72 90 46 73 92 34 58 72 45 71 89 44 71 88 36 59 73 38 63 78 36 59 73 43 69 85 39 63 78 44 69 85
48 75 92 48 75 92 42 66 81 43 67 82 44 69 85 54 82 100 47 73 90 53 80 99 73 84 103 48 74 91 44 69 85 45 70 86 40 64 78 24 28 28 24 28 28 24 28 28
24 28 28 24 28 28 24 28 28 24 28 28 24 28 28 24 28 28 77 79 74 98 98 90 81 82 77 88 88 82 77 78 73 100 99 92 74 76 71 95 95 88 79 81 76 81 82 77
95 95 88 80 81 76 72 74 70 73 75 70 24 28 28 24 28 28 24 28 28 24 28 28 24 28 28 24 28 28 24 28 28 24 28 28 24 28 28 24 28 28 24 28 28 24 28 28
75 77 72 82 83 77 73 75 71 90 90 84 75 77 72 79 80 75 92 92 86 94 94 87 82 83 78 77 79 74 104 103 95 101 101 93 90 91 84 103 103 95 91 91 85 89 90 83
103 102 94 83 84 79 81 82 76 101 100 93 99 99 92 101 100 93 92 92 85 104 103 95 89 89 83 76 78 73 87 87 81 99 99 91 71 73 69 103 102 94 90 91 84 84 85 79
94 94 87 82 83 78 83 84 78 72 73 69 86 87 81 95 94 88 96 96 89 93 93 86 103 103 95 76 77 73 84 85 79 89 89 83 98 98 91 104 103 95 99 98 91 24 28 28
24 28 28 24 28 28 24 28 28 24 28 28 24 28 28 24 28 28 24 28 28 24 28 28 24 28 28 24 28 28 24 28 28 24 28 28 24 28 28 24 28 28 24 28 28 24 28 28
24 28 28 24 28 28 24 28 28 24 28 28 24 28 28 24 28 28 24 28 28 24 28 28 24 28 28 24 28 28 24 28 28 24 28 28 24 28 28 24 28 28 24 28 28 24 28 28
24 28 28 24 28 28 24 28 28 24 28 28 24 28 28 24 28 28 24 28 28 24 28 28 24 28 28 24 28 28 24 28 28 24 28 28 24 28 28 24 28 28 24 28 28 24 28 28
24 28 28 24 28 28 24 28 28 64 71 80 64 71 80 67 74 83 24 28 28 51 58 67 66 73 82 52 59 68 62 69 78 24 28 28 46 53 62 46 53 62 54 61 70 69 76 85
51 79 97 46 72 89 44 70 86 37 61 76 47 74 92 39 64 80 42 68 85 33 55 69 38 63 79 40 66 83 32 55 69 31 53 67 38 62 78 30 52 65 31 53 67 40 66 82
37 61 76 37 61 76 47 74 92 37 61 76 43 69 86 49 76 95 41 65 80 46 73 90 42 67 82 43 68 83 62 84 104 56 86 106 43 68 83 50 77 95 57 86 106 45 70 86
45 70 86 50 78 96 54 83 103 81 77 96 44 69 86 49 76 95 40 65 81 95 69 86 41 66 82 37 61 76 43 69 86 101 63 79 44 71 88 31 53 67 34 58 72 34 57 72
95 62 78 44 71 89 31 53 66 38 62 78 45 72 89 41 66 83 35 58 73 47 75 93 44 70 87 50 77 96 47 74 92 41 65 81 44 70 86 64 82 102 50 77 95 60 85 104
43 68 83 50 77 95 52 80 99 59 85 105 54 83 102 47 73 90 48 75 93 47 73 91 52 80 99 78 76 95 45 71 88 43 69 85 49 76 95 44 70 88 43 69 86 47 74 93
45 72 90 42 68 85 38 63 79 43 69 87 40 66 82 38 63 79 32 55 68 90 64 80 32 55 68 45 71 89 46 72 90 47 74 92 46 73 90 41 66 81 43 69 85 41 65 81
40 63 78 45 71 88 50 77 95 100 76 94 42 67 82 54 83 102 43 68 83 56 84 104 56 85 105 79 81 100 46 72 89 41 65 80 68 80 99 24 28 28 24 28 28 24 28 28
24 28 28 24 28 28 24 28 28 24 28 28 24 28 28 24 28 28 104 103 95 83 84 78 94 94 87 87 88 82 89 89 83 95 95 88 80 81 76 76 78 73 101 100 93 100 99 92
95 95 88 90 90 84 83 84 78 96 96 89 24 28 28 24 28 28 24 28 28 24 28 28 24 28 28 24 28 28 24 28 28 24 28 28 24 28 28 24 28 28 24 28 28 24 28 28
94 94 87 98 98 91 81 82 77 73 75 71 99 99 91 100 99 92 99 99 91 98 97 90 98 97 90 98 97 90 105 104 96 76 77 73 84 85 79 78 80 75 102 102 94 91 91 85
101 100 93 101 100 93 86 87 81 104 103 95 95 95 88 96 95 88 77 78 74 78 79 74 87 87 81 78 79 74 102 101 93 92 92 85 95 95 88 102 101 94 72 74 70 84 85 79
81 82 77 102 101 93 75 77 72 104 103 95 86 87 81 71 72 68 81 82 77 79 80 75 93 93 86 72 74 70 96 96 89 95 95 88 103 102 94 102 101 93 87 88 82 24 28 28
24 28 28 24 28 28 24 28 28 24 28 28 24 28 28 24 28 28 24 28 28 24 28 28 24 28 28 24 28 28 24 28 28 24 28 28 24 28 28 24 28 28 24 28 28 24 28 28
24 28 28 24 28 28 24 28 28 24 28 28 24 28 28 24 28 28 24 28 28 24 28 28 24 28 28 24 28 28 24 28 28 24 28 28 24 28 28 24 28 28 24 28 28 24 28 28
24 28 28 24 28 28 24 28 28 24 28 28 24 28 28 24 28 28 24 28 28 24 28 28 24 28 28 24 28 28 24 28 28 24 28 28 24 28 28 24 28 28 24 28 28 24 28 28
24 28 28 24 28 28 24 28 28 57 64 73 55 62 71 55 62 71 24 28 28 60 67 76 46 53 62 58 65 74 56 63 72 24 28 28 59 66 75 57 64 73 69 76 85 49 56 65
43 69 85 44 70 87 50 78 97 49 77 96 43 69 85 41 66 83 43 70 87 31 53 66 40 66 83 36 61 76 94 62 78 38 62 78 39 64 81 42 69 86 35 59 74 33 56 70
42 69 86 44 71 89 33 56 70 45 71 89 36 60 74 50 77 96 51 80 99 42 67 82 47 74 91 49 77 95 50 78 96 55 84 104 53 80 99 53 80 99 47 74 91 41 65 80
53 82 101 121 71 88 87 77 95 51 79 98 52 81 100 46 72 90 38 62 77 45 71 89 45 72 89 35 59 74 40 65 81 38 63 79 31 53 66 38 63 79 42 68 85 37 62 78
38 64 80 34 58 73 104 60 76 37 62 78 71 68 86 54 73 91 32 55 68 92 68 85 44 70 87 38 62 77 50 78 97 49 77 95 48 75 93 39 63 78 44 69 85 52 79 98
47 73 91 74 82 101 55 83 103 55 84 103 46 72 89 81 79 98 44 70 86 43 69 85 48 75 93 49 76 94 41 66 82 47 74 92 40 65 80 46 73 90 41 67 83 45 72 90
35 58 73 41 67 84 36 60 75 41 68 85 37 61 77 34 58 72 64 68 85 42 68 85 33 56 70 33 56 70 102 64 80 33 56 70 47 75 93 42 67 84 88 72 90 47 73 91
38 62 76 48 75 92 62 82 102 55 84 104 72 82 101 45 70 87 42 66 82 44 69 85 46 72 89 45 70 87 56 84 104 42 67 83 49 76 94 24 28 28 24 28 28 24 28 28
24 28 28 24 28 28 24 28 28 24 28 28 24 28 28 24 28 28 76 77 73 76 77 72 73 75 71 72 74 70 96 96 89 82 83 78 72 74 70 81 82 77 97 97 89 96 95 88
85 86 80 80 81 76 73 75 71 105 104 96 24 28 28 24 28 28 24 28 28 24 28 28 24 28 28 24 28 28 24 28 28 24 28 28 24 28 28 24 28 28 24 28 28 24 28 28
100 99 92 71 73 69 101 100 92 105 104 96 100 99 92 102 101 94 85 86 80 83 84 78 103 102 94 92 92 86 87 87 81 90 90 84 86 87 81 77 78 74 100 99 92 101 101 93
89 89 83 93 93 86 83 84 78 84 85 79 105 104 96 85 86 80 75 77 72 86 86 80 97 97 90 91 91 84 104 103 95 80 81 76 73 75 71 86 87 81 79 80 75 82 83 78
85 86 80 71 73 69 79 80 75 73 74 70 105 104 96 91 91 85 104 103 95 81 82 76 102 101 94 80 81 76 97 97 90 103 102 95 92 92 86 100 100 92 93 93 87 24 28 28
24 28 28 24 28 28 24 28 28 24 28 28 24 28 28 24 28 28 24 28 28 24 28 28 24 28 28 24 28 28 24 28 28 24 28 28 24 28 28 24 28 28 24 28 28 24 28 28
24 28 28 24 28 28 24 28 28 24 28 28 24 28 28 24 28 28 24 28 28 24 28 28 24 28 28 24 28 28 24 28 28 24 28 28 24 28 28 24 28 28 24 28 28 24 28 28
24 28 28 24 28 28 24 28 28 24 28 28 24 28 28 24 28 28 24 28 28 24 28 28 24 28 28 24 28 28 24 28 28 24 28 28 24 28 28 24 28 28 24 28 28 24 28 28
24 28 28 24 28 28 24 28 28 56 63 72 66 73 82 68 75 84 24 28 28 65 72 81 50 57 66 53 60 69 61 68 77 24 28 28 59 66 75 54 61 70 56 63 72 50 57 66
38 63 78 38 62 78 97 67 84 35 59 74 36 59 74 44 71 89 44 71 89 44 71 88 37 62 78 29 52 65 32 55 69 38 63 79 32 55 70 32 55 70 32 55 69 33 57 71
31 54 68 36 60 75 41 67 84 46 73 91 55 76 95 47 75 93 47 74 92 47 73 91 47 74 92 72 79 98 41 65 81 49 76 94 43 69 85 43 67 83 44 70 86 52 80 99
41 65 80 50 77 95 48 75 93 49 76 95 38 62 77 37 60 75 39 64 79 38 62 77 45 72 90 40 65 82 40 65 82 112 59 74 42 69 86 40 66 83 66 66 83 43 70 88
38 63 79 71 65 82 42 69 87 32 55 69 31 53 67 40 65 81 34 58 72 38 62 77 37 61 76 42 67 84 118 65 82 59 79 98 42 67 83 41 66 81 48 75 93 51 78 97
50 77 95 51 79 98 47 73 90 55 84 104 66 82 101 40 64 79 42 67 82 38 61 76 47 74 92 39 63 79 37 61 75 63 74 93 38 62 77 55 73 92 60 71 89 32 54 68
31 54 68 43 70 88 43 70 88 87 62 78 42 69 87 40 66 84 32 55 70 31 54 67 33 56 70 32 55 68 43 69 87 43 69 86 69 72 90 47 75 93 46 73 91 42 67 84
40 64 80 44 70 86 47 73 91 40 64 80 51 79 98 43 68 84 51 79 97 47 74 91 40 64 79 42 67 83 51 79 98 46 72 90 51 79 98 24 28 28 24 28 28 24 28 28
24 28 28 24 28 28 24 28 28 24 28 28 24 28 28 24 28 28 93 93 87 92 92 85 92 92 86 75 77 72 77 78 73 82 83 77 75 77 72 86 87 81 80 81 76 97 96 89
97 97 89 75 77 72 80 81 76 100 99 92 24 28 28 24 28 28 24 28 28 24 28 28 24 28 28 24 28 28 24 28 28 24 28 28 24 28 28 24 28 28 24 28 28 24 28 28
96 96 89 87 87 81 90 90 84 88 88 82 85 85 80 95 95 88 85 86 80 96 96 89 92 92 85 86 87 81 87 87 82 73 75 70 87 88 82 73 75 71 102 101 94 99 99 91
94 94 87 72 74 69 83 84 79 97 96 89 72 74 70 71 73 69 96 96 89 82 83 77 96 96 89 73 75 70 90 90 84 71 73 69 96 96 89 89 90 84 98 98 90 76 77 72
92 92 86 73 75 71 99 99 91 88 88 82 100 100 92 85 85 80 70 72 68 104 103 95 71 73 69 97 97 90 87 87 81 99 99 91 72 73 69 99 99 91 84 84 79 24 28 28
24 28 28 24 28 28 24 28 28 24 28 28 24 28 28 24 28 28 24 28 28 24 28 28 24 28 28 24 28 28 24 28 28 24 28 28 24 28 28 24 28 28 24 28 28 24 28 28
24 28 28 24 28 28 24 28 28 24 28 28 24 28 28 24 28 28 24 28 28 24 28 28 24 28 28 24 28 28 24 28 28 24 28 28 24 28 28 24 28 28 24 28 28 24 28 28
24 28 28 24 28 28 24 28 28 24 28 28 24 28 28 24 28 28 24 28 28 24 28 28 24 28 28 24 28 28 24 28 28 24 28 28 24 28 28 24 28 28 24 28 28 24 28 28
24 28 28 24 28 28 24 28 28 68 75 84 50 57 66 45 52 61 24 28 28 42 49 58 47 54 63 53 60 69 67 74 83 24 28 28 63 70 79 68 75 84 64 71 80 49 56 65
95 68 85 47 75 94 43 69 86 50 73 92 34 58 73 31 54 68 39 64 81 39 64 81 35 60 76 40 67 84 58 65 82 35 59 75 40 66 84 40 66 84 39 65 82 30 52 66
37 62 79 37 62 77 45 73 91 41 67 84 43 70 87 39 64 80 49 77 96 50 78 97 119 66 83 45 71 88 49 77 96 40 64 80 42 67 83 44 70 87 49 76 94 47 74 92
39 63 79 44 70 87 43 68 85 48 75 93 44 70 87 40 65 81 45 73 91 33 56 70 38 63 80 44 71 89 37 62 77 33 57 71 31 54 68 41 68 86 36 61 77 31 54 68
27 49 63 98 57 73 37 63 79 41 67 85 39 65 82 41 68 85 39 65 82 44 71 89 46 74 92 77 70 88 40 65 82 36 59 74 39 64 80 75 75 94 62 79 98 47 74 93
38 62 77 49 76 95 53 82 101 67 79 99 40 65 81 41 66 82 52 80 100 50 79 98 39 64 80 35 59 74 43 70 87 42 69 86 45 72 90 44 71 89 37 62 78 91 61 77
37 62 78 51 67 85 33 57 72 34 59 74 28 51 64 27 49 62 34 58 73 39 65 81 32 56 71 43 70 88 37 61 77 37 62 78 43 70 88 104 64 80 45 72 90 34 57 71
50 78 97 42 67 84 91 72 90 47 74 92 42 67 83 47 74 91 45 72 89 53 81 101 49 76 95 115 69 86 44 70 87 94 72 89 49 77 96 24 28 28 24 28 28 24 28 28
24 28 28 24 28 28 24 28 28 24 28 28 24 28 28 24 28 28 102 102 94 102 102 94 88 89 83 102 101 93 86 87 81 92 92 86 80 81 76 97 96 89 74 75 71 82 83 77
81 82 77 72 74 70 103 102 94 73 75 71 24 28 28 24 28 28 24 28 28 24 28 28 24 28 28 24 28 28 24 28 28 24 28 28 24 28 28 24 28 28 24 28 28 24 28 28
100 100 92 93 93 86 80 81 76 87 88 82 99 98 91 96 96 89 71 73 69 103 102 94 99 98 91 81 82 77 95 95 88 91 91 85 97 96 89 99 98 91 87 87 82 97 97 90
99 98 91 95 95 88 73 75 70 94 94 88 75 77 72 72 74 70 72 74 70 79 80 75 98 98 91 75 76 72 90 90 84 79 80 75 71 73 69 94 94 87 82 83 78 73 74 70
76 77 73 97 97 90 89 89 83 90 90 84 72 74 70 79 80 75 95 95 88 98 98 90 101 100 93 93 93 86 82 83 78 73 74 70 83 84 78 97 96 89 87 87 82 24 28 28
24 28 28 24 28 28 24 28 28 24 28 28 24 28 28 24 28 28 24 28 28 24 28 28 24 28 28 24 28 28 24 28 28 24 28 28 24 28 28 24 28 28 24 28 28 24 28 28
24 28 28 24 28 28 24 28 28 24 28 28 24 28 28 24 28 28 24 28 28 24 28 28 24 28 28 24 28 28 24 28 28 24 28 28 24 28 28 24 28 28 24 28 28 24 28 28
24 28 28 24 28 28 24 28 28 24 28 28 24 28 28 24 28 28 24 28 28 24 28 28 24 28 28 24 28 28 24 28 28 24 28 28 24 28 28 24 28 28 24 28 28 24 28 28
24 28 28 24 28 28 24 28 28 55 62 71 65 72 81 41 48 57 24 28 28 52 59 68 42 49 58 45 52 61 61 68 77 24 28 28 43 50 59 63 70 79 53 60 69 65 72 81
41 68 85 36 61 77 116 57 73 35 60 76 38 64 81 40 67 85 74 60 77 24 46 59 26 48 62 31 55 70 26 49 63 24 45 58 34 60 76 37 63 80 33 58 74 34 59 75
35 61 77 34 59 75 28 51 65 35 60 76 41 68 86 79 66 83 75 68 86 42 69 86 39 65 81 39 64 80 35 59 74 43 70 87 37 61 76 38 62 78 43 69 86 48 76 95
45 72 90 45 72 90 39 64 80 40 66 82 33 57 72 37 63 79 33 56 71 63 67 85 30 53 67 34 58 74 30 53 68 31 55 70 37 63 81 31 55 71 27 50 64 37 64 81
30 54 69 38 64 81 24 45 58 29 52 66 32 56 71 26 49 62 54 66 84 36 62 78 40 67 84 41 68 86 38 64 80 43 70 87 33 56 70 47 75 94 38 62 78 34 58 72
37 61 76 43 69 86 37 62 77 38 62 78 39 64 80 35 59 74 73 72 91 37 62 77 32 55 69 41 67 84 31 53 67 42 69 87 31 54 69 34 58 74 30 53 67 28 51 65
26 48 62 34 59 75 35 60 77 25 47 61 64 60 76 66 59 76 25 48 61 28 51 65 25 47 59 37 62 79 40 66 84 41 68 85 39 65 82 39 64 81 31 54 67 31 54 68
56 73 92 42 68 85 34 58 73 45 72 90 49 78 97 42 68 85 43 70 87 45 72 90 38 62 78 49 77 97 40 65 82 37 62 77 32 55 69 24 28 28 24 28 28 24 28 28
24 28 28 24 28 28 24 28 28 24 28 28 24 28 28 24 28 28 78 79 74 84 85 79 104 103 95 81 82 77 81 82 76 83 84 78 82 83 78 105 104 96 92 92 86 102 101 93
85 86 80 78 80 75 74 76 71 79 80 75 24 28 28 24 28 28 24 28 28 24 28 28 24 28 28 24 28 28 24 28 28 24 28 28 24 28 28 24 28 28 24 28 28 24 28 28
84 85 79 75 77 72 88 88 82 76 77 73 97 96 89 88 88 82 75 77 72 94 94 87 76 77 73 89 89 83 105 104 96 73 75 71 101 100 93 71 73 69 92 93 86 98 98 91
82 83 78 98 97 90 74 76 71 104 103 95 77 78 73 104 103 95 88 88 82 77 79 74 78 79 74 84 85 79 78 79 74 95 95 88 99 99 91 98 98 90 71 73 69 80 81 76
76 77 72 100 99 92 99 99 91 72 74 70 75 77 72 91 91 85 97 97 89 93 93 87 72 74 70 100 100 92 80 82 76 79 80 75 81 82 77 102 101 94 72 74 69 24 28 28
24 28 28 24 28 28 24 28 28 103 102 95 95 95 88 73 75 70 104 103 95 95 95 88 78 79 74 93 93 87 86 87 81 81 82 77 77 79 74 95 95 88 96 96 89 90 90 84
80 81 76 72 74 69 94 94 87 88 89 82 89 89 83 82 83 78 24 28 28 24 28 28 24 28 28 24 28 28 24 28 28 24 28 28 24 28 28 24 28 28 24 28 28 24 28 28
24 28 28 24 28 28 24 28 28 24 28 28 24 28 28 24 28 28 24 28 28 24 28 28 24 28 28 24 28 28 24 28 28 24 28 28 24 28 28 24 28 28 24 28 28 24 28 28
24 28 28 24 28 28 24 28 28 43 50 59 46 53 62 63 70 79 24 28 28 48 55 64 43 50 59 53 60 69 46 53 62 24 28 28 57 64 73 66 73 82 42 49 58 64 71 80
35 60 76 97 58 74 85 59 75 39 66 84 36 62 79 34 60 77 33 59 75 25 47 61 32 57 73 28 52 67 97 49 63 30 55 70 24 47 61 34 60 77 22 44 58 31 56 72
36 63 80 34 60 76 24 46 59 28 51 66 28 51 65 34 58 74 31 55 69 36 62 78 40 66 84 37 63 79 111 61 77 40 66 83 41 67 85 44 71 90 43 70 88 36 61 76
37 62 78 38 64 81 43 71 89 38 64 81 37 62 79 42 70 88 28 51 65 28 52 66 27 50 64 29 53 68 27 50 64 22 44 57 28 52 67 31 56 72 22 45 58 89 50 65
31 56 72 26 49 64 61 57 73 36 62 80 29 53 68 32 57 73 36 63 80 34 59 76 64 63 80 35 61 77 103 57 73 40 67 85 40 66 83 37 63 80 31 55 69 42 69 87
36 61 76 46 74 92 32 55 70 37 62 78 106 63 79 40 67 84 39 65 82 36 61 77 99 60 77 42 70 89 42 69 88 35 61 77 30 54 69 31 56 71 26 49 63 23 45 58
34 60 77 31 56 72 21 43 55 66 55 71 27 50 65 26 50 65 31 56 72 28 52 66 27 51 66 25 48 61 33 58 75 38 65 82 39 66 84 40 68 86 78 62 79 32 56 71
41 69 87 80 65 82 31 54 69 35 59 75 43 71 89 43 70 88 45 73 92 35 59 75 35 60 75 39 65 81 43 70 88 33 57 72 39 65 82 24 28 28 24 28 28 24 28 28
24 28 28 24 28 28 24 28 28 24 28 28 24 28 28 24 28 28 76 77 73 102 101 93 80 81 76 76 78 73 103 102 94 94 94 87 102 102 94 76 78 73 90 90 84 94 94 87
105 104 96 72 74 70 80 81 76 92 93 86 24 28 28 24 28 28 24 28 28 24 28 28 24 28 28 24 28 28 24 28 28 24 28 28 24 28 28 24 28 28 24 28 28 24 28 28
92 92 86 78 80 75 72 73 69 85 86 80 76 78 73 79 80 75 71 73 69 71 73 69 97 97 90 104 103 95 89 90 83 84 85 79 93 93 87 98 98 91 87 88 82 86 87 81
81 82 77 99 99 91 81 82 77 83 83 78 101 100 92 88 88 82 89 89 83 79 80 75 85 86 80 92 92 85 85 86 80 77 78 74 98 97 90 73 75 70 80 81 76 89 89 83
88 89 82 102 101 94 80 82 76 86 87 81 94 94 87 77 78 74 78 79 74 98 97 90 81 82 77 97 97 90 88 89 83 104 103 95 84 85 79 86 87 81 78 79 74 24 28 28
24 28 28 24 28 28 24 28 28 94 94 87 100 100 92 88 89 83 87 87 81 78 79 74 72 74 70 99 98 91 95 95 88 71 73 69 97 97 90 101 100 93 77 78 73 102 101 93
83 84 79 80 81 76 72 74 70 103 102 94 80 81 76 90 91 84 24 28 28 24 28 28 24 28 28 24 28 28 24 28 28 24 28 28 24 28 28 24 28 28 24 28 28 24 28 28
24 28 28 24 28 28 24 28 28 24 28 28 24 28 28 24 28 28 24 28 28 24 28 28 24 28 28 24 28 28 24 28 28 24 28 28 24 28 28 24 28 28 24 28 28 24 28 28
24 28 28 24 28 28 24 28 28 58 65 74 64 71 80 65 72 81 24 28 28 45 52 61 55 62 71 43 50 59 69 76 85 24 28 28 48 55 64 59 66 75 45 52 61 44 51 60
30 55 70 28 52 67 36 62 79 32 57 73 28 52 67 21 43 55 25 49 63 26 49 64 19 40 53 28 52 68 23 46 60 20 41 54 22 45 58 80 50 65 18 40 52 20 41 54
29 54 70 98 50 65 35 62 79 37 64 82 25 47 61 37 63 80 32 57 72 35 60 77 32 56 71 31 55 70 30 54 68 31 54 69 34 58 73 31 55 70 30 53 67 38 64 81
28 51 65 109 58 74 35 61 77 40 67 85 33 58 73 70 61 78 94 55 71 35 61 78 37 64 82 28 52 67 30 54 70 23 46 59 32 58 75 29 53 69 54 55 71 31 56 73
71 51 67 18 40 52 22 45 59 29 53 69 28 53 68 30 55 71 27 51 66 29 53 69 29 53 68 39 66 84 62 63 80 64 64 82 37 64 81 36 62 78 35 60 76 42 70 88
30 53 68 41 68 86 34 58 74 33 57 72 36 62 78 43 71 90 36 62 78 35 61 77 27 50 63 33 58 74 25 47 61 32 57 73 76 57 73 26 49 64 24 46 60 30 55 71
95 48 63 29 54 70 25 48 63 28 52 68 48 56 72 31 57 73 19 40 53 25 48 63 22 44 57 19 41 53 26 50 65 36 63 80 35 61 78 34 60 77 38 65 83 34 59 75
41 68 87 33 57 73 32 56 72 30 53 67 40 66 84 43 70 89 60 70 88 36 62 78 34 59 74 29 52 66 30 53 68 42 69 88 35 61 77 24 28 28 24 28 28 24 28 28
24 28 28 24 28 28 24 28 28 24 28 28 24 28 28 24 28 28 72 74 70 102 101 93 95 95 88 99 98 91 71 73 69 72 74 70 72 74 69 85 86 80 100 99 92 81 82 77
81 82 77 70 72 68 98 98 90 79 81 76 24 28 28 24 28 28 24 28 28 24 28 28 24 28 28 24 28 28 24 28 28 24 28 28 24 28 28 24 28 28 24 28 28 24 28 28
84 85 79 88 88 82 91 91 85 99 99 91 100 99 92 92 92 86 73 75 70 95 95 88 99 99 91 75 77 72 93 93 87 81 82 77 79 81 76 91 91 85 84 85 79 103 102 94
95 94 88 71 73 69 91 91 85 95 95 88 75 76 72 89 90 83 76 77 73 95 95 88 87 87 81 86 86 81 73 75 70 93 93 86 81 82 76 96 95 88 94 94 87 88 89 83
93 93 86 99 98 91 75 76 72 94 94 88 85 86 80 73 74 70 74 75 71 75 77 72 81 82 77 80 81 76 104 103 95 86 87 81 91 92 85 72 74 69 90 91 84 24 28 28
24 28 28 24 28 28 24 28 28 87 88 82 75 76 72 94 94 87 98 98 91 95 94 88 91 91 85 83 84 78 80 81 76 86 87 81 77 78 73 70 72 68 94 94 87 79 80 75
93 93 86 80 81 76 105 104 96 79 80 75 88 88 82 89 89 83 24 28 28 24 28 28 24 28 28 24 28 28 24 28 28 24 28 28 24 28 28 24 28 28 24 28 28 24 28 28
24 28 28 24 28 28 24 28 28 24 28 28 24 28 28 24 28 28 24 28 28 24 28 28 24 28 28 24 28 28 24 28 28 24 28 28 24 28 28 24 28 28 24 28 28 24 28 28
24 28 28 24 28 28 24 28 28 64 71 80 47 54 63 67 74 83 24 28 28 54 61 70 46 53 62 68 75 84 67 74 83 24 28 28 69 76 85 56 63 72 51 58 67 69 76 85
30 53 68 29 52 67 35 61 78 33 59 76 78 55 72 30 54 70 34 60 78 32 58 75 20 42 54 22 45 58 26 49 64 24 47 62 33 59 76 29 54 70 26 50 65 35 61 78
30 55 71 21 43 56 37 64 81 26 49 62 24 47 60 36 62 79 40 67 86 34 59 75 33 58 74 34 59 74 31 55 70 96 63 80 33 57 72 38 63 80 38 63 80 34 59 75
76 66 84 29 52 66 36 61 77 110 56 72 26 49 62 34 60 76 25 48 62 32 56 72 27 51 65 24 47 60 31 56 71 21 43 56 28 52 67 24 48 62 24 48 62 24 48 62
29 53 69 26 50 64 66 54 70 27 51 66 28 52 67 32 58 74 60 59 75 30 54 69 23 45 58 30 54 69 44 67 86 35 60 77 80 63 80 33 57 73 39 65 82 30 53 67
40 67 85 36 61 78 104 62 78 30 53 67 37 62 79 81 65 82 37 62 79 38 64 81 97 59 75 32 56 72 32 57 72 54 63 81 31 56 71 23 45 58 78 54 70 25 49 63
20 41 54 32 57 74 38 59 76 21 43 56 31 56 73 28 52 67 28 52 67 24 47 61 32 58 75 30 54 70 78 54 70 22 44 57 52 62 80 30 54 69 32 56 72 35 61 78
31 56 71 34 58 74 100 60 77 36 62 78 30 53 68 34 58 73 41 68 86 42 69 87 35 60 75 40 66 84 33 57 73 32 56 71 28 52 66 24 28 28 24 28 28 24 28 28
24 28 28 24 28 28 24 28 28 24 28 28 24 28 28 24 28 28 99 99 91 97 96 89 101 100 92 82 83 78 74 76 72 84 85 79 96 96 89 102 102 94 79 80 75 76 78 73
75 77 72 74 75 71 94 94 87 96 95 89 24 28 28 24 28 28 24 28 28 24 28 28 24 28 28 24 28 28 24 28 28 24 28 28 24 28 28 24 28 28 24 28 28 24 28 28
101 101 93 91 91 85 104 103 96 101 100 93 78 80 75 88 89 82 88 88 82 104 103 96 94 94 87 92 92 86 73 75 71 98 98 91 77 78 74 89 90 83 73 74 70 90 91 84
96 96 89 78 79 74 89 90 84 83 83 78 102 101 94 100 100 92 95 95 88 100 99 92 76 78 73 103 102 94 94 94 87 90 91 84 97 97 90 73 75 70 97 97 90 92 92 85
70 72 68 94 94 87 75 76 72 95 95 88 102 101 93 76 77 73 88 89 83 75 77 72 82 83 78 97 96 89 103 103 95 83 84 78 72 74 69 70 72 68 84 85 79 24 28 28
24 28 28 24 28 28 24 28 28 96 96 89 99 98 91 72 74 70 82 83 77 76 77 73 92 92 86 72 74 70 99 99 91 103 103 95 94 94 88 97 97 90 101 100 93 102 102 94
81 82 77 82 83 78 79 80 75 96 96 89 71 73 69 97 97 90 24 28 28 24 28 28 24 28 28 24 28 28 24 28 28 24 28 28 24 28 28 24 28 28 24 28 28 24 28 28
24 28 28 24 28 28 24 28 28 24 28 28 24 28 28 24 28 28 24 28 28 24 28 28 24 28 28 24 28 28 24 28 28 24 28 28 24 28 28 24 28 28 24 28 28 24 28 28
24 28 28 24 28 28 24 28 28 54 61 70 48 55 64 53 60 69 24 28 28 42 49 58 65 72 81 68 75 84 51 58 67 24 28 28 48 55 64 50 57 66 64 71 80 64 71 80
40 67 85 33 58 73 96 58 74 26 48 61 25 48 61 27 50 64 30 55 70 30 55 70 37 63 81 35 62 79 22 43 56 30 54 70 31 56 72 27 50 64 30 55 70 35 61 77
31 56 71 27 51 65 27 49 63 34 59 75 42 69 87 28 51 65 42 69 87 30 53 66 35 60 75 36 60 76 36 60 76 39 65 82 41 68 85 34 58 73 34 58 72 47 75 94
33 56 71 36 61 77 44 71 90 41 67 84 35 60 75 38 64 80 34 58 74 27 49 63 30 54 69 60 62 79 31 56 72 36 62 80 27 50 64 23 45 58 72 55 71 35 61 78
32 57 73 88 52 68 35 61 78 32 57 73 25 48 61 26 49 63 39 66 84 26 48 62 40 66 84 38 63 80 37 63 80 65 68 86 32 55 70 35 60 75 96 65 82 47 75 95
40 66 83 42 69 86 43 70 88 43 70 88 35 59 74 96 66 83 41 68 85 43 71 89 36 61 77 31 54 68 37 62 79 38 64 81 33 58 74 39 66 84 71 59 76 31 55 70
24 46 59 23 45 58 105 49 64 35 61 77 31 56 71 29 53 68 27 51 65 32 57 73 27 50 64 37 64 81 27 50 64 31 55 71 31 55 71 39 66 84 38 64 80 34 58 73
35 60 75 34 58 73 96 65 82 77 69 87 43 69 87 36 60 76 34 58 72 33 57 71 48 76 96 40 67 84 35 60 75 36 61 76 30 53 67 24 28 28 24 28 28 24 28 28
24 28 28 24 28 28 24 28 28 24 28 28 24 28 28 24 28 28 80 81 76 83 84 79 79 80 75 94 94 88 81 82 77 89 90 84 101 100 93 80 81 76 101 101 93 73 74 70
88 89 83 94 94 87 86 86 81 78 79 75 24 28 28 24 28 28 24 28 28 24 28 28 24 28 28 24 28 28 24 28 28 24 28 28 24 28 28 24 28 28 24 28 28 24 28 28
86 87 81 72 74 70 71 73 68 91 91 85 92 92 85 71 73 69 78 79 74 78 80 75 88 88 82 101 100 92 80 81 76 104 104 96 82 83 78 105 104 96 96 96 89 86 87 81
93 93 86 88 89 83 89 90 83 101 100 93 83 84 78 72 74 70 96 95 89 103 103 95 96 96 89 86 86 81 104 103 95 79 80 75 96 96 89 81 82 77 89 89 83 87 87 81
95 95 88 101 100 93 91 91 85 98 98 90 85 86 80 99 99 91 71 73 69 77 78 73 75 77 72 105 104 96 75 77 72 97 96 89 85 86 80 105 104 96 99 98 91 24 28 28
24 28 28 24 28 28 24 28 28 86 86 80 88 88 82 98 98 91 91 91 85 82 83 78 71 73 68 94 94 87 92 93 86 100 99 92 85 85 80 84 84 79 88 88 82 80 81 76
84 85 79 81 82 77 96 95 88 95 95 88 88 89 83 83 84 78 24 28 28 24 28 28 24 28 28 24 28 28 24 28 28 24 28 28 24 28 28 24 28 28 24 28 28 24 28 28
24 28 28 24 28 28 24 28 28 24 28 28 24 28 28 24 28 28 24 28 28 24 28 28 24 28 28 24 28 28 24 28 28 24 28 28 24 28 28 24 28 28 24 28 28 24 28 28
24 28 28 24 28 28 24 28 28 46 53 62 67 74 83 53 60 69 24 28 28 69 76 85 51 58 67 63 70 79 47 54 63 24 28 28 67 74 83 64 71 80 41 48 57 45 52 61
35 58 73 46 74 93 40 66 83 109 59 75 28 51 64 30 54 68 28 50 63 30 53 68 38 64 81 24 46 59 35 60 76 31 55 70 29 52 66 27 49 62 30 54 68 31 55 70
106 56 71 28 50 63 29 51 64 114 58 74 36 61 76 115 61 77 33 56 71 40 65 81 40 65 81 36 59 74 37 60 75 48 75 94 38 62 77 42 67 83 36 60 75 51 79 99
50 78 97 38 62 78 34 58 72 37 61 76 44 71 88 112 62 78 107 61 78 41 67 85 32 55 70 35 59 75 81 61 78 28 50 64 31 55 70 31 55 69 37 63 80 35 60 76
75 59 75 38 64 81 28 51 65 36 62 78 33 58 73 27 49 62 33 57 73 29 52 65 78 66 83 99 63 80 44 71 90 42 68 86 43 69 87 42 67 84 36 60 75 58 78 97
102 70 87 39 63 79 50 78 97 67 77 96 46 73 91 47 74 92 42 67 84 36 59 74 47 74 93 36 61 76 45 73 91 30 53 67 60 69 87 43 71 89 42 69 87 35 60 76
28 50 64 25 47 60 38 64 82 28 50 64 28 51 65 28 50 64 37 63 79 34 58 74 31 55 69 28 51 64 36 61 77 29 51 65 30 53 67 43 70 87 37 62 77 35 59 74
41 67 84 34 58 72 42 68 85 50 79 98 49 77 96 65 77 97 48 76 95 41 66 83 42 68 85 46 73 92 40 65 82 121 64 80 110 65 82 24 28 28 24 28 28 24 28 28
24 28 28 24 28 28 24 28 28 24 28 28 24 28 28 24 28 28 89 90 84 74 75 71 98 97 90 85 86 80 78 80 75 89 89 83 84 84 79 86 86 81 88 89 83 72 73 69
72 73 69 93 93 87 103 103 95 103 102 94 24 28 28 24 28 28 24 28 28 24 28 28 24 28 28 24 28 28 24 28 28 24 28 28 24 28 28 24 28 28 24 28 28 24 28 28
101 100 93 71 73 69 86 87 81 96 96 89 91 91 84 104 103 95 74 76 71 100 100 92 91 92 85 78 79 74 85 85 80 82 83 78 102 102 94 83 84 78 79 81 76 91 91 85
85 85 80 72 74 70 83 84 78 91 91 85 74 75 71 85 86 80 104 103 95 75 76 72 70 72 68 90 90 84 94 94 87 99 98 91 75 77 72 91 91 84 73 74 70 75 76 72
77 79 74 101 100 93 95 95 88 73 75 71 86 87 81 84 85 80 103 102 94 94 94 88 95 95 88 79 80 75 80 81 76 105 104 96 77 79 74 87 88 82 92 92 85 24 28 28
24 28 28 24 28 28 24 28 28 100 99 92 95 95 88 103 102 95 79 80 75 77 78 74 103 102 95 100 100 92 91 91 85 105 104 96 80 81 76 92 92 86 88 89 82 98 97 90
79 80 75 97 96 89 93 93 87 81 82 76 104 103 95 76 77 73 24 28 28 24 28 28 24 28 28 24 28 28 24 28 28 24 28 28 24 28 28 24 28 28 24 28 28 24 28 28
24 28 28 24 28 28 24 28 28 24 28 28 24 28 28 24 28 28 24 28 28 24 28 28 24 28 28 24 28 28 24 28 28 24 28 28 24 28 28 24 28 28 24 28 28 24 28 28
24 28 28 24 28 28 24 28 28 43 50 59 66 73 82 66 73 82 24 28 28 44 51 60 42 49 58 61 68 77 49 56 65 24 28 28 67 74 83 55 62 71 50 57 66 61 68 77
111 66 83 39 64 80 40 65 82 33 56 70 31 53 67 36 60 75 34 58 73 31 55 69 40 67 84 32 55 69 30 53 67 31 54 68 36 61 77 28 50 63 28 51 64 31 54 68
44 71 89 77 66 83 43 70 87 46 73 92 41 66 82 44 71 89 42 67 84 40 64 80 116 68 85 46 72 90 43 68 84 81 77 96 41 65 81 53 81 100 45 70 87 49 76 94
42 67 83 76 77 96 51 79 98 92 72 90 56 78 97 48 76 94 43 70 87 39 64 80 42 69 86 41 66 83 71 67 84 35 59 75 28 51 64 40 67 84 34 58 73 27 50 63
31 54 68 32 55 69 38 63 80 113 56 72 41 67 85 44 72 90 32 55 69 34 57 71 39 64 80 37 61 76 43 69 86 47 75 93 49 76 95 45 71 89 48 76 94 54 82 102
47 73 91 49 76 94 46 72 90 52 81 100 45 71 88 121 69 85 71 78 97 39 63 78 41 67 83 47 74 92 36 59 74 35 58 72 38 63 78 35 59 74 49 72 90 89 63 79
38 63 79 35 60 75 36 61 77 28 50 63 103 57 72 35 59 74 31 55 69 32 55 69 29 52 65 31 53 67 35 58 73 41 67 84 37 61 77 47 74 93 46 74 92 50 78 98
88 72 90 50 78 97 49 76 94 41 66 82 67 80 99 46 72 89 106 73 91 41 65 80 50 78 97 45 71 88 41 66 82 48 75 93 37 61 76 24 28 28 24 28 28 24 28 28
24 28 28 24 28 28 24 28 28 24 28 28 24 28 28 24 28 28 74 76 72 71 73 69 83 84 78 82 83 78 81 82 77 101 101 93 74 76 72 75 77 72 105 104 96 76 77 73
82 83 77 89 89 83 83 84 78 83 84 79 24 28 28 24 28 28 24 28 28 24 28 28 24 28 28 24 28 28 24 28 28 24 28 28 24 28 28 24 28 28 24 28 28 24 28 28
104 103 95 78 80 75 98 98 90 101 101 93 84 85 79 94 94 87 87 87 81 85 86 80 90 90 84 84 85 79 96 95 88 93 93 86 81 82 77 93 93 86 99 99 91 86 86 81
75 76 72 101 100 93 86 86 80 75 76 72 72 74 70 82 83 78 71 73 69 74 75 71 76 78 73 79 80 75 99 99 91 90 90 84 75 77 72 93 93 87 98 98 91 100 99 92
88 89 83 84 85 80 79 80 75 72 73 69 87 87 81 101 100 93 83 84 79 89 90 84 77 79 74 102 102 94 105 104 96 78 79 74 88 88 82 75 76 72 95 95 88 24 28 28
24 28 28 24 28 28 24 28 28 79 80 75 96 96 89 95 95 88 74 76 72 89 89 83 79 80 75 73 75 70 76 77 73 88 88 82 94 94 87 99 98 91 74 75 71 78 79 74
81 82 77 86 86 81 101 100 93 88 89 83 88 88 82 76 77 73 24 28 28 24 28 28 24 28 28 24 28 28 24 28 28 24 28 28 24 28 28 24 28 28 24 28 28 24 28 28
24 28 28 24 28 28 24 28 28 24 28 28 24 28 28 24 28 28 24 28 28 24 28 28 24 28 28 24 28 28 24 28 28 24 28 28 24 28 28 24 28 28 24 28 28 24 28 28
24 28 28 24 28 28 24 28 28 48 55 64 54 61 70 50 57 66 24 28 28 69 76 85 49 56 65 56 63 72 47 54 63 24 28 28 62 69 78 42 49 58 51 58 67 57 64 73
47 74 92 79 73 91 47 74 93 42 68 84 41 66 82 44 70 88 33 56 70 38 63 78 40 66 83 31 54 68 30 52 65 99 60 76 36 60 75 34 58 72 43 70 88 106 60 76
34 57 72 47 74 93 38 63 78 39 64 80 35 58 72 44 71 88 51 80 99 41 66 82 49 77 95 49 76 94 46 72 89 49 75 93 82 79 98 43 68 84 70 82 101 41 66 81
50 77 95 44 70 86 44 69 85 43 68 84 41 66 82 50 77 96 42 67 84 95 68 85 42 68 85 42 68 85 41 67 83 36 61 76 35 59 74 39 64 80 36 60 76 44 71 89
82 63 80 40 66 82 33 56 71 34 57 72 40 65 81 44 71 89 37 62 77 47 75 94 46 72 90 46 73 90 47 74 92 54 80 100 39 63 78 47 73 91 53 81 101 48 75 92
52 80 99 46 72 88 46 72 89 46 72 89 40 64 79 42 67 82 47 73 90 41 65 80 38 62 77 63 78 97 104 68 85 43 69 86 41 67 83 49 75 94 41 66 83 38 63 78
32 54 68 70 67 84 31 53 67 35 60 75 36 60 76 52 69 87 40 66 83 30 53 66 36 60 76 39 64 80 44 71 89 38 62 77 45 72 89 39 64 79 40 65 81 51 79 98
76 76 95 123 68 85 45 71 88 51 79 97 51 78 96 49 75 93 50 78 96 97 76 95 53 81 100 110 73 91 53 81 100 44 69 86 116 69 86 24 28 28 24 28 28 24 28 28
24 28 28 24 28 28 24 28 28 24 28 28 24 28 28 24 28 28 98 98 91 89 90 83 81 82 77 80 81 76 93 93 86 101 101 93 88 89 83 102 101 93 90 90 84 93 93 87
73 74 70 93 93 86 77 78 74 92 92 86 24 28 28 24 28 28 24 28 28 24 28 28 24 28 28 24 28 28 24 28 28 24 28 28 24 28 28 24 28 28 24 28 28 24 28 28
76 78 73 92 92 86 75 76 72 81 82 77 98 97 90 73 74 70 90 91 84 93 93 87 78 80 75 79 80 75 98 98 91 71 73 69 89 90 83 92 92 85 71 73 69 77 78 73
95 95 88 78 79 74 97 97 90 73 75 70 90 91 84 84 85 79 73 75 71 84 85 79 90 90 84 73 75 71 85 86 80 86 86 81 91 91 85 87 87 81 91 92 85 98 98 91
104 103 95 105 104 96 103 102 94 104 103 95 87 88 82 91 91 85 98 98 91 94 94 88 88 89 83 79 80 75 77 78 73 80 81 76 70 72 68 94 94 87 72 74 70 24 28 28
24 28 28 24 28 28 24 28 28 78 79 74 73 75 70 77 79 74 86 87 81 78 79 74 100 100 92 85 85 80 85 86 80 80 81 76 97 97 90 86 86 81 93 93 87 76 77 73
101 100 93 102 102 94 85 85 80 104 103 95 99 99 91 101 100 93 24 28 28 24 28 28 24 28 28 24 28 28 24 28 28 24 28 28 24 28 28 24 28 28 24 28 28 24 28 28
24 28 28 24 28 28 24 28 28 24 28 28 24 28 28 24 28 28 24 28 28 24 28 28 24 28 28 24 28 28 24 28 28 24 28 28 24 28 28 24 28 28 24 28 28 24 28 28
24 28 28 24 28 28 24 28 28 47 54 63 41 48 57 58 65 74 24 28 28 43 50 59 45 52 61 44 51 60 63 70 79 24 28 28 52 59 68 55 62 71 55 62 71 45 52 61
45 71 88 40 65 80 39 63 79 84 70 88 45 72 90 43 69 86 44 71 89 82 66 83 44 70 88 43 69 87 39 65 81 43 69 87 30 53 66 33 56 70 40 65 82 37 61 76
34 57 72 35 59 74 44 70 88 49 77 95 48 76 94 49 76 94 46 73 90 47 73 91 50 77 95 43 68 84 51 79 97 54 82 101 111 75 92 55 84 104 116 74 91 41 65 81
54 82 101 50 78 96 86 77 96 43 69 85 46 72 89 49 76 94 94 70 88 43 68 85 43 70 87 34 56 70 39 64 80 33 56 70 40 66 82 35 58 73 30 52 65 29 51 64
33 57 71 89 63 79 39 64 80 58 71 88 37 61 76 42 68 84 33 56 70 48 75 93 110 66 82 109 68 84 44 70 87 49 76 94 47 73 91 43 67 83 75 80 99 42 66 81
53 81 100 46 72 88 46 71 88 56 85 105 51 78 96 47 74 91 51 78 96 45 70 87 41 66 81 45 71 87 42 67 83 46 73 91 47 74 92 46 73 91 33 56 70 34 57 71
32 54 68 32 54 68 32 55 68 45 72 90 41 67 84 29 52 65 117 57 73 36 61 76 43 69 86 45 72 90 44 71 89 42 68 85 45 71 88 78 73 91 88 72 90 43 69 85
49 76 94 73 79 98 46 72 89 43 68 84 47 73 91 56 84 104 56 85 105 44 69 85 53 81 100 47 73 90 48 74 92 54 83 103 49 77 95 24 28 28 24 28 28 24 28 28
24 28 28 24 28 28 24 28 28 24 28 28 24 28 28 24 28 28 87 88 82 104 103 95 98 97 90 83 84 78 98 98 91 84 85 79 77 79 74 86 87 81 81 82 77 98 97 90
73 75 70 76 77 73 78 80 75 87 87 81 24 28 28 24 28 28 24 28 28 24 28 28 24 28 28 24 28 28 24 28 28 24 28 28 24 28 28 24 28 28 24 28 28 24 28 28
94 94 87 84 85 79 95 95 88 84 85 79 97 97 90 88 89 83 84 84 79 100 100 92 93 93 87 77 78 74 92 92 86 105 104 96 99 98 91 83 84 78 77 78 73 93 93 87
96 96 89 96 96 89 86 87 81 92 92 85 101 101 93 78 79 74 71 73 69 102 101 94 84 85 79 78 79 75 82 83 78 97 96 89 94 94 87 78 79 74 94 94 87 93 93 86
85 85 80 82 83 78 88 88 82 102 101 93 95 94 88 83 84 79 79 80 75 70 72 68 79 80 75 84 85 79 97 97 90 78 79 74 94 94 87 76 77 73 85 86 80 24 28 28
24 28 28 24 28 28 24 28 28 79 81 76 98 97 90 89 89 83 83 84 78 79 80 75 71 73 69 73 74 70 73 75 71 82 83 77 75 76 72 84 84 79 92 92 85 82 83 77
87 87 81 89 89 83 72 74 70 96 96 89 75 77 72 89 89 83 24 28 28 24 28 28 24 28 28 24 28 28 24 28 28 24 28 28 24 28 28 24 28 28 24 28 28 24 28 28
24 28 28 24 28 28 24 28 28 24 28 28 24 28 28 24 28 28 24 28 28 24 28 28 24 28 28 24 28 28 24 28 28 24 28 28 24 28 28 24 28 28 24 28 28 24 28 28
24 28 28 24 28 28 24 28 28 56 63 72 61 68 77 50 57 66 24 28 28 55 62 71 44 51 60 51 58 67 41 48 57 24 28 28 60 67 76 44 51 60 55 62 71 65 72 81
70 78 97 47 73 91 37 60 74 38 62 78 42 68 85 38 63 78 41 66 82 37 61 77 43 70 87 42 68 85 39 65 81 43 70 88 54 71 89 35 59 74 31 54 67 35 59 73
42 68 84 41 67 83 117 63 79 36 60 74 41 66 82 48 75 93 53 82 101 82 77 96 53 81 101 52 80 99 67 83 103 52 80 99 100 78 96 128 72 89 44 69 84 90 80 98
47 73 90 46 72 89 88 78 96 46 71 88 40 64 80 70 77 96 45 71 88 50 77 96 42 67 84 42 68 84 62 73 91 79 68 85 106 62 78 39 64 80 41 67 84 44 71 89
32 54 68 116 58 74 41 67 84 36 59 74 79 68 85 43 70 87 43 69 86 47 73 91 44 70 87 39 63 79 52 80 99 45 71 87 49 75 93 53 81 100 53 81 100 50 77 95
43 67 83 53 80 99 44 68 84 46 71 87 53 81 100 53 81 101 45 70 87 52 79 98 99 74 91 48 75 93 43 68 84 43 68 84 44 70 87 44 71 88 69 72 89 47 75 93
46 73 91 36 60 75 38 63 79 30 52 65 43 69 87 44 71 88 85 65 82 41 66 83 37 62 77 38 63 79 119 61 77 45 71 89 79 72 90 123 65 81 47 74 91 117 69 85
49 76 94 85 78 96 40 64 79 59 85 105 45 70 86 79 82 101 44 69 84 43 67 83 49 75 93 48 75 92 56 85 104 52 80 99 67 81 100 24 28 28 24 28 28 24 28 28
24 28 28 24 28 28 24 28 28 24 28 28 24 28 28 24 28 28 94 94 87 94 94 87 82 83 78 89 90 83 103 102 94 79 80 75 83 84 78 74 76 71 77 78 73 70 72 68
93 93 87 99 99 91 70 72 68 82 83 77 24 28 28 24 28 28 24 28 28 24 28 28 24 28 28 24 28 28 24 28 28 24 28 28 24 28 28 24 28 28 24 28 28 24 28 28
92 92 86 92 92 85 73 74 70 95 95 88 90 91 84 76 78 73 78 79 74 78 79 74 103 102 95 95 95 88 72 74 70 89 89 83 93 93 87 77 78 73 87 87 81 95 94 88
86 87 81 104 103 95 92 93 86 84 85 79 96 96 89 84 85 79 89 90 83 86 86 81 98 98 91 91 91 85 73 75 70 79 80 75 94 94 87 73 75 70 82 83 78 95 95 88
85 85 80 102 101 93 100 99 92 81 82 77 87 87 82 86 86 81 98 98 91 74 76 72 99 98 91 81 82 77 96 95 89 105 104 96 99 98 91 77 79 74 87 87 82 24 28 28
24 28 28 24 28 28 24 28 28 81 82 77 97 96 89 79 80 75 92 92 86 102 101 93 79 81 76 86 86 80 82 83 78 92 92 86 72 74 70 90 90 84 82 83 77 102 101 94
98 98 91 99 98 91 90 90 84 95 95 88 98 98 91 83 84 79 24 28 28 24 28 28 24 28 28 24 28 28 24 28 28 24 28 28 24 28 28 24 28 28 24 28 28 24 28 28
24 28 28 24 28 28 24 28 28 24 28 28 24 28 28 24 28 28 24 28 28 24 28 28 24 28 28 24 28 28 24 28 28 24 28 28 24 28 28 24 28 28 24 28 28 24 28 28
24 28 28 24 28 28 24 28 28 58 65 74 67 74 83 53 60 69 24 28 28 51 58 67 52 59 68 42 49 58 67 74 83 24 28 28 56 63 72 48 55 64 47 54 63 53 60 69
88 76 94 49 76 94 40 64 79 42 67 83 105 67 84 110 65 81 86 69 86 46 72 90 33 56 70 39 63 79 32 54 68 35 59 74 38 62 78 43 69 86 36 60 75 39 63 78
48 75 94 48 75 93 37 61 75 43 68 84 45 71 88 48 75 93 50 77 95 43 68 84 99 77 95 54 82 101 70 84 104 70 85 105 56 85 104 47 73 89 45 69 85 55 83 102
56 85 104 48 74 91 43 68 83 53 81 100 49 76 93 44 69 86 45 70 87 40 64 79 57 78 97 38 62 77 48 75 93 40 64 80 41 66 82 32 54 67 57 72 90 39 63 79
53 73 91 34 57 71 65 71 89 46 73 91 40 65 81 40 64 80 37 60 75 46 72 89 109 69 85 42 66 82 43 68 84 53 81 100 51 78 96 52 79 98 43 68 83 46 71 87
44 68 84 53 80 98 55 84 103 84 83 102 81 83 102 56 85 105 50 76 94 43 68 83 51 79 97 52 80 99 48 74 92 52 80 99 38 62 77 48 76 94 35 58 72 67 73 90
46 73 91 42 68 84 43 69 86 77 68 85 43 70 87 38 63 78 47 74 93 36 60 75 34 57 70 43 68 85 40 64 79 48 75 93 38 62 76 49 76 95 42 67 82 45 70 86
45 70 86 42 66 81 43 67 83 45 70 85 56 85 105 67 86 106 51 78 96 46 71 87 50 76 93 69 85 105 46 71 87 41 65 80 46 71 88 24 28 28 24 28 28 24 28 28
24 28 28 24 28 28 24 28 28 24 28 28 24 28 28 24 28 28 84 85 79 86 87 81 100 99 92 102 101 94 91 91 85 99 98 91 87 87 81 97 97 90 77 79 74 105 104 96
71 73 69 77 78 73 85 85 80 89 90 83 24 28 28 24 28 28 24 28 28 24 28 28 24 28 28 24 28 28 24 28 28 24 28 28 24 28 28 24 28 28 24 28 28 24 28 28
105 104 96 99 99 91 88 88 82 88 89 83 81 82 77 103 102 94 86 87 81 79 80 75 71 73 69 86 87 81 85 85 80 93 93 87 72 74 70 103 103 95 82 83 77 75 76 72
103 102 94 89 89 83 81 82 77 103 102 94 84 85 79 103 102 94 90 90 84 105 104 96 93 93 86 71 73 69 74 75 71 92 92 86 99 99 92 74 76 71 90 90 84 86 87 81
77 79 74 70 72 68 77 78 73 103 102 95 90 90 84 97 96 89 83 84 78 77 79 74 96 95 89 99 99 92 83 84 78 91 91 85 82 83 78 103 102 94 98 98 90 24 28 28
24 28 28 24 28 28 24 28 28 76 77 73 71 73 69 72 74 70 102 101 94 100 99 92 85 86 80 101 101 93 76 78 73 87 87 81 83 84 78 86 86 80 94 94 87 74 76 71
96 96 89 80 81 76 95 95 88 81 82 77 87 88 82 84 85 79 24 28 28 24 28 28 24 28 28 24 28 28 24 28 28 24 28 28 24 28 28 24 28 28 24 28 28 24 28 28
24 28 28 24 28 28 24 28 28 24 28 28 24 28 28 24 28 28 24 28 28 24 28 28 24 28 28 24 28 28 24 28 28 24 28 28 24 28 28 24 28 28 24 28 28 24 28 28
24 28 28 24 28 28 24 28 28 59 66 75 42 49 58 54 61 70 24 28 28 59 66 75 52 59 68 54 61 70 49 56 65 24 28 28 66 73 82 44 51 60 53 60 69 54 61 70
43 66 81 54 82 101 48 74 92 46 72 89 44 69 85 40 63 78 46 71 88 114 66 81 37 61 75 35 57 71 42 68 84 37 61 75 39 63 78 45 71 88 42 67 83 47 73 90
43 68 84 47 73 90 52 80 99 48 74 91 53 81 100 86 79 97 55 82 101 49 75 92 55 83 102 91 83 101 57 85 104 60 89 109 47 72 88 57 85 104 99 83 102 58 87 106
61 90 110 45 69 84 55 82 101 53 81 99 44 68 84 43 67 82 42 66 82 50 77 95 102 72 89 42 67 82 42 67 82 43 68 84 43 68 84 79 71 89 94 68 85 46 72 90
63 74 92 41 66 82 39 63 78 41 65 81 43 67 83 51 79 97 49 75 93 45 71 87 54 82 101 52 79 98 78 81 100 45 69 85 119 75 93 51 78 95 53 79 97 51 77 94
47 72 87 52 79 96 55 82 101 57 85 105 59 87 107 117 78 96 44 68 83 50 77 94 47 73 89 53 81 99 114 73 90 52 80 98 48 74 92 48 74 91 50 77 95 45 71 87
40 64 79 45 70 87 43 68 85 49 77 95 45 71 88 85 70 86 81 71 88 42 67 83 35 58 72 51 78 97 99 71 87 43 68 84 51 79 97 42 66 81 46 72 88 45 69 85
49 75 92 84 83 102 54 81 99 57 86 105 128 77 94 54 81 99 48 74 90 46 71 86 52 79 97 49 74 90 123 77 94 45 69 85 128 74 91 24 28 28 24 28 28 24 28 28
24 28 28 24 28 28 24 28 28 24 28 28 24 28 28 24 28 28 89 90 83 71 73 69 89 89 83 105 104 96 98 97 90 95 95 88 77 78 73 87 88 82 73 75 70 86 86 80
92 92 85 80 82 76 73 75 70 97 97 90 24 28 28 24 28 28 24 28 28 24 28 28 24 28 28 24 28 28 24 28 28 24 28 28 24 28 28 24 28 28 24 28 28 24 28 28
91 91 85 86 86 80 92 92 86 94 94 87 101 101 93 84 85 80 100 99 92 101 101 93 104 103 95 95 95 88 94 94 87 99 98 91 97 97 90 76 78 73 70 72 68 87 88 82
98 97 90 86 87 81 91 91 84 86 87 81 89 89 83 98 98 90 103 103 95 91 91 85 92 92 85 102 101 93 92 92 86 96 96 89 99 98 91 79 81 75 73 74 70 81 82 77
97 97 90 79 80 75 93 93 86 79 80 75 92 92 86 86 87 81 85 86 80 73 75 70 95 95 88 103 102 94 86 87 81 101 101 93 85 85 80 84 84 79 84 85 80 24 28 28
24 28 28 24 28 28 24 28 28 102 101 93 70 72 68 88 89 83 101 100 93 74 76 71 84 85 80 81 82 77 79 80 75 95 95 88 90 91 84 88 88 82 100 100 92 89 89 83
101 100 92 100 100 92 82 83 78 91 91 85 104 103 95 82 83 77 24 28 28 24 28 28 24 28 28 24 28 28 24 28 28 24 28 28 24 28 28 24 28 28 24 28 28 24 28 28
24 28 28 24 28 28 24 28 28 24 28 28 24 28 28 24 28 28 24 28 28 24 28 28 24 28 28 24 28 28 24 28 28 24 28 28 24 28 28 24 28 28 24 28 28 24 28 28
24 28 28 24 28 28 24 28 28 65 72 81 49 56 65 41 48 57 24 28 28 54 61 70 56 63 72 63 70 79 60 67 76 24 28 28 54 61 70 50 57 66 51 58 67 62 69 78
50 76 92 46 70 85 55 82 101 45 69 85 42 65 79 53 80 98 41 64 78 44 69 84 57 81 99 44 68 84 47 73 89 41 65 79 39 62 76 43 67 82 49 76 93 39 62 76
126 69 85 53 80 98 46 70 86 53 80 98 56 84 103 53 79 96 102 82 100 54 81 98 56 83 100 62 91 110 71 92 112 60 88 107 52 77 93 63 92 112 94 89 108 53 79 96
52 77 94 67 93 113 50 75 90 59 87 106 55 82 99 45 69 84 96 81 99 43 67 81 47 71 87 53 80 98 49 75 92 40 62 76 41 64 78 52 79 97 52 79 97 42 66 81
44 68 84 38 60 74 97 73 89 48 74 91 44 69 84 53 80 98 49 75 92 55 82 101 49 74 91 51 77 94 111 79 97 49 74 90 52 78 95 59 86 105 55 81 99 62 91 111
56 83 101 64 93 113 76 92 113 58 86 104 65 94 115 63 92 112 60 89 108 62 91 111 56 83 101 94 83 102 47 72 87 54 80 98 46 70 86 44 69 84 42 66 80 41 64 78
47 73 89 85 75 93 38 61 75 47 73 90 47 73 90 82 75 92 41 65 79 39 61 75 107 72 88 83 77 95 55 83 102 57 85 104 55 82 100 49 74 91 57 84 103 54 81 99
58 86 105 61 90 110 51 76 93 50 75 91 100 87 106 53 78 94 60 88 107 60 87 106 64 93 113 85 90 110 61 89 109 88 87 107 76 89 109 24 28 28 24 28 28 24 28 28
24 28 28 24 28 28 24 28 28 24 28 28 24 28 28 24 28 28 78 80 75 86 86 81 96 96 89 80 81 76 101 100 93 95 94 88 89 89 83 78 80 75 102 101 93 96 96 89
85 85 80 84 85 80 88 88 82 77 79 74 24 28 28 24 28 28 24 28 28 24 28 28 24 28 28 24 28 28 24 28 28 24 28 28 24 28 28 24 28 28 24 28 28 24 28 28
83 84 78 91 92 85 91 91 85 80 81 76 87 88 82 74 75 71 101 100 93 73 75 70 93 93 86 85 85 80 77 79 74 88 88 82 91 91 85 88 89 83 86 86 81 97 97 90
89 90 83 101 101 93 86 86 80 93 93 86 101 100 93 83 84 78 73 75 70 76 78 73 81 82 77 92 92 85 73 75 71 81 82 77 100 99 92 81 82 77 91 91 85 74 76 71
73 75 71 103 102 95 101 100 93 98 97 90 81 82 77 71 73 69 73 74 70 75 76 72 76 78 73 86 87 81 100 99 92 76 78 73 82 83 77 92 92 86 105 104 96 24 28 28
24 28 28 24 28 28 24 28 28 84 84 79 99 98 91 97 96 89 78 79 74 86 87 81 101 100 93 85 86 80 93 93 86 94 94 87 102 101 94 95 95 88 79 80 75 81 82 77
72 74 70 92 92 86 94 94 87 86 87 81 104 103 95 89 89 83 24 28 28 24 28 28 24 28 28 24 28 28 24 28 28 24 28 28 24 28 28 24 28 28 24 28 28 24 28 28
24 28 28 24 28 28 24 28 28 24 28 28 24 28 28 24 28 28 24 28 28 24 28 28 24 28 28 24 28 28 24 28 28 24 28 28 24 28 28 24 28 28 24 28 28 24 28 28
24 28 28 24 28 28 24 28 28 67 74 83 52 59 68 52 59 68 24 28 28 61 68 77 45 52 61 56 63 72 46 53 62 24 28 28 46 53 62 62 69 78 68 75 84 52 59 68
50 74 89 63 91 111 52 78 94 48 72 87 47 71 85 45 68 83 49 73 89 44 68 82 50 75 91 45 69 83 116 74 90 49 74 90 52 78 95 44 67 81 51 76 93 44 67 81
58 86 105 54 81 98 58 85 103 123 79 96 53 78 95 56 82 100 56 83 100 56 82 99 52 76 91 102 90 110 64 92 111 67 97 117 60 87 105 54 79 95 56 82 99 60 87 104
53 78 94 57 83 100 59 86 104 66 95 116 63 91 111 51 76 92 67 92 112 61 89 108 57 84 101 79 85 104 59 87 106 64 86 105 51 77 94 43 67 81 47 72 87 44 68 82
42 65 78 110 75 92 47 72 87 47 72 87 47 71 87 109 78 95 54 80 98 48 72 87 78 88 107 60 88 106 63 92 111 106 87 105 64 92 111 63 91 110 57 83 100 63 91 110
64 92 111 62 90 108 96 94 114 67 96 116 137 85 103 61 88 107 60 87 105 59 86 104 57 84 101 92 89 108 49 73 88 56 82 100 57 83 101 61 89 108 52 78 94 58 86 104
99 79 96 53 80 97 58 86 104 74 82 100 57 85 104 55 82 100 57 85 103 48 73 88 52 78 95 46 70 85 46 69 84 51 77 93 56 83 101 53 79 95 87 89 108 54 80 96
54 79 95 67 96 116 64 92 111 99 92 111 68 98 118 101 93 112 75 98 119 56 81 98 126 87 106 63 91 110 68 97 118 60 87 105 55 81 97 24 28 28 24 28 28 24 28 28
24 28 28 24 28 28 24 28 28 24 28 28 24 28 28 24 28 28 100 99 92 89 90 83 100 99 92 71 73 69 100 100 92 90 90 84 87 88 82 91 91 85 73 75 70 82 83 77
76 78 73 95 95 88 80 81 76 72 74 70 24 28 28 24 28 28 24 28 28 24 28 28 24 28 28 24 28 28 24 28 28 24 28 28 24 28 28 24 28 28 24 28 28 24 28 28
98 97 90 79 81 76 88 88 82 75 76 72 77 78 74 87 87 81 77 78 73 85 85 80 80 81 76 103 102 94 77 78 73 89 89 83 85 85 80 85 86 80 98 97 90 90 91 84
87 88 82 91 91 85 97 97 89 104 103 95 93 93 87 95 95 88 82 83 77 81 82 77 81 82 76 91 91 85 101 101 93 98 97 90 101 101 93 80 81 76 73 75 71 98 98 91
101 100 93 95 94 88 87 88 82 97 97 90 102 101 94 77 78 73 83 84 78 90 91 84 102 101 94 100 99 92 73 75 71 75 76 72 88 89 83 70 72 68 76 78 73 24 28 28
24 28 28 24 28 28 24 28 28 80 81 76 78 79 75 102 101 93 90 90 84 85 86 80 90 91 84 79 80 75 70 72 68 97 97 90 89 89 83 99 99 92 94 94 87 78 79 74
77 79 74 104 103 95 84 85 79 70 72 68 85 86 80 84 85 79 24 28 28 24 28 28 24 28 28 24 28 28 24 28 28 24 28 28 24 28 28 24 28 28 24 28 28 24 28 28
24 28 28 24 28 28 24 28 28 24 28 28 24 28 28 24 28 28 24 28 28 24 28 28 24 28 28 24 28 28 24 28 28 24 28 28 24 28 28 24 28 28 24 28 28 24 28 28
24 28 28 24 28 28 24 28 28 45 52 61 68 75 84 54 61 70 24 28 28 68 75 84 62 69 78 61 68 77 57 64 73 24 28 28 42 49 58 58 65 74 50 57 66 67 74 83
55 79 95 67 96 116 58 84 101 55 80 97 87 89 108 50 74 89 56 82 99 53 78 94 131 76 92 48 72 87 47 70 84 57 84 102 69 88 106 47 70 85 54 80 96 58 85 103
52 76 92 88 88 106 50 74 89 54 79 95 63 91 110 70 97 117 67 96 115 60 86 103 59 84 101 63 90 109 70 99 119 70 99 119 69 97 117 67 95 114 87 100 121 63 90 107
126 91 110 60 86 103 62 89 107 56 81 97 61 88 106 127 86 104 64 92 111 108 87 105 56 82 98 60 87 106 57 84 101 61 88 107 47 70 85 60 88 106 56 82 100 48 72 87
47 70 85 51 76 92 130 76 92 129 77 93 99 84 101 117 81 98 58 84 101 59 86 104 57 83 100 54 79 95 62 89 107 65 94 113 65 93 112 68 97 117 57 83 99 58 83 99
59 84 101 63 90 108 63 90 107 59 85 102 66 94 113 64 91 110 59 85 102 58 84 101 58 83 100 63 90 109 66 95 115 68 96 116 52 76 91 54 79 95 54 79 95 52 76 92
51 76 92 54 80 96 46 69 83 51 76 92 49 73 89 56 82 99 47 71 85 52 77 93 50 75 90 52 77 93 58 84 102 52 77 92 54 79 95 51 75 90 60 87 104 53 78 93
61 87 105 60 86 103 59 85 101 67 95 114 70 100 120 62 89 106 58 83 99 59 85 101 66 94 112 62 88 105 64 91 109 59 85 102 68 97 117 24 28 28 24 28 28 24 28 28
24 28 28 24 28 28 24 28 28 24 28 28 24 28 28 24 28 28 94 94 87 93 93 87 74 76 71 96 95 88 102 101 94 98 98 90 102 101 94 83 84 79 73 75 70 74 76 71
89 89 83 101 101 93 83 84 78 93 93 87 24 28 28 24 28 28 24 28 28 24 28 28 24 28 28 24 28 28 24 28 28 24 28 28 24 28 28 24 28 28 24 28 28 24 28 28
99 99 91 79 81 76 94 94 88 104 103 95 72 74 70 81 82 77 85 86 80 72 74 70 89 89 83 94 94 88 101 100 93 78 79 74 99 98 91 76 78 73 99 99 92 104 103 95
80 81 76 80 81 76 94 94 88 88 88 82 97 97 90 96 96 89 84 85 79 78 79 74 81 82 77 79 80 75 90 90 84 95 95 88 85 85 80 100 99 92 78 79 74 89 90 83
74 76 71 94 94 87 86 86 81 73 75 71 76 78 73 96 95 88 86 86 80 71 73 69 76 78 73 97 97 89 78 79 75 97 97 90 99 98 91 71 73 69 94 94 87 24 28 28
24 28 28 24 28 28 24 28 28 86 87 81 101 100 93 92 92 86 95 95 88 92 92 85 105 104 96 104 103 95 80 81 76 80 81 76 105 104 96 78 79 74 96 96 89 78 79 74
90 90 84 79 80 75 82 83 77 74 76 71 86 87 81 86 87 81 24 28 28 24 28 28 24 28 28 24 28 28 24 28 28 24 28 28 24 28 28 24 28 28 24 28 28 24 28 28
24 28 28 24 28 28 24 28 28 24 28 28 24 28 28 24 28 28 24 28 28 24 28 28 24 28 28 24 28 28 24 28 28 24 28 28 24 28 28 24 28 28 24 28 28 24 28 28
24 28 28 24 28 28 24 28 28 42 49 58 43 50 59 47 54 63 24 28 28 53 60 69 61 68 77 67 74 83 57 64 73 24 28 28 47 54 63 65 72 81 48 55 64 64 71 80
108 92 111 66 94 114 60 86 103 82 93 113 66 94 114 50 74 88 58 85 102 89 87 105 57 83 100 62 90 108 53 79 95 54 79 95 50 73 88 53 78 94 55 80 97 54 79 95
50 74 88 52 76 92 52 76 90 67 95 115 55 80 96 54 79 94 66 94 114 66 94 113 72 101 122 68 97 116 67 95 114 69 97 117 64 91 109 69 97 117 70 99 119 72 102 122
68 96 116 71 100 121 63 90 108 62 88 106 64 92 110 114 90 109 140 84 101 65 94 113 65 93 112 63 91 110 61 88 106 55 80 97 55 80 96 60 88 106 48 72 86 50 74 89
56 82 99 50 74 89 49 72 87 62 90 109 66 92 112 109 85 102 58 84 101 55 79 95 67 96 116 66 94 113 54 79 94 57 82 99 70 100 120 70 99 119 63 89 107 73 103 124
73 103 124 71 99 119 68 96 115 72 102 122 60 85 101 67 95 114 61 87 104 59 85 102 63 89 107 136 87 104 62 89 107 53 77 92 59 85 103 63 90 109 59 86 103 60 87 105
88 87 106 56 82 99 51 75 90 56 82 99 53 78 95 49 73 87 121 79 96 48 72 86 76 90 109 62 90 108 59 85 103 61 88 106 61 89 107 67 95 115 66 94 113 61 87 105
71 101 121 58 83 99 69 97 117 69 98 117 61 87 103 65 93 111 65 92 110 74 103 124 69 97 116 59 84 100 67 95 114 108 95 115 65 93 111 24 28 28 24 28 28 24 28 28
24 28 28 24 28 28 24 28 28 24 28 28 24 28 28 24 28 28 98 98 90 96 95 89 92 92 86 94 94 87 82 83 77 82 83 77 71 73 69 78 80 75 74 75 71 97 96 89
103 102 95 75 76 72 86 87 81 83 84 79 24 28 28 24 28 28 24 28 28 24 28 28 24 28 28 24 28 28 24 28 28 24 28 28 24 28 28 24 28 28 24 28 28 24 28 28
92 92 86 88 88 82 85 85 80 95 95 88 99 99 91 95 95 88 97 97 90 98 98 91 99 98 91 74 75 71 75 77 72 81 82 77 94 94 87 90 91 84 85 86 80 93 93 86
105 104 96 85 86 80 75 76 72 76 77 73 88 88 82 97 96 89 82 83 78 83 84 79 73 74 70 97 97 90 73 75 70 103 102 94 86 87 81 81 82 77 94 94 88 97 96 89
83 84 78 83 84 79 102 101 93 73 74 70 85 86 80 96 96 89 80 81 76 74 75 71 101 100 93 89 90 84 87 87 81 104 103 95 73 75 71 71 73 69 79 80 75 24 28 28
24 28 28 24 28 28 24 28 28 77 78 74 75 77 72 87 88 82 103 102 94 87 88 82 84 85 79 100 99 92 70 72 68 85 86 80 103 102 94 105 104 96 91 91 85 79 80 75
100 100 92 80 81 76 83 84 79 94 94 87 73 75 71 84 85 79 24 28 28 24 28 28 24 28 28 24 28 28 24 28 28 24 28 28 24 28 28 24 28 28 24 28 28 24 28 28
24 28 28 24 28 28 24 28 28 24 28 28 24 28 28 24 28 28 24 28 28 24 28 28 24 28 28 24 28 28 24 28 28 24 28 28 24 28 28 24 28 28 24 28 28 24 28 28
24 28 28 24 28 28 24 28 28 46 53 62 55 62 71 68 75 84 24 28 28 50 57 66 56 63 72 68 75 84 66 73 82 24 28 28 58 65 74 49 56 65 61 68 77 62 69 78
56 81 97 55 80 96 54 79 95 59 86 103 50 74 89 49 73 88 53 77 93 91 85 103 55 81 98 80 86 104 83 85 103 47 70 84 58 85 103 55 80 97 48 72 86 60 88 106
53 78 93 56 82 99 57 83 100 56 81 98 55 80 95 57 82 99 60 86 103 57 82 98 65 92 111 60 85 102 67 95 115 145 89 106 59 85 101 96 99 119 69 98 118 67 95 114
62 89 107 65 93 111 59 85 102 68 97 117 57 82 98 136 85 102 65 93 112 65 94 114 55 81 97 128 81 97 56 82 99 52 77 92 60 88 106 73 88 107 48 71 86 59 86 105
78 86 105 57 84 101 50 74 89 60 87 106 48 71 85 62 90 109 54 79 95 61 89 107 119 85 103 108 89 107 65 93 112 57 82 98 66 94 114 68 96 116 59 85 101 59 85 102
67 95 114 67 96 115 72 101 121 64 91 109 62 88 105 70 98 118 61 87 104 67 96 115 62 89 106 69 98 118 68 97 117 61 88 106 60 87 105 83 90 109 61 89 107 63 91 111
51 75 91 56 82 99 54 80 96 75 87 105 47 71 85 52 77 93 55 81 98 53 78 94 59 86 104 56 82 99 53 77 93 55 80 96 62 89 108 65 94 113 60 86 103 61 87 105
124 89 107 66 94 113 68 97 117 66 94 112 59 84 101 72 102 122 92 100 120 108 96 116 66 93 112 66 93 112 63 90 108 69 98 118 68 96 116 24 28 28 24 28 28 24 28 28
24 28 28 24 28 28 24 28 28 24 28 28 24 28 28 24 28 28 74 76 71 98 97 90 75 76 72 91 91 85 92 92 86 94 94 87 74 76 71 94 94 87 99 99 91 76 77 72
100 99 92 104 103 95 78 79 74 104 103 95 24 28 28 24 28 28 24 28 28 70 72 68 78 79 74 72 74 70 86 87 81 77 79 74 24 28 28 24 28 28 24 28 28 24 28 28
94 94 87 85 86 80 84 85 79 76 77 73 104 103 95 88 88 82 72 74 70 100 99 92 92 92 85 87 88 82 86 86 80 73 75 70 74 75 71 102 101 93 75 76 72 79 80 75
87 87 82 81 82 77 83 84 78 97 96 89 102 101 93 73 75 70 105 104 96 95 95 88 79 80 75 99 98 91 102 101 94 79 81 76 104 103 95 102 101 93 78 79 74 93 93 86
93 93 87 102 101 94 79 80 75 79 80 75 93 93 86 74 76 71 97 97 90 104 103 95 102 101 93 100 99 92 82 83 77 80 81 76 95 94 88 86 87 81 73 75 70 24 28 28
24 28 28 24 28 28 24 28 28 89 90 83 101 100 93 85 86 80 82 83 78 96 96 89 102 101 94 77 78 73 103 102 95 85 86 80 99 98 91 98 98 90 73 75 71 84 85 79
94 94 87 74 75 71 90 91 84 96 96 89 95 95 88 85 86 80 24 28 28 24 28 28 24 28 28 24 28 28 24 28 28 24 28 28 24 28 28 24 28 28 24 28 28 24 28 28
24 28 28 24 28 28 24 28 28 24 28 28 24 28 28 24 28 28 24 28 28 24 28 28 24 28 28 24 28 28 24 28 28 24 28 28 24 28 28 24 28 28 24 28 28 24 28 28
24 28 28 24 28 28 24 28 28 59 66 75 66 73 82 65 72 81 24 28 28 59 66 75 46 53 62 57 64 73 46 53 62 24 28 28 47 54 63 54 61 70 68 75 84 61 68 77
59 86 103 51 75 90 52 78 94 51 75 91 52 77 93 54 80 97 51 77 93 59 86 105 46 70 85 58 86 104 47 71 86 51 77 93 54 81 98 46 69 84 44 67 81 58 85 104
54 81 98 56 82 100 61 89 108 51 75 91 62 91 110 50 74 89 64 93 112 66 95 115 67 96 116 68 98 119 139 85 103 65 93 113 70 100 121 56 81 98 70 100 121 65 93 112
62 89 107 63 91 110 59 86 104 65 93 113 53 78 94 61 89 107 137 79 96 50 74 90 51 76 92 50 75 91 63 88 108 107 79 96 52 77 94 48 72 87 54 81 99 55 82 100
55 81 99 54 81 98 55 82 100 54 81 98 49 73 89 47 71 85 55 81 99 56 82 100 58 84 102 59 85 103 66 95 115 94 90 109 54 80 96 64 92 111 65 94 113 69 98 119
65 94 113 64 92 110 66 95 114 61 87 105 66 95 115 59 86 103 63 91 109 60 87 105 56 81 98 108 87 105 51 75 91 49 73 88 52 77 93 61 90 109 54 80 97 56 83 101
51 76 93 105 78 95 51 76 92 44 68 82 81 82 100 45 68 83 66 85 104 54 81 98 52 78 95 64 88 107 54 80 97 126 78 94 67 91 111 57 83 101 61 89 108 76 93 113
65 94 114 54 79 95 61 88 107 55 80 96 137 86 104 70 99 120 70 99 120 59 85 102 58 84 101 69 99 119 59 85 103 53 78 93 78 95 115 24 28 28 24 28 28 24 28 28
24 28 28 24 28 28 24 28 28 24 28 28 24 28 28 24 28 28 89 90 83 104 103 95 99 99 91 104 103 95 72 74 70 101 101 93 89 90 84 79 80 75 92 92 86 97 96 89
73 75 70 99 98 91 84 85 79 105 104 96 24 28 28 24 28 28 24 28 28 84 84 79 81 82 77 74 75 71 83 84 79 70 72 68 24 28 28 24 28 28 24 28 28 24 28 28
96 96 89 81 82 77 74 76 71 80 81 76 90 90 84 78 80 75 97 96 89 94 94 87 101 100 93 91 91 85 80 81 76 99 99 91 89 89 83 74 75 71 98 97 90 79 80 75
97 96 89 99 98 91 102 102 94 84 85 79 96 96 89 99 99 91 82 83 78 102 102 94 77 78 73 93 93 86 75 77 72 75 77 72 86 87 81 85 86 80 77 78 74 99 98 91
75 77 72 98 97 90 83 84 78 78 79 74 84 85 79 76 78 73 105 104 96 71 73 69 77 78 73 104 103 95 94 94 87 102 101 94 102 101 94 73 75 70 90 90 84 24 28 28
24 28 28 24 28 28 24 28 28 82 83 78 90 90 84 75 77 72 95 95 88 104 103 95 81 82 76 87 87 81 84 85 79 70 72 68 73 74 70 86 87 81 84 85 79 101 100 93
72 74 69 76 77 73 83 84 78 80 81 76 105 104 96 82 83 77 24 28 28 24 28 28 24 28 28 24 28 28 24 28 28 24 28 28 24 28 28 24 28 28 24 28 28 24 28 28
24 28 28 24 28 28 24 28 28 24 28 28 24 28 28 24 28 28 24 28 28 24 28 28 24 28 28 24 28 28 24 28 28 24 28 28 24 28 28 24 28 28 24 28 28 24 28 28
24 28 28 24 28 28 24 28 28 44 51 60 62 69 78 50 57 66 24 28 28 41 48 57 51 58 67 57 64 73 51 58 67 24 28 28 55 62 71 64 71 80 66 73 82 49 56 65
47 71 86 54 80 97 113 78 95 44 67 82 49 74 90 57 85 104 46 71 87 47 72 89 51 78 96 44 69 84 43 66 81 96 73 90 46 71 87 51 78 96 51 78 96 44 68 83
51 78 95 53 81 99 72 83 102 44 68 82 58 87 106 48 72 88 50 76 92 61 90 110 90 88 107 62 91 111 63 93 113 60 88 107 109 87 105 76 94 114 54 80 97 51 75 91
56 82 100 106 86 104 71 92 112 58 86 105 93 85 104 53 79 96 59 88 107 78 84 103 54 81 98 51 78 95 53 81 99 55 83 101 42 65 80 47 72 88 48 74 91 53 80 99
90 74 91 49 76 93 40 64 78 40 63 77 54 82 101 54 81 99 129 71 87 49 74 90 53 79 97 127 76 92 48 72 88 60 89 108 55 81 99 57 84 102 63 92 112 65 95 115
59 86 104 75 94 114 63 92 112 53 78 94 64 94 114 60 88 107 59 87 106 71 91 111 62 91 111 61 90 110 56 83 101 49 74 90 56 84 103 49 74 91 56 84 103 97 76 93
45 70 85 43 67 82 49 75 91 44 69 84 41 64 79 45 70 85 45 69 85 76 78 96 45 70 86 52 79 97 53 80 98 47 72 88 57 85 104 48 73 89 54 81 98 56 83 101
48 72 87 61 90 109 104 86 104 64 93 114 124 83 101 57 83 101 55 81 97 58 85 103 75 93 114 53 78 94 80 91 111 62 91 111 56 83 101 24 28 28 24 28 28 24 28 28
24 28 28 24 28 28 24 28 28 24 28 28 24 28 28 24 28 28 73 75 71 101 101 93 94 94 87 87 87 81 101 101 93 94 94 87 79 80 75 79 80 75 95 95 88 92 92 86
73 74 70 98 98 90 95 95 88 71 73 69 24 28 28 24 28 28 24 28 28 71 73 69 96 96 89 96 96 89 104 103 95 88 88 82 24 28 28 24 28 28 24 28 28 24 28 28
88 89 83 104 103 95 94 94 87 80 81 76 99 99 92 93 93 86 89 89 83 72 74 70 86 87 81 72 74 70 91 92 85 83 84 78 100 100 92 85 85 80 77 79 74 94 94 87
104 103 95 80 81 76 95 95 88 72 74 69 100 99 92 91 91 85 78 79 74 85 85 80 78 79 74 75 77 72 72 74 70 99 98 91 91 91 85 81 82 77 97 96 89 77 79 74
81 82 77 90 90 84 81 82 77 80 81 76 89 90 84 98 98 91 86 87 81 102 101 94 81 82 77 90 91 84 104 103 95 104 103 95 104 103 96 95 95 88 88 89 83 24 28 28
24 28 28 24 28 28 24 28 28 103 103 95 98 98 91 84 85 79 103 102 95 85 86 80 84 84 79 72 74 70 72 73 69 75 76 72 88 88 82 91 91 85 87 87 81 97 97 90
99 99 92 77 78 74 101 100 93 74 76 72 94 94 87 87 87 82 24 28 28 24 28 28 24 28 28 24 28 28 24 28 28 24 28 28 24 28 28 24 28 28 24 28 28 24 28 28
24 28 28 24 28 28 24 28 28 24 28 28 24 28 28 24 28 28 24 28 28 24 28 28 24 28 28 24 28 28 24 28 28 24 28 28 24 28 28 24 28 28 24 28 28 24 28 28
24 28 28 24 28 28 24 28 28 65 72 81 55 62 71 67 74 83 24 28 28 59 66 75 46 53 62 49 56 65 45 52 61 24 28 28 47 54 63 57 64 73 43 50 59 62 69 78
45 69 85 44 68 83 54 82 101 51 78 96 38 61 75 44 69 85 38 61 76 94 70 87 50 77 95 42 67 82 44 69 86 110 65 81 46 72 89 46 72 89 40 63 78 71 75 93
44 70 86 48 75 92 40 64 79 40 63 77 55 83 102 51 77 95 46 71 87 86 82 101 117 77 95 124 77 94 53 79 97 53 80 98 50 75 91 107 82 101 114 81 99 53 80 97
57 85 104 47 72 87 45 69 84 51 77 95 52 78 96 46 70 86 51 78 96 47 72 89 43 67 82 48 75 92 74 76 94 40 63 78 44 69 86 46 72 89 101 67 84 42 67 83
43 68 84 84 71 88 50 77 95 44 69 85 46 72 89 52 80 98 59 80 99 52 79 98 49 75 92 115 73 90 50 77 94 56 84 103 58 87 106 54 81 99 54 81 99 53 80 97
56 83 102 61 90 110 50 76 92 59 87 106 52 79 96 47 71 87 48 73 89 51 77 94 45 70 85 105 77 95 43 67 82 50 76 94 41 64 79 73 78 96 46 71 88 42 66 81
81 73 90 41 66 81 36 59 73 42 66 82 46 72 89 38 62 77 46 72 89 47 73 91 116 66 82 51 78 97 47 74 91 50 77 95 49 75 92 51 78 96 56 84 104 46 71 87
47 71 87 51 77 95 49 75 92 58 86 106 50 75 92 49 74 90 89 86 105 60 89 109 50 75 91 53 79 97 47 71 87 53 80 98 56 84 103 24 28 28 24 28 28 24 28 28
24 28 28 24 28 28 24 28 28 24 28 28 24 28 28 24 28 28 98 97 90 71 73 69 105 104 96 75 77 72 105 104 96 90 90 84 87 88 82 74 76 71 88 88 82 86 86 81
90 90 84 101 100 93 87 87 81 82 83 78 24 28 28 24 28 28 24 28 28 77 79 74 73 74 70 90 91 84 88 88 82 72 74 70 24 28 28 24 28 28 24 28 28 24 28 28
73 75 70 76 77 73 72 74 69 95 95 88 80 81 76 85 86 80 72 74 69 74 76 72 74 76 71 92 92 85 73 75 70 75 77 72 91 91 84 99 99 91 82 83 77 76 77 73
82 83 78 72 74 69 103 102 94 98 97 90 94 94 88 76 77 73 85 86 80 94 94 88 71 73 69 70 72 68 105 104 96 89 90 83 105 104 96 82 83 77 96 96 89 75 76 72
74 76 72 91 91 85 86 86 81 85 86 80 99 99 92 97 97 89 84 84 79 93 93 86 92 92 86 96 95 88 96 96 89 90 91 84 75 76 72 95 95 88 77 79 74 24 28 28
24 28 28 24 28 28 24 28 28 101 101 93 81 82 77 92 92 85 104 103 95 84 85 79 74 75 71 70 72 68 79 80 75 98 97 90 81 82 77 85 86 80 103 103 95 78 79 74
101 100 93 90 90 84 96 96 89 100 100 92 74 76 71 76 78 73 24 28 28 24 28 28 24 28 28 24 28 28 24 28 28 24 28 28 24 28 28 24 28 28 24 28 28 24 28 28
24 28 28 24 28 28 24 28 28 24 28 28 24 28 28 24 28 28 24 28 28 24 28 28 24 28 28 24 28 28 24 28 28 24 28 28 24 28 28 24 28 28 24 28 28 24 28 28
24 28 28 24 28 28 24 28 28 42 49 58 64 71 80 61 68 77 24 28 28 46 53 62 61 68 77 53 60 69 51 58 67 24 28 28 61 68 77 44 51 60 57 64 73 41 48 57
48 75 92 48 74 92 52 80 99 51 79 98 44 69 86 39 64 79 44 70 87 79 70 87 34 57 71 40 66 82 35 58 72 97 64 81 39 64 80 32 54 67 46 73 90 36 59 74
37 61 76 36 59 73 47 74 92 39 63 77 40 64 79 94 75 92 52 79 98 116 73 90 43 68 83 50 77 95 50 76 93 70 86 105 50 76 93 53 81 99 52 79 97 50 76 93
58 86 106 52 79 97 45 70 86 42 66 82 44 69 85 52 80 98 52 80 99 51 78 97 47 74 91 46 73 90 36 59 73 81 70 87 45 72 89 39 63 78 32 54 68 53 73 91
44 71 88 89 66 83 45 71 89 44 70 87 43 69 85 96 68 85 48 75 93 46 73 90 44 70 86 83 76 94 39 63 77 45 70 87 46 71 88 110 76 93 114 76 93 45 70 86
49 75 92 55 83 102 57 85 105 59 88 108 47 72 88 44 68 84 47 73 90 55 84 103 95 77 95 44 69 85 43 67 83 51 79 97 40 64 80 51 79 97 42 67 84 44 71 88
48 76 94 33 56 69 38 62 78 43 69 86 34 57 71 37 61 76 82 68 85 33 56 70 40 64 80 38 61 76 37 61 75 39 63 79 116 67 83 47 73 91 45 71 87 52 79 98
83 79 98 55 83 103 51 77 95 54 82 101 54 81 100 52 78 96 56 84 104 96 81 100 57 85 105 44 68 83 43 68 83 43 67 83 43 68 83 24 28 28 24 28 28 24 28 28
24 28 28 24 28 28 24 28 28 24 28 28 24 28 28 24 28 28 100 100 92 90 90 84 73 75 70 76 78 73 72 74 70 99 99 91 71 73 68 96 95 88 96 96 89 79 80 75
84 85 79 100 99 92 101 100 93 86 86 81 24 28 28 24 28 28 24 28 28 76 78 73 71 73 69 79 80 75 71 73 69 86 86 81 24 28 28 24 28 28 24 28 28 24 28 28
102 101 93 99 99 91 85 86 80 75 77 72 91 91 85 86 86 80 93 93 86 87 88 82 74 76 71 89 90 84 75 76 72 79 81 76 97 97 90 72 74 69 80 82 76 71 73 69
84 84 79 102 101 94 75 77 72 84 85 79 92 92 85 72 74 70 86 86 81 95 95 88 89 89 83 73 75 70 87 88 82 89 90 83 74 76 71 99 98 91 82 83 78 75 77 72
82 83 77 76 78 73 77 79 74 88 89 82 77 79 74 75 77 72 100 100 92 100 99 92 96 96 89 103 103 95 90 90 84 92 92 86 79 80 75 95 95 88 86 86 80 24 28 28
24 28 28 24 28 28 24 28 28 76 78 73 79 81 75 80 81 76 87 88 82 90 91 84 102 101 94 80 81 76 92 93 86 89 89 83 78 79 75 85 86 80 98 98 91 103 102 94
103 102 95 98 98 90 73 75 71 93 93 87 101 100 93 97 97 90 24 28 28 24 28 28 24 28 28 24 28 28 24 28 28 24 28 28 24 28 28 24 28 28 24 28 28 24 28 28
24 28 28 24 28 28 24 28 28 24 28 28 24 28 28 24 28 28 24 28 28 24 28 28 24 28 28 24 28 28 24 28 28 24 28 28 24 28 28 24 28 28 24 28 28 24 28 28
24 28 28 24 28 28 24 28 28 68 75 84 65 72 81 62 69 78 24 28 28 41 48 57 67 74 83 43 50 59 68 75 84 24 28 28 54 61 70 65 72 81 57 64 73 57 64 73
98 73 90 44 69 86 49 76 94 92 70 87 44 69 86 44 71 88 35 59 73 42 68 85 37 61 76 35 59 74 45 72 90 42 68 85 93 63 79 36 61 76 37 61 77 40 65 82
44 70 88 48 76 94 82 71 88 47 73 91 38 62 76 42 67 83 46 72 89 54 82 102 73 80 100 41 65 80 47 73 90 46 71 88 54 83 102 48 74 91 43 67 82 43 67 83
52 80 98 48 74 91 46 72 89 45 71 88 41 65 81 50 77 95 46 72 90 41 65 81 47 74 93 39 63 78 46 73 92 43 69 86 38 62 78 83 66 83 43 70 87 30 53 66
38 62 78 36 60 75 37 61 76 32 55 68 38 63 78 43 69 86 45 71 88 35 58 72 42 67 83 69 77 95 41 66 82 44 69 86 47 73 90 48 74 91 45 70 86 54 82 101
53 80 99 44 69 84 52 79 97 51 78 96 44 69 85 55 83 102 116 73 90 42 67 82 52 80 99 51 79 98 117 68 84 39 64 79 42 68 84 34 57 71 36 59 74 45 71 89
109 62 77 39 63 79 35 59 74 45 72 90 38 62 78 41 67 83 33 56 70 38 63 79 43 70 87 76 69 87 45 71 89 44 70 87 45 71 88 77 74 92 41 66 82 43 68 84
43 68 84 47 74 91 64 83 103 50 77 95 52 79 98 55 84 104 50 76 94 47 72 89 56 84 104 52 79 97 51 79 97 58 84 104 41 65 80 24 28 28 24 28 28 24 28 28
24 28 28 24 28 28 24 28 28 24 28 28 24 28 28 24 28 28 86 86 80 88 88 82 78 79 74 84 85 79 100 100 92 91 91 85 83 84 78 76 77 72 92 92 86 90 91 84
73 75 71 99 99 91 83 84 79 78 80 75 24 28 28 24 28 28 24 28 28 99 98 91 103 102 95 100 99 92 98 98 90 82 83 78 24 28 28 24 28 28 24 28 28 24 28 28
98 97 90 82 83 78 80 81 76 88 88 82 70 72 68 76 78 73 102 102 94 103 102 94 103 102 94 93 93 87 70 72 68 98 98 91 71 73 69 90 90 84 81 82 77 99 98 91
82 83 77 93 93 86 83 84 78 98 97 90 94 94 87 91 91 85 104 103 95 79 81 75 85 85 80 72 73 69 76 77 73 94 94 87 77 78 73 72 74 70 73 75 71 84 85 80
79 80 75 71 73 68 74 76 71 78 80 75 74 76 71 78 80 75 89 89 83 100 100 92 90 90 84 81 82 77 98 97 90 94 94 87 75 77 72 91 91 85 72 74 69 24 28 28
24 28 28 24 28 28 24 28 28 24 28 28 24 28 28 24 28 28 24 28 28 24 28 28 24 28 28 24 28 28 24 28 28 24 28 28 24 28 28 24 28 28 24 28 28 24 28 28
24 28 28 24 28 28 24 28 28 24 28 28 24 28 28 24 28 28 24 28 28 24 28 28 24 28 28 24 28 28 24 28 28 24 28 28 24 28 28 24 28 28 24 28 28 24 28 28
24 28 28 24 28 28 24 28 28 24 28 28 24 28 28 24 28 28 24 28 28 24 28 28 24 28 28 24 28 28 24 28 28 24 28 28 24 28 28 24 28 28 24 28 28 24 28 28
24 28 28 24 28 28 24 28 28 43 50 59 63 70 79 46 53 62 24 28 28 61 68 77 53 60 69 49 56 65 55 62 71 24 28 28 45 52 61 63 70 79 47 54 63 62 69 78
44 70 87 39 63 78 47 75 93 49 77 95 44 70 87 42 68 85 37 62 77 45 73 91 38 62 78 33 57 71 35 59 74 36 60 75 35 58 73 32 56 70 33 57 71 112 60 76
43 70 87 41 66 83 48 75 94 44 70 87 39 63 78 47 74 91 52 81 100 47 73 91 61 82 101 41 65 80 42 66 82 53 80 99 51 79 97 114 74 92 102 77 95 43 68 84
91 78 96 53 81 100 47 73 90 40 64 80 40 65 80 45 72 89 101 69 86 37 60 75 43 69 86 45 72 90 42 68 85 46 74 92 44 71 89 34 57 72 42 69 86 43 70 87
30 53 66 44 71 89 42 69 86 33 55 69 39 63 79 38 63 78 46 74 92 43 69 86 39 64 79 36 59 73 45 71 88 50 78 97 52 80 99 80 78 97 54 83 102 88 79 97
56 85 105 56 85 105 46 72 89 49 76 93 44 70 86 45 70 87 53 81 100 106 73 90 41 65 80 49 77 95 43 68 85 46 73 90 72 73 91 47 74 92 41 66 83 35 58 73
38 63 79 40 66 82 34 57 72 30 52 65 34 58 72 44 71 88 37 62 78 45 72 90 38 62 78 43 69 87 38 63 79 37 61 76 35 58 72 89 71 88 61 78 97 50 77 96
39 63 77 110 72 89 62 83 102 52 79 98 44 69 85 46 71 87 56 86 106 50 77 95 56 85 105 47 73 89 55 84 104 51 78 97 39 63 78 24 28 28 24 28 28 24 28 28
24 28 28 24 28 28 24 28 28 24 28 28 24 28 28 24 28 28 72 74 70 98 98 91 87 87 81 104 103 95 85 86 80 93 93 86 97 97 90 80 81 76 105 104 96 89 89 83
76 77 73 100 99 92 94 94 87 93 93 87 24 28 28 24 28 28 24 28 28 85 85 80 92 92 85 95 95 88 92 93 86 80 81 76 24 28 28 24 28 28 24 28 28 24 28 28
98 98 91 100 100 92 99 99 91 92 92 86 78 79 74 79 80 75 89 89 83 82 83 78 93 93 86 77 78 73 84 85 80 93 93 87 75 76 72 70 72 68 77 79 74 101 101 93
98 98 91 104 103 96 94 94 87 84 84 79 98 98 91 93 93 86 90 90 84 80 81 76 100 99 92 100 99 92 99 98 91 73 74 70 95 95 88 102 101 93 96 96 89 84 85 79
102 101 93 84 85 79 103 103 95 91 91 85 86 87 81 87 87 81 77 79 74 100 100 92 72 74 69 105 104 96 98 98 91 94 94 87 87 88 82 95 95 88 98 98 91 24 28 28
24 28 28 24 28 28 24 28 28 24 28 28 24 28 28 24 28 28 24 28 28 24 28 28 24 28 28 24 28 28 24 28 28 24 28 28 24 28 28 24 28 28 24 28 28 24 28 28
24 28 28 24 28 28 24 28 28 24 28 28 24 28 28 24 28 28 24 28 28 24 28 28 24 28 28 24 28 28 24 28 28 24 28 28 24 28 28 24 28 28 24 28 28 24 28 28
24 28 28 24 28 28 24 28 28 24 28 28 24 28 28 24 28 28 24 28 28 24 28 28 24 28 28 24 28 28 24 28 28 24 28 28 24 28 28 24 28 28 24 28 28 24 28 28
24 28 28 24 28 28 24 28 28 63 70 79 45 52 61 51 58 67 24 28 28 42 49 58 65 72 81 45 52 61 60 67 76 24 28 28 60 67 76 49 56 65 45 52 61 60 67 76
63 78 97 40 65 81 112 65 82 74 72 89 42 68 85 46 73 92 37 61 76 39 64 80 42 68 85 95 61 77 115 57 72 91 62 78 39 65 81 29 51 64 39 65 81 30 52 66
103 62 78 45 72 90 35 58 73 45 72 89 39 64 79 107 68 85 52 80 100 46 72 89 45 71 88 20 22 20 20 22 20 20 22 20 20 22 20 18 18 16 18 18 16 18 18 16
18 18 16 18 18 16 18 18 16 18 18 16 18 18 16 18 18 16 18 18 16 18 18 16 18 18 16 20 22 20 20 22 20 20 22 20 20 22 20 18 18 16 18 18 16 18 18 16
18 18 16 18 18 16 18 18 16 18 18 16 18 18 16 18 18 16 18 18 16 18 18 16 18 18 16 18 18 16 18 18 16 18 18 16 18 18 16 18 18 16 18 18 16 18 18 16
18 18 16 18 18 16 18 18 16 18 18 16 18 18 16 18 18 16 18 18 16 18 18 16 18 18 16 18 18 16 18 18 16 18 18 16 18 18 16 18 18 16 18 18 16 18 18 16
18 18 16 18 18 16 18 18 16 18 18 16 39 65 82 43 69 87 34 58 73 32 55 69 40 65 81 33 56 70 47 74 93 47 74 92 40 65 81 40 64 80 40 64 80 51 79 98
53 81 101 51 79 98 125 69 86 49 76 94 51 79 98 52 79 98 44 69 85 54 83 102 51 79 98 50 77 95 124 70 87 50 77 96 52 81 100 24 28 28 24 28 28 24 28 28
24 28 28 24 28 28 24 28 28 24 28 28 24 28 28 24 28 28 96 96 89 89 89 83 96 95 88 78 79 74 100 100 92 93 93 87 91 91 85 76 77 72 96 95 88 102 101 93
94 94 87 93 93 86 70 72 68 104 103 95 24 28 28 24 28 28 24 28 28 88 88 82 90 90 84 101 100 93 92 92 85 77 79 74 24 28 28 24 28 28 24 28 28 24 28 28
77 78 73 95 95 88 102 102 94 82 83 78 81 82 77 91 91 85 90 90 84 95 95 88 74 75 71 82 83 77 85 86 80 94 94 87 96 96 89 77 78 73 87 88 82 101 101 93
82 83 78 105 104 96 78 80 75 70 72 68 105 104 96 71 73 69 71 73 69 73 75 70 97 97 90 89 89 83 102 101 93 88 89 82 83 84 79 73 75 71 87 87 82 80 82 76
86 87 81 71 73 69 72 74 70 93 93 87 90 90 84 97 97 90 84 85 80 95 94 88 72 74 69 101 101 93 105 104 96 100 100 92 103 102 94 95 95 88 93 93 87 24 28 28
24 28 28 24 28 28 24 28 28 24 28 28 24 28 28 24 28 28 24 28 28 24 28 28 24 28 28 24 28 28 24 28 28 24 28 28 24 28 28 24 28 28 24 28 28 24 28 28
24 28 28 24 28 28 24 28 28 24 28 28 24 28 28 24 28 28 24 28 28 24 28 28 24 28 28 24 28 28 24 28 28 24 28 28 24 28 28 24 28 28 24 28 28 24 28 28
24 28 28 24 28 28 24 28 28 24 28 28 24 28 28 24 28 28 24 28 28 24 28 28 24 28 28 24 28 28 24 28 28 24 28 28 24 28 28 24 28 28 24 28 28 24 28 28
24 28 28 24 28 28 24 28 28 67 74 83 45 52 61 41 48 57 24 28 28 58 65 74 51 58 67 46 53 62 59 66 75 24 28 28 65 72 81 45 52 61 59 66 75 49 56 65
48 76 94 92 69 86 39 63 79 33 56 71 45 73 91 36 60 75 31 54 68 30 53 66 39 65 82 38 63 80 38 63 80 29 51 64 42 69 87 28 50 63 37 62 78 43 70 88
33 56 71 43 70 87 42 68 85 45 72 91 36 59 74 41 66 83 36 59 74 45 72 89 37 61 76 20 22 20 20 22 20 20 22 20 20 22 20 18 18 16 18 18 16 18 18 16
18 18 16 18 18 16 18 18 16 18 18 16 18 18 16 18 18 16 18 18 16 18 18 16 18 18 16 20 22 20 20 22 20 20 22 20 20 22 20 18 18 16 18 18 16 18 18 16
18 18 16 18 18 16 18 18 16 18 18 16 18 18 16 18 18 16 18 18 16 18 18 16 18 18 16 18 18 16 18 18 16 18 18 16 18 18 16 18 18 16 18 18 16 18 18 16
18 18 16 18 18 16 18 18 16 18 18 16 18 18 16 18 18 16 18 18 16 18 18 16 18 18 16 18 18 16 18 18 16 18 18 16 18 18 16 18 18 16 18 18 16 18 18 16
18 18 16 18 18 16 18 18 16 18 18 16 39 65 82 42 69 86 40 66 83 31 54 68 31 54 68 31 53 67 33 56 70 37 61 76 41 67 84 44 71 88 45 72 90 47 74 92
44 70 87 39 63 78 51 79 98 41 66 81 54 82 102 46 72 90 53 81 100 47 73 90 48 74 92 40 64 79 40 65 80 51 79 98 50 78 97 24 28 28 24 28 28 24 28 28
24 28 28 24 28 28 24 28 28 24 28 28 24 28 28 24 28 28 87 88 82 73 75 70 87 88 82 104 103 95 75 77 72 81 82 76 103 103 95 95 95 88 104 104 96 72 74 70
75 77 72 88 89 82 105 104 96 71 73 69 24 28 28 24 28 28 24 28 28 98 98 90 100 100 92 95 95 88 98 98 91 77 78 74 24 28 28 24 28 28 24 28 28 24 28 28
72 74 70 92 92 85 96 96 89 92 92 86 74 75 71 81 82 77 82 83 78 71 73 69 84 85 79 73 75 71 75 77 72 92 93 86 81 82 76 81 82 77 76 77 72 102 101 93
99 98 91 73 75 70 71 73 69 71 73 69 93 93 87 94 94 87 73 74 70 77 78 73 83 84 79 79 80 75 99 99 92 97 97 90 90 90 84 93 93 87 73 74 70 104 103 95
92 92 85 96 96 89 85 86 80 85 85 80 83 84 79 76 77 73 79 81 76 92 92 85 97 97 90 91 91 85 75 77 72 81 82 77 104 103 95 77 79 74 91 91 85 24 28 28
24 28 28 24 28 28 24 28 28 24 28 28 24 28 28 24 28 28 24 28 28 24 28 28 24 28 28 24 28 28 24 28 28 24 28 28 24 28 28 24 28 28 24 28 28 24 28 28
24 28 28 24 28 28 24 28 28 24 28 28 24 28 28 24 28 28 24 28 28 24 28 28 24 28 28 24 28 28 24 28 28 24 28 28 24 28 28 24 28 28 24 28 28 24 28 28
24 28 28 24 28 28 24 28 28 24 28 28 24 28 28 24 28 28 24 28 28 24 28 28 24 28 28 24 28 28 24 28 28 24 28 28 24 28 28 24 28 28 24 28 28 24 28 28
24 28 28 24 28 28 24 28 28 42 49 58 50 57 66 68 75 84 24 28 28 46 53 62 42 49 58 52 59 68 68 75 84 24 28 28 55 62 71 62 69 78 67 74 83 60 67 76
33 56 70 37 62 77 38 63 79 42 69 86 42 69 86 33 57 72 31 55 69 29 51 65 29 51 65 28 51 65 34 58 74 32 56 71 113 53 67 107 54 69 33 57 73 39 66 83
34 59 75 36 60 76 41 68 85 41 68 85 42 68 85 35 59 74 43 70 87 43 69 86 41 66 83 20 22 20 20 22 20 20 22 20 20 22 20 18 18 16 18 18 16 18 18 16
18 18 16 18 18 16 18 18 16 18 18 16 18 18 16 18 18 16 18 18 16 18 18 16 18 18 16 20 22 20 20 22 20 20 22 20 20 22 20 18 18 16 18 18 16 18 18 16
18 18 16 18 18 16 18 18 16 18 18 16 18 18 16 18 18 16 18 18 16 18 18 16 18 18 16 18 18 16 18 18 16 18 18 16 18 18 16 18 18 16 18 18 16 18 18 16
18 18 16 18 18 16 18 18 16 18 18 16 18 18 16 18 18 16 18 18 16 18 18 16 18 18 16 18 18 16 18 18 16 18 18 16 18 18 16 18 18 16 18 18 16 18 18 16
18 18 16 18 18 16 18 18 16 18 18 16 58 64 81 58 64 81 28 51 65 33 57 72 37 62 78 36 62 78 29 52 65 37 62 79 33 56 71 31 54 68 81 68 86 48 76 95
38 63 79 41 67 83 44 71 88 43 68 85 50 79 98 50 78 97 44 70 87 42 68 84 51 79 98 50 78 97 43 69 86 44 70 87 65 75 94 24 28 28 24 28 28 24 28 28
24 28 28 24 28 28 24 28 28 24 28 28 24 28 28 24 28 28 95 95 88 104 103 95 85 86 80 80 81 76 80 82 76 71 72 68 71 73 69 90 90 84 78 80 75 88 89 83
80 81 76 70 72 68 96 96 89 104 103 95 24 28 28 24 28 28 24 28 28 87 88 82 88 88 82 103 102 94 80 81 76 78 79 74 24 28 28 24 28 28 24 28 28 24 28 28
93 93 86 92 92 86 75 76 72 86 86 81 77 79 74 100 99 92 74 76 71 84 85 79 79 80 75 73 74 70 100 100 92 78 79 75 80 81 76 97 97 90 94 94 87 82 83 77
75 77 72 77 78 73 76 78 73 99 98 91 92 92 85 86 87 81 77 78 73 91 91 85 82 83 78 75 76 72 94 94 87 93 93 87 102 102 94 80 81 76 86 87 81 94 94 87
102 101 93 96 96 89 81 82 76 90 90 84 97 97 89 73 74 70 93 93 86 94 94 88 88 89 83 102 101 93 98 98 91 100 100 92 78 79 74 100 99 92 82 83 78 24 28 28
24 28 28 24 28 28 24 28 28 24 28 28 24 28 28 24 28 28 24 28 28 24 28 28 24 28 28 24 28 28 24 28 28 24 28 28 24 28 28 24 28 28 24 28 28 24 28 28
24 28 28 24 28 28 24 28 28 24 28 28 24 28 28 24 28 28 24 28 28 24 28 28 24 28 28 24 28 28 24 28 28 24 28 28 24 28 28 24 28 28 24 28 28 24 28 28
24 28 28 24 28 28 24 28 28 24 28 28 24 28 28 24 28 28 24 28 28 24 28 28 24 28 28 24 28 28 24 28 28 24 28 28 24 28 28 24 28 28 24 28 28 24 28 28
24 28 28 24 28 28 24 28 28 41 48 57 48 55 64 43 50 59 24 28 28 51 58 67 41 48 57 45 52 61 43 50 59 24 28 28 63 70 79 57 64 73 56 63 72 58 65 74
42 69 87 32 56 71 27 50 63 32 56 71 25 47 60 29 52 67 31 55 71 32 57 72 35 61 78 32 57 73 36 62 79 99 51 65 33 59 75 29 53 68 33 58 74 38 65 82
27 50 64 31 55 70 41 68 86 79 62 78 30 54 68 55 69 87 35 60 75 44 72 90 36 60 76 20 22 20 20 22 20 20 22 20 182 158 44 18 18 16 18 18 16 18 18 16
18 18 16 18 18 16 18 18 16 18 18 16 18 18 16 18 18 16 18 18 16 18 18 16 18 18 16 182 158 44 182 158 44 182 158 44 182 158 44 18 18 16 18 18 16 18 18 16
18 18 16 18 18 16 18 18 16 18 18 16 18 18 16 18 18 16 18 18 16 18 18 16 18 18 16 18 18 16 18 18 16 18 18 16 18 18 16 18 18 16 18 18 16 18 18 16
18 18 16 18 18 16 18 18 16 18 18 16 18 18 16 18 18 16 18 18 16 18 18 16 18 18 16 18 18 16 18 18 16 18 18 16 18 18 16 18 18 16 18 18 16 18 18 16
18 18 16 18 18 16 18 18 16 18 18 16 36 62 79 35 60 77 48 61 79 23 45 58 35 61 77 27 50 63 31 55 70 33 57 73 81 61 78 65 66 83 40 66 84 60 69 87
31 54 68 34 58 73 40 65 82 45 73 91 47 76 95 42 68 86 36 60 75 36 60 76 44 70 88 33 56 70 95 66 84 42 69 87 36 60 76 24 28 28 24 28 28 24 28 28
24 28 28 24 28 28 24 28 28 24 28 28 24 28 28 24 28 28 79 80 75 86 86 80 79 80 75 95 95 88 84 84 79 93 93 86 71 73 69 71 73 69 89 89 83 75 77 72
87 87 81 94 94 87 90 90 84 74 76 71 24 28 28 24 28 28 24 28 28 90 91 84 75 77 72 91 91 85 100 100 92 85 85 80 24 28 28 24 28 28 24 28 28 24 28 28
98 97 90 75 77 72 78 80 75 96 96 89 92 92 86 102 101 94 97 97 90 75 76 72 95 95 88 75 77 72 76 78 73 84 85 79 70 72 68 88 88 82 71 73 69 93 93 87
87 88 82 84 85 79 90 90 84 90 91 84 96 96 89 98 98 91 104 103 95 88 88 82 103 102 94 78 80 75 78 79 74 91 91 85 74 76 72 87 87 82 96 96 89 93 93 86
79 80 75 73 75 71 84 85 79 74 75 71 96 96 89 99 99 91 101 100 93 97 96 89 75 77 72 94 94 87 82 83 78 89 90 83 99 99 92 85 86 80 84 84 79 24 28 28
24 28 28 24 28 28 24 28 28 24 28 28 24 28 28 24 28 28 24 28 28 24 28 28 24 28 28 24 28 28 24 28 28 24 28 28 24 28 28 24 28 28 24 28 28 24 28 28
24 28 28 24 28 28 24 28 28 24 28 28 24 28 28 24 28 28 24 28 28 24 28 28 24 28 28 24 28 28 24 28 28 24 28 28 24 28 28 24 28 28 24 28 28 24 28 28
24 28 28 24 28 28 24 28 28 24 28 28 24 28 28 24 28 28 24 28 28 24 28 28 24 28 28 24 28 28 24 28 28 24 28 28 24 28 28 24 28 28 24 28 28 24 28 28
24 28 28 24 28 28 24 28 28 68 75 84 55 62 71 51 58 67 24 28 28 51 58 67 53 60 69 66 73 82 50 57 66 24 28 28 54 61 70 62 69 78 49 56 65 60 67 76
27 50 64 28 51 66 37 63 80 23 45 58 23 46 59 22 44 57 29 54 69 29 53 69 33 59 76 23 46 60 19 41 53 31 57 73 18 40 52 30 55 71 27 51 66 28 52 68
24 46 60 34 60 77 34 59 76 38 64 82 67 61 78 56 65 83 43 69 87 37 63 80 31 54 69 20 22 20 20 22 20 20 22 20 182 158 44 18 18 16 18 18 16 18 18 16
18 18 16 18 18 16 18 18 16 18 18 16 18 18 16 18 18 16 18 18 16 18 18 16 18 18 16 182 158 44 182 158 44 182 158 44 182 158 44 18 18 16 18 18 16 18 18 16
18 18 16 18 18 16 18 18 16 18 18 16 18 18 16 18 18 16 18 18 16 18 18 16 18 18 16 18 18 16 18 18 16 18 18 16 18 18 16 18 18 16 18 18 16 18 18 16
18 18 16 18 18 16 18 18 16 18 18 16 18 18 16 18 18 16 18 18 16 18 18 16 18 18 16 18 18 16 18 18 16 18 18 16 18 18 16 18 18 16 18 18 16 18 18 16
18 18 16 18 18 16 18 18 16 18 18 16 21 42 55 30 55 71 71 53 68 73 53 69 22 44 57 32 58 75 97 51 66 23 45 58 93 55 70 39 66 84 34 59 76 41 68 86
46 69 88 47 70 89 37 62 79 34 59 75 34 59 75 40 66 83 33 57 71 43 70 89 44 72 91 36 61 77 73 67 85 35 60 76 42 69 88 24 28 28 24 28 28 24 28 28
24 28 28 24 28 28 24 28 28 24 28 28 24 28 28 24 28 28 71 73 69 79 80 75 81 82 77 92 92 86 80 81 76 90 90 84 85 86 80 93 93 86 74 75 71 101 100 93
71 73 69 86 87 81 103 103 95 75 77 72 24 28 28 24 28 28 24 28 28 92 92 86 98 98 90 104 103 95 92 93 86 99 99 91 24 28 28 24 28 28 24 28 28 24 28 28
85 86 80 78 79 74 95 95 88 92 92 86 102 102 94 83 84 79 92 92 85 78 80 75 87 87 81 71 73 69 101 100 92 71 73 69 77 78 74 100 99 92 101 100 93 97 96 89
89 90 83 75 76 72 100 99 92 72 74 70 73 75 70 97 96 89 98 98 90 79 81 75 71 73 68 96 96 89 79 80 75 93 93 86 85 86 80 77 79 74 90 90 84 87 88 82
79 80 75 76 78 73 94 94 87 89 89 83 83 84 78 103 102 95 101 100 92 105 104 96 96 96 89 99 99 91 78 80 75 79 80 75 91 91 85 97 97 90 101 100 93 24 28 28
24 28 28 24 28 28 24 28 28 24 28 28 24 28 28 24 28 28 24 28 28 24 28 28 24 28 28 24 28 28 24 28 28 24 28 28 24 28 28 24 28 28 24 28 28 24 28 28
24 28 28 24 28 28 24 28 28 24 28 28 24 28 28 24 28 28 24 28 28 24 28 28 24 28 28 24 28 28 24 28 28 24 28 28 24 28 28 24 28 28 24 28 28 24 28 28
24 28 28 24 28 28 24 28 28 24 28 28 24 28 28 24 28 28 24 28 28 24 28 28 24 28 28 24 28 28 24 28 28 24 28 28 24 28 28 24 28 28 24 28 28 24 28 28
24 28 28 24 28 28 24 28 28 49 56 65 63 70 79 50 57 66 24 28 28 58 65 74 61 68 77 48 55 64 60 67 76 24 28 28 65 72 81 57 64 73 53 60 69 54 61 70
30 54 68 31 55 71 31 56 72 46 63 80 25 48 62 24 47 61 23 45 59 23 46 60 21 44 57 29 54 69 21 43 57 30 55 72 27 51 66 30 55 71 26 50 65 34 60 77
29 54 70 25 48 62 32 58 74 24 47 61 29 53 68 33 58 74 33 58 74 40 68 86 85 61 78 20 22 20 20 22 20 20 22 20 182 158 44 18 18 16 18 18 16 18 18 16
18 18 16 18 18 16 18 18 16 18 18 16 18 18 16 18 18 16 18 18 16 18 18 16 18 18 16 182 158 44 182 158 44 182 158 44 182 158 44 18 18 16 18 18 16 18 18 16
18 18 16 18 18 16 18 18 16 18 18 16 18 18 16 18 18 16 18 18 16 18 18 16 18 18 16 18 18 16 18 18 16 18 18 16 18 18 16 18 18 16 18 18 16 18 18 16
18 18 16 18 18 16 18 18 16 18 18 16 18 18 16 18 18 16 18 18 16 18 18 16 18 18 16 18 18 16 18 18 16 18 18 16 18 18 16 18 18 16 18 18 16 18 18 16
18 18 16 18 18 16 18 18 16 18 18 16 29 54 70 21 43 56 18 39 52 24 47 61 31 56 72 31 57 73 22 44 58 33 59 75 35 61 78 23 45 58 29 52 67 42 67 86
40 67 85 48 69 87 64 67 85 38 64 81 36 61 78 35 61 77 37 63 79 31 55 69 29 52 66 41 68 86 42 69 88 79 63 81 33 57 73 24 28 28 24 28 28 24 28 28
24 28 28 24 28 28 24 28 28 24 28 28 24 28 28 24 28 28 80 81 76 81 82 76 92 92 85 71 73 69 80 81 76 104 103 95 71 73 68 78 79 74 96 96 89 88 88 82
97 97 90 71 73 68 92 93 86 91 92 85 24 28 28 24 28 28 24 28 28 80 81 76 97 97 90 84 85 79 78 79 74 103 102 95 24 28 28 24 28 28 24 28 28 24 28 28
89 89 83 75 76 72 74 76 71 81 82 77 75 77 72 76 77 73 103 103 95 83 83 78 99 99 91 80 82 76 85 85 80 71 73 69 90 90 84 96 95 88 102 101 94 94 94 88
89 90 83 93 93 86 105 104 96 94 94 87 90 90 84 85 86 80 88 89 83 95 94 88 78 79 74 75 76 72 97 97 90 85 86 80 76 78 73 76 78 73 81 82 77 72 74 70
83 84 78 91 91 85 77 78 73 83 84 79 90 91 84 96 96 89 97 97 90 89 89 83 91 91 85 93 93 86 75 76 72 87 87 81 80 81 76 93 93 86 73 75 71 24 28 28
24 28 28 24 28 28 24 28 28 24 28 28 24 28 28 24 28 28 24 28 28 24 28 28 24 28 28 24 28 28 24 28 28 24 28 28 24 28 28 24 28 28 24 28 28 24 28 28
24 28 28 24 28 28 24 28 28 24 28 28 24 28 28 24 28 28 24 28 28 24 28 28 24 28 28 24 28 28 24 28 28 24 28 28 24 28 28 24 28 28 24 28 28 24 28 28
24 28 28 24 28 28 24 28 28 24 28 28 24 28 28 24 28 28 24 28 28 24 28 28 24 28 28 24 28 28 24 28 28 24 28 28 24 28 28 24 28 28 24 28 28 24 28 28
24 28 28 24 28 28 24 28 28 49 56 65 48 55 64 47 54 63 24 28 28 50 57 66 69 76 85 53 60 69 41 48 57 24 28 28 43 50 59 44 51 60 57 64 73 62 69 78
34 59 75 110 54 70 35 60 77 27 51 65 25 47 61 23 45 58 33 59 75 34 59 76 22 44 58 34 60 78 25 48 62 31 57 73 34 60 78 59 56 72 71 54 70 33 59 75
35 62 79 24 46 59 35 60 77 52 64 81 38 64 82 32 56 71 39 65 83 30 53 68 33 57 73 20 22 20 20 22 20 20 22 20 182 158 44 18 18 16 18 18 16 18 18 16
18 18 16 18 18 16 18 18 16 18 18 16 18 18 16 18 18 16 18 18 16 18 18 16 18 18 16 182 158 44 182 158 44 182 158 44 182 158 44 18 18 16 18 18 16 18 18 16
18 18 16 18 18 16 18 18 16 18 18 16 18 18 16 18 18 16 18 18 16 18 18 16 18 18 16 18 18 16 18 18 16 18 18 16 18 18 16 18 18 16 18 18 16 18 18 16
18 18 16 18 18 16 18 18 16 18 18 16 18 18 16 18 18 16 18 18 16 18 18 16 18 18 16 18 18 16 18 18 16 18 18 16 18 18 16 18 18 16 18 18 16 18 18 16
18 18 16 18 18 16 18 18 16 18 18 16 20 42 54 82 51 66 21 43 55 21 43 56 22 44 57 24 47 61 25 47 61 37 63 81 32 57 73 29 52 67 40 68 86 32 57 72
29 52 67 40 66 84 40 67 84 30 53 67 33 57 73 32 56 71 44 72 90 44 72 90 32 55 70 55 72 91 40 66 84 29 52 66 95 61 77 24 28 28 24 28 28 24 28 28
24 28 28 24 28 28 24 28 28 24 28 28 24 28 28 24 28 28 83 83 78 88 89 83 78 79 74 72 74 69 96 95 88 85 85 80 74 75 71 82 83 78 80 81 76 82 83 77
73 75 70 74 76 71 80 82 76 97 97 90 24 28 28 24 28 28 24 28 28 75 77 72 72 74 70 86 86 81 92 92 85 71 73 69 24 28 28 24 28 28 24 28 28 24 28 28
99 99 91 104 103 95 104 103 95 89 90 83 96 96 89 74 75 71 97 97 90 100 99 92 75 76 72 91 91 85 96 96 89 79 81 76 79 80 75 80 81 76 81 82 76 92 92 85
101 100 92 88 89 83 71 72 68 103 102 94 85 86 80 74 76 71 72 74 70 101 100 92 97 97 89 86 87 81 97 97 90 102 102 94 78 80 75 91 91 85 94 94 87 84 85 79
76 78 73 73 74 70 83 84 78 101 100 93 73 75 70 91 91 85 86 87 81 86 87 81 79 80 75 102 101 94 85 85 80 104 103 96 99 99 92 77 78 74 70 72 68 24 28 28
24 28 28 24 28 28 24 28 28 24 28 28 24 28 28 24 28 28 24 28 28 24 28 28 24 28 28 24 28 28 24 28 28 24 28 28 24 28 28 24 28 28 24 28 28 24 28 28
24 28 28 24 28 28 24 28 28 24 28 28 24 28 28 24 28 28 24 28 28 24 28 28 24 28 28 24 28 28 24 28 28 24 28 28 24 28 28 24 28 28 24 28 28 24 28 28
24 28 28 24 28 28 24 28 28 24 28 28 24 28 28 24 28 28 24 28 28 24 28 28 24 28 28 24 28 28 24 28 28 24 28 28 24 28 28 24 28 28 24 28 28 24 28 28
24 28 28 24 28 28 24 28 28 47 54 63 42 49 58 66 73 82 24 28 28 52 59 68 63 70 79 67 74 83 55 62 71 24 28 28 61 68 77 61 68 77 63 70 79 67 74 83
39 65 82 54 70 88 40 67 84 30 53 67 36 62 78 40 66 84 50 64 82 34 60 76 23 45 57 33 57 73 28 52 67 31 55 71 67 58 74 25 48 61 61 60 77 26 48 61
37 63 80 70 62 78 83 60 77 32 56 71 40 66 83 33 57 72 40 66 83 38 64 80 34 58 73 18 18 16 18 18 16 18 18 16 18 18 16 182 158 44 182 158 44 182 158 44
182 158 44 182 158 44 182 158 44 182 158 44 182 158 44 182 158 44 182 158 44 182 158 44 182 158 44 18 18 16 18 18 16 18 18 16 18 18 16 182 158 44 182 158 44 182 158 44
182 158 44 182 158 44 182 158 44 182 158 44 18 18 16 18 18 16 18 18 16 18 18 16 182 158 44 182 158 44 182 158 44 182 158 44 182 158 44 182 158 44 182 158 44 182 158 44
18 18 16 18 18 16 18 18 16 18 18 16 182 158 44 182 158 44 182 158 44 182 158 44 182 158 44 182 158 44 182 158 44 182 158 44 182 158 44 182 158 44 182 158 44 182 158 44
182 158 44 20 22 20 20 22 20 20 22 20 24 46 59 30 55 70 25 47 61 24 47 60 36 61 78 34 59 75 38 65 82 107 55 71 37 63 79 34 58 73 38 63 79 36 60 76
36 60 76 32 56 70 43 69 87 35 59 74 47 75 94 48 76 95 48 76 95 38 63 79 41 67 84 34 57 71 33 57 71 46 74 93 41 67 84 24 28 28 24 28 28 24 28 28
24 28 28 24 28 28 24 28 28 24 28 28 24 28 28 24 28 28 80 81 76 96 96 89 87 88 82 79 80 75 95 95 88 87 88 82 76 77 73 103 103 95 95 95 88 70 72 68
88 88 82 103 102 94 92 92 86 83 84 79 24 28 28 24 28 28 24 28 28 85 86 80 87 88 82 84 85 79 102 101 93 91 91 85 24 28 28 24 28 28 24 28 28 24 28 28
92 92 86 75 77 72 70 72 68 95 95 88 70 72 68 88 89 83 104 103 95 92 92 85 81 82 77 71 73 69 100 100 92 83 84 78 78 79 74 77 79 74 88 88 82 92 93 86
102 101 94 92 92 85 88 89 83 85 86 80 103 102 94 81 82 77 101 100 93 104 103 95 72 73 69 100 99 92 75 76 72 78 79 74 100 99 92 84 85 80 97 96 89 104 103 95
100 99 92 82 83 78 84 84 79 80 81 76 98 97 90 100 100 92 97 97 90 82 83 77 82 83 78 76 78 73 79 80 75 97 97 90 94 94 87 90 90 84 81 82 77 24 28 28
24 28 28 24 28 28 24 28 28 24 28 28 24 28 28 24 28 28 24 28 28 24 28 28 24 28 28 24 28 28 24 28 28 24 28 28 24 28 28 24 28 28 24 28 28 24 28 28
24 28 28 24 28 28 24 28 28 24 28 28 24 28 28 24 28 28 24 28 28 24 28 28 24 28 28 24 28 28 24 28 28 24 28 28 24 28 28 24 28 28 24 28 28 24 28 28
24 28 28 24 28 28 24 28 28 24 28 28 24 28 28 24 28 28 24 28 28 24 28 28 24 28 28 24 28 28 24 28 28 24 28 28 24 28 28 24 28 28 24 28 28 24 28 28
24 28 28 24 28 28 24 28 28 44 51 60 55 62 71 42 49 58 24 28 28 65 72 81 63 70 79 51 58 67 61 68 77 24 28 28 43 50 59 67 74 83 49 56 65 52 59 68
45 72 90 38 63 79 36 60 76 36 60 75 35 59 74 30 53 66 36 61 77 39 66 83 32 56 71 34 58 74 32 57 72 40 67 85 37 63 80 32 56 71 32 55 70 40 66 83
34 58 73 36 61 77 36 60 76 44 71 89 36 60 75 68 72 90 44 71 88 44 70 88 36 59 74 18 18 16 18 18 16 18 18 16 18 18 16 182 158 44 182 158 44 182 158 44
182 158 44 182 158 44 182 158 44 182 158 44 182 158 44 182 158 44 182 158 44 182 158 44 182 158 44 18 18 16 18 18 16 18 18 16 18 18 16 182 158 44 182 158 44 182 158 44
182 158 44 182 158 44 182 158 44 182 158 44 18 18 16 18 18 16 18 18 16 18 18 16 182 158 44 182 158 44 182 158 44 182 158 44 182 158 44 182 158 44 182 158 44 182 158 44
18 18 16 18 18 16 18 18 16 18 18 16 182 158 44 182 158 44 182 158 44 182 158 44 182 158 44 182 158 44 182 158 44 182 158 44 182 158 44 182 158 44 182 158 44 182 158 44
182 158 44 20 22 20 20 22 20 20 22 20 34 58 74 39 66 83 84 59 75 29 51 65 28 50 63 40 66 84 39 64 81 39 64 81 41 66 83 48 74 93 44 70 88 34 57 72
39 64 80 45 72 90 45 71 89 50 78 97 43 69 86 51 79 98 102 72 89 47 73 91 40 64 80 38 62 77 95 71 89 36 59 73 46 74 92 24 28 28 24 28 28 24 28 28
24 28 28 24 28 28 24 28 28 24 28 28 24 28 28 24 28 28 80 81 76 86 87 81 95 95 88 84 85 80 94 94 87 100 100 92 90 91 84 98 98 91 104 103 95 71 73 69
72 73 69 85 86 80 91 91 85 102 102 94 24 28 28 24 28 28 24 28 28 79 80 75 82 83 78 79 80 75 89 89 83 86 86 80 24 28 28 24 28 28 24 28 28 24 28 28
96 96 89 74 75 71 84 84 79 84 85 80 94 94 87 73 75 71 99 98 91 75 76 72 74 76 71 93 93 86 85 86 80 98 97 90 104 103 95 79 80 75 97 97 90 82 83 78
79 80 75 89 89 83 97 97 90 91 91 85 95 95 88 75 77 72 88 88 82 93 93 86 103 102 94 83 84 78 98 98 90 78 79 74 89 90 83 80 81 76 74 76 71 93 93 87
75 76 72 75 77 72 75 77 72 75 76 72 82 83 78 104 103 95 100 99 92 84 85 79 90 91 84 87 87 81 81 82 77 89 89 83 82 83 77 102 101 93 76 78 73 24 28 28
24 28 28 24 28 28 24 28 28 24 28 28 24 28 28 24 28 28 24 28 28 24 28 28 24 28 28 24 28 28 24 28 28 24 28 28 24 28 28 24 28 28 24 28 28 24 28 28
24 28 28 24 28 28 24 28 28 24 28 28 24 28 28 24 28 28 24 28 28 24 28 28 24 28 28 24 28 28 24 28 28 24 28 28 24 28 28 24 28 28 24 28 28 24 28 28
24 28 28 24 28 28 24 28 28 24 28 28 24 28 28 24 28 28 24 28 28 24 28 28 24 28 28 24 28 28 24 28 28 24 28 28 24 28 28 24 28 28 24 28 28 24 28 28
24 28 28 24 28 28 24 28 28 45 52 61 58 65 74 48 55 64 24 28 28 45 52 61 46 53 62 51 58 67 65 72 81 24 28 28 60 67 76 61 68 77 67 74 83 55 62 71
37 61 76 46 73 91 45 72 89 34 57 71 46 73 91 35 58 73 36 61 77 33 56 71 37 61 77 34 59 74 30 53 66 42 69 87 36 61 77 39 64 81 44 71 89 43 70 88
33 56 71 35 59 74 45 72 89 43 69 87 38 62 78 78 72 90 43 69 85 41 65 81 40 64 80 18 18 16 18 18 16 18 18 16 18 18 16 182 158 44 182 158 44 182 158 44
182 158 44 182 158 44 182 158 44 182 158 44 182 158 44 182 158 44 182 158 44 182 158 44 182 158 44 18 18 16 18 18 16 18 18 16 18 18 16 182 158 44 182 158 44 182 158 44
182 158 44 182 158 44 182 158 44 182 158 44 18 18 16 18 18 16 18 18 16 18 18 16 182 158 44 182 158 44 182 158 44 182 158 44 182 158 44 182 158 44 182 158 44 182 158 44
18 18 16 18 18 16 18 18 16 18 18 16 182 158 44 182 158 44 182 158 44 182 158 44 182 158 44 182 158 44 182 158 44 182 158 44 182 158 44 182 158 44 182 158 44 182 158 44
182 158 44 20 22 20 20 22 20 20 22 20 42 68 86 32 55 69 39 64 81 30 52 65 36 60 76 43 69 87 32 54 68 46 73 91 46 73 91 43 69 85 39 64 80 46 73 91
87 73 91 41 65 81 43 69 85 42 67 82 53 81 100 75 80 99 41 65 81 65 82 102 48 75 92 39 63 78 43 68 85 43 68 85 48 76 94 24 28 28 24 28 28 24 28 28
24 28 28 24 28 28 24 28 28 24 28 28 24 28 28 24 28 28 78 79 74 91 91 85 93 93 86 83 84 79 88 89 83 93 93 86 104 103 95 104 103 95 105 104 96 101 100 93
100 100 92 95 95 88 90 90 84 104 103 95 24 28 28 24 28 28 24 28 28 87 87 81 75 77 72 93 93 87 102 101 93 98 98 91 24 28 28 24 28 28 24 28 28 24 28 28
97 97 90 92 92 85 94 94 87 78 79 74 104 103 95 72 74 69 98 98 91 76 78 73 80 82 76 98 98 90 84 85 79 71 73 69 70 72 68 79 80 75 96 95 89 73 75 70
95 95 88 90 90 84 105 104 96 88 88 82 95 95 88 74 75 71 72 74 69 82 83 77 92 92 85 104 103 95 101 101 93 72 74 70 71 73 69 93 93 86 89 89 83 86 86 81
94 94 88 81 83 77 75 77 72 84 85 79 76 78 73 98 98 91 100 100 92 83 84 78 98 98 91 75 77 72 77 78 74 73 75 70 78 79 74 94 94 88 84 85 80 24 28 28
24 28 28 24 28 28 24 28 28 24 28 28 24 28 28 24 28 28 24 28 28 24 28 28 24 28 28 24 28 28 24 28 28 24 28 28 24 28 28 24 28 28 24 28 28 24 28 28
24 28 28 24 28 28 24 28 28 24 28 28 24 28 28 24 28 28 24 28 28 24 28 28 24 28 28 24 28 28 24 28 28 24 28 28 24 28 28 24 28 28 24 28 28 24 28 28
24 28 28 24 28 28 24 28 28 24 28 28 24 28 28 24 28 28 24 28 28 24 28 28 24 28 28 24 28 28 24 28 28 24 28 28 24 28 28 24 28 28 24 28 28 24 28 28
24 28 28 24 28 28 24 28 28 59 66 75 66 73 82 67 74 83 24 28 28 69 76 85 61 68 77 64 71 80 63 70 79 24 28 28 47 54 63 62 69 78 50 57 66 50 57 66
38 61 76 45 71 88 94 69 86 47 74 92 40 65 82 113 61 77 42 68 85 62 69 87 36 61 76 98 61 77 41 67 84 39 65 82 33 57 72 34 58 72 34 58 73 36 60 75
35 58 73 39 64 80 95 66 83 36 59 74 43 69 86 47 74 91 111 69 86 44 70 86 44 69 86 18 18 16 18 18 16 18 18 16 18 18 16 182 158 44 182 158 44 182 158 44
182 158 44 182 158 44 182 158 44 182 158 44 182 158 44 182 158 44 182 158 44 182 158 44 182 158 44 18 18 16 18 18 16 18 18 16 18 18 16 182 158 44 182 158 44 182 158 44
182 158 44 182 158 44 182 158 44 182 158 44 18 18 16 18 18 16 18 18 16 18 18 16 182 158 44 182 158 44 182 158 44 182 158 44 182 158 44 182 158 44 182 158 44 182 158 44
18 18 16 18 18 16 18 18 16 18 18 16 182 158 44 182 158 44 182 158 44 182 158 44 182 158 44 182 158 44 182 158 44 182 158 44 182 158 44 182 158 44 182 158 44 182 158 44
182 158 44 20 22 20 20 22 20 20 22 20 33 57 71 33 56 70 34 58 73 39 64 80 45 72 90 42 68 84 43 69 86 46 73 91 41 67 83 45 72 90 64 77 95 41 65 81
38 62 77 50 77 96 43 68 84 55 83 103 84 79 98 51 79 97 52 80 99 52 79 98 42 66 81 46 71 88 111 73 90 45 71 88 49 76 94 24 28 28 24 28 28 24 28 28
24 28 28 24 28 28 24 28 28 24 28 28 24 28 28 24 28 28 79 80 75 75 76 72 102 101 94 99 98 91 101 100 93 100 100 92 81 82 77 99 99 91 71 73 69 103 102 94
86 87 81 82 83 77 88 89 83 93 93 86 24 28 28 24 28 28 24 28 28 82 83 78 87 87 81 88 88 82 72 74 69 88 89 82 24 28 28 24 28 28 24 28 28 24 28 28
81 82 76 72 74 70 94 94 87 72 74 70 88 89 83 101 100 93 102 101 93 104 103 95 96 95 88 102 101 94 78 79 74 105 104 96 99 99 92 90 90 84 85 86 80 103 102 94
74 76 71 94 94 87 102 101 94 97 97 90 95 95 88 85 86 80 96 95 89 99 98 91 83 84 78 85 86 80 90 90 84 104 103 95 78 79 74 94 94 87 75 76 72 94 94 87
84 85 79 95 95 88 76 78 73 83 84 79 70 72 68 72 74 70 78 79 74 97 97 90 83 83 78 103 102 94 79 80 75 89 89 83 94 94 87 92 92 85 92 92 85 24 28 28
24 28 28 24 28 28 24 28 28 24 28 28 24 28 28 24 28 28 24 28 28 24 28 28 24 28 28 24 28 28 24 28 28 24 28 28 24 28 28 24 28 28 24 28 28 24 28 28
24 28 28 24 28 28 24 28 28 24 28 28 24 28 28 24 28 28 24 28 28 24 28 28 24 28 28 24 28 28 24 28 28 24 28 28 24 28 28 24 28 28 24 28 28 24 28 28
24 28 28 24 28 28 24 28 28 24 28 28 24 28 28 24 28 28 24 28 28 24 28 28 24 28 28 24 28 28 24 28 28 24 28 28 24 28 28 24 28 28 24 28 28 24 28 28
24 28 28 24 28 28 24 28 28 60 67 76 55 62 71 45 52 61 24 28 28 64 71 80 61 68 77 61 68 77 54 61 70 24 28 28 46 53 62 61 68 77 52 59 68 53 60 69
50 78 96 93 72 89 38 62 77 43 69 85 47 74 92 44 71 88 42 68 85 36 61 76 68 68 86 35 59 74 71 67 84 40 66 83 43 69 86 41 67 84 42 68 85 37 61 77
81 68 85 40 65 81 40 65 81 37 61 75 87 72 89 80 74 93 39 63 78 44 70 87 40 64 79 18 18 16 18 18 16 18 18 16 18 18 16 182 158 44 182 158 44 182 158 44
182 158 44 182 158 44 182 158 44 182 158 44 182 158 44 182 158 44 182 158 44 182 158 44 182 158 44 18 18 16 18 18 16 18 18 16 18 18 16 182 158 44 182 158 44 182 158 44
182 158 44 182 158 44 182 158 44 182 158 44 18 18 16 18 18 16 18 18 16 18 18 16 182 158 44 182 158 44 182 158 44 182 158 44 182 158 44 182 158 44 182 158 44 182 158 44
18 18 16 18 18 16 18 18 16 18 18 16 182 158 44 182 158 44 182 158 44 182 158 44 182 158 44 182 158 44 182 158 44 182 158 44 182 158 44 182 158 44 182 158 44 182 158 44
182 158 44 20 22 20 20 22 20 20 22 20 39 65 81 42 69 86 39 64 80 31 54 68 37 61 76 42 68 85 34 57 71 34 57 71 38 62 77 36 59 74 37 61 76 51 79 97
104 72 89 52 80 99 54 83 103 54 83 102 44 70 86 53 81 99 50 77 95 43 67 83 98 77 96 54 82 101 124 71 88 47 74 91 42 67 83 24 28 28 24 28 28 24 28 28
24 28 28 24 28 28 24 28 28 24 28 28 24 28 28 24 28 28 93 93 86 90 90 84 87 88 82 94 94 87 84 85 80 88 88 82 94 94 87 97 97 90 103 102 94 81 82 77
94 94 87 104 103 95 73 75 70 76 78 73 24 28 28 24 28 28 24 28 28 79 80 75 80 81 76 70 72 68 85 85 80 73 75 71 24 28 28 24 28 28 24 28 28 24 28 28
90 90 84 74 76 71 81 82 77 92 92 85 90 91 84 73 75 71 100 99 92 73 75 70 95 95 88 82 83 77 75 76 72 105 104 96 94 94 87 105 104 96 74 75 71 91 91 84
103 102 94 78 79 74 76 77 72 102 101 93 73 75 70 92 92 86 90 90 84 101 100 93 73 74 70 88 88 82 92 92 85 101 100 92 104 103 95 87 88 82 86 87 81 96 96 89
74 76 71 72 74 69 99 98 91 104 103 95 89 89 83 97 96 89 90 90 84 72 74 70 79 80 75 82 83 78 97 97 90 74 76 71 84 85 80 88 89 82 101 101 93 24 28 28
24 28 28 24 28 28 24 28 28 24 28 28 24 28 28 24 28 28 24 28 28 24 28 28 24 28 28 24 28 28 24 28 28 24 28 28 24 28 28 24 28 28 24 28 28 24 28 28
24 28 28 24 28 28 24 28 28 24 28 28 24 28 28 24 28 28 24 28 28 24 28 28 24 28 28 24 28 28 24 28 28 24 28 28 24 28 28 24 28 28 24 28 28 24 28 28
24 28 28 24 28 28 24 28 28 24 28 28 24 28 28 24 28 28 24 28 28 24 28 28 24 28 28 24 28 28 24 28 28 24 28 28 24 28 28 24 28 28 24 28 28 24 28 28
24 28 28 24 28 28 24 28 28 62 69 78 61 68 77 48 55 64 24 28 28 53 60 69 44 51 60 42 49 58 50 57 66 24 28 28 48 55 64 65 72 81 58 65 74 59 66 75
40 65 80 38 62 77 36 59 73 81 72 90 34 57 71 35 58 73 40 65 81 34 57 71 36 59 74 37 61 77 99 62 78 36 60 75 31 53 66 42 68 85 33 56 70 33 56 70
46 73 92 90 68 85 35 58 72 50 78 97 44 69 86 46 72 89 49 76 94 51 79 98 41 65 79 18 18 16 18 18 16 18 18 16 18 18 16 182 158 44 182 158 44 182 158 44
182 158 44 182 158 44 182 158 44 182 158 44 182 158 44 182 158 44 182 158 44 182 158 44 182 158 44 18 18 16 18 18 16 18 18 16 18 18 16 182 158 44 182 158 44 182 158 44
182 158 44 182 158 44 182 158 44 182 158 44 18 18 16 18 18 16 18 18 16 18 18 16 182 158 44 182 158 44 182 158 44 182 158 44 182 158 44 182 158 44 182 158 44 182 158 44
18 18 16 18 18 16 18 18 16 18 18 16 182 158 44 182 158 44 182 158 44 182 158 44 182 158 44 182 158 44 182 158 44 182 158 44 182 158 44 182 158 44 182 158 44 182 158 44
182 158 44 20 22 20 20 22 20 20 22 20 37 62 77 35 59 74 98 63 79 43 69 87 36 60 75 39 63 79 46 73 91 47 74 92 41 66 81 52 80 99 47 73 90 40 64 78
50 78 96 40 64 79 47 72 89 45 71 87 52 79 97 119 74 92 43 67 82 57 86 106 42 66 81 55 84 103 42 66 81 56 85 104 52 80 99 24 28 28 24 28 28 24 28 28
24 28 28 24 28 28 24 28 28 24 28 28 24 28 28 24 28 28 78 80 75 74 76 72 90 90 84 92 92 86 88 89 83 88 88 82 84 85 79 104 103 95 76 78 73 99 99 91
86 87 81 72 73 69 98 97 90 70 72 68 24 28 28 24 28 28 24 28 28 94 94 87 82 83 77 71 73 69 82 83 77 83 84 79 24 28 28 24 28 28 24 28 28 24 28 28
78 79 74 76 77 72 94 94 87 104 103 95 99 98 91 104 103 95 79 80 75 90 90 84 98 97 90 95 95 88 80 81 76 90 91 84 79 80 75 86 87 81 88 89 82 71 73 69
84 85 79 96 96 89 95 95 88 78 79 74 79 80 75 77 78 74 94 94 87 98 98 91 77 78 73 86 87 81 100 99 92 70 72 68 94 94 87 98 98 90 97 97 90 73 75 71
76 78 73 76 77 73 102 101 94 76 77 72 103 102 94 93 93 86 86 87 81 82 83 78 73 75 70 91 91 85 94 94 87 71 73 69 97 97 90 86 87 81 92 92 86 24 28 28
24 28 28 24 28 28 24 28 28 24 28 28 24 28 28 24 28 28 24 28 28 24 28 28 24 28 28 24 28 28 24 28 28 24 28 28 24 28 28 24 28 28 24 28 28 24 28 28
24 28 28 24 28 28 24 28 28 24 28 28 24 28 28 24 28 28 24 28 28 24 28 28 24 28 28 24 28 28 24 28 28 24 28 28 24 28 28 24 28 28 24 28 28 24 28 28
24 28 28 24 28 28 24 28 28 24 28 28 24 28 28 24 28 28 24 28 28 24 28 28 24 28 28 24 28 28 24 28 28 24 28 28 24 28 28 24 28 28 24 28 28 24 28 28
24 28 28 24 28 28 24 28 28 48 55 64 44 51 60 52 59 68 24 28 28 63 70 79 46 53 62 45 52 61 50 57 66 24 28 28 43 50 59 53 60 69 52 59 68 68 75 84
49 76 93 42 66 81 43 67 83 116 68 84 50 77 95 40 64 80 39 64 79 49 76 95 44 70 87 43 69 85 83 68 85 34 56 70 46 72 90 60 73 91 45 72 89 40 64 80
41 65 81 43 68 84 44 69 86 43 68 84 45 70 87 52 79 98 42 66 81 128 71 87 50 76 94 18 18 16 18 18 16 18 18 16 18 18 16 182 158 44 182 158 44 182 158 44
182 158 44 182 158 44 182 158 44 182 158 44 182 158 44 182 158 44 182 158 44 182 158 44 182 158 44 18 18 16 18 18 16 18 18 16 18 18 16 182 158 44 182 158 44 182 158 44
182 158 44 182 158 44 182 158 44 182 158 44 18 18 16 18 18 16 18 18 16 18 18 16 182 158 44 182 158 44 182 158 44 182 158 44 182 158 44 182 158 44 182 158 44 182 158 44
18 18 16 18 18 16 18 18 16 18 18 16 182 158 44 182 158 44 182 158 44 182 158 44 182 158 44 182 158 44 182 158 44 182 158 44 182 158 44 182 158 44 182 158 44 182 158 44
182 158 44 20 22 20 20 22 20 20 22 20 90 66 83 35 59 73 99 65 81 46 72 90 90 68 85 49 76 95 36 60 74 50 78 97 40 64 79 39 62 77 39 62 77 52 80 99
56 85 104 49 75 92 57 86 105 51 77 95 49 75 92 113 78 96 69 87 107 104 80 98 57 86 105 57 85 105 45 69 85 47 73 90 54 83 102 24 28 28 24 28 28 24 28 28
24 28 28 24 28 28 24 28 28 24 28 28 24 28 28 24 28 28 102 101 93 103 102 94 88 88 82 89 89 83 74 75 71 70 72 68 74 75 71 84 85 79 91 91 85 98 98 90
73 75 70 80 81 76 73 75 71 73 75 70 24 28 28 24 28 28 24 28 28 83 84 79 71 73 69 101 100 93 80 81 76 93 93 87 24 28 28 24 28 28 24 28 28 24 28 28
95 95 88 74 76 72 73 75 70 97 97 90 90 90 84 78 79 74 105 104 96 84 85 79 95 94 88 80 81 76 80 81 76 72 74 70 73 74 70 94 94 88 93 93 87 85 86 80
93 93 86 79 80 75 86 87 81 84 85 79 93 93 86 102 101 94 98 98 90 74 75 71 100 99 92 98 98 90 75 77 72 98 98 91 89 89 83 104 103 95 78 80 75 95 95 88
104 103 95 83 84 78 79 80 75 79 81 76 84 85 79 78 79 74 71 73 69 72 73 69 85 86 80 72 74 70 84 85 79 90 90 84 85 86 80 71 73 69 102 101 94 24 28 28
24 28 28 24 28 28 24 28 28 24 28 28 24 28 28 24 28 28 24 28 28 24 28 28 24 28 28 24 28 28 24 28 28 24 28 28 24 28 28 24 28 28 24 28 28 24 28 28
24 28 28 24 28 28 24 28 28 24 28 28 24 28 28 24 28 28 24 28 28 24 28 28 24 28 28 24 28 28 24 28 28 24 28 28 24 28 28 24 28 28 24 28 28 24 28 28
24 28 28 24 28 28 24 28 28 24 28 28 24 28 28 24 28 28 24 28 28 24 28 28 24 28 28 24 28 28 24 28 28 24 28 28 24 28 28 24 28 28 24 28 28 24 28 28
24 28 28 24 28 28 24 28 28 57 64 73 57 64 73 42 49 58 24 28 28 58 65 74 53 60 69 53 60 69 67 74 83 24 28 28 60 67 76 57 64 73 63 70 79 69 76 85
46 71 86 56 85 104 62 84 103 44 68 83 96 74 91 50 77 94 45 70 86 46 72 89 43 68 84 36 58 71 36 59 73 42 67 83 38 62 76 41 66 81 45 70 86 52 79 98
51 78 96 48 74 91 63 81 100 40 64 78 50 77 94 57 85 105 120 75 92 56 84 103 49 74 91 18 18 16 18 18 16 18 18 16 18 18 16 182 158 44 182 158 44 182 158 44
182 158 44 182 158 44 182 158 44 182 158 44 182 158 44 182 158 44 182 158 44 182 158 44 182 158 44 18 18 16 18 18 16 18 18 16 18 18 16 182 158 44 182 158 44 182 158 44
182 158 44 182 158 44 182 158 44 182 158 44 18 18 16 18 18 16 18 18 16 18 18 16 182 158 44 182 158 44 182 158 44 182 158 44 182 158 44 182 158 44 182 158 44 182 158 44
18 18 16 18 18 16 18 18 16 18 18 16 182 158 44 182 158 44 182 158 44 182 158 44 182 158 44 182 158 44 182 158 44 182 158 44 182 158 44 182 158 44 182 158 44 182 158 44
182 158 44 20 22 20 20 22 20 20 22 20 36 59 72 51 78 97 45 71 87 39 62 76 51 79 98 79 75 93 48 74 91 120 69 86 43 68 83 49 75 92 45 69 85 54 81 100
83 84 103 50 76 93 61 90 110 111 81 99 58 86 105 56 83 101 126 79 97 58 86 105 51 77 93 52 78 95 46 71 86 48 73 89 89 83 102 24 28 28 24 28 28 24 28 28
24 28 28 24 28 28 24 28 28 24 28 28 24 28 28 24 28 28 72 74 70 74 76 71 102 101 93 70 72 68 78 79 74 88 89 82 78 79 74 82 83 78 100 99 92 91 91 84
104 103 95 84 85 79 88 89 83 91 91 85 24 28 28 24 28 28 24 28 28 89 90 83 96 96 89 84 85 79 92 92 86 76 77 72 24 28 28 24 28 28 24 28 28 24 28 28
82 83 78 95 95 88 73 75 70 94 94 87 88 89 83 94 94 87 94 94 88 74 75 71 100 99 92 85 86 80 97 97 90 105 104 96 90 90 84 103 102 94 99 99 92 80 82 76
83 84 78 92 92 86 85 85 80 81 82 77 87 87 82 81 82 77 82 83 78 82 83 78 100 99 92 81 82 77 84 84 79 98 98 91 91 91 85 84 85 79 101 100 93 84 85 80
101 100 93 79 80 75 73 75 70 103 102 94 74 75 71 86 86 81 87 88 82 95 95 88 79 81 76 74 76 71 101 100 93 82 83 78 90 90 84 101 100 92 82 83 77 24 28 28
24 28 28 24 28 28 24 28 28 24 28 28 24 28 28 24 28 28 24 28 28 24 28 28 24 28 28 24 28 28 24 28 28 24 28 28 24 28 28 24 28 28 24 28 28 24 28 28
24 28 28 24 28 28 24 28 28 24 28 28 24 28 28 24 28 28 24 28 28 24 28 28 24 28 28 24 28 28 24 28 28 24 28 28 24 28 28 24 28 28 24 28 28 24 28 28
24 28 28 24 28 28 24 28 28 24 28 28 24 28 28 24 28 28 24 28 28 24 28 28 24 28 28 24 28 28 24 28 28 24 28 28 24 28 28 24 28 28 24 28 28 24 28 28
24 28 28 24 28 28 24 28 28 41 48 57 56 63 72 58 65 74 24 28 28 43 50 59 46 53 62 50 57 66 41 48 57 24 28 28 60 67 76 63 70 79 67 74 83 62 69 78
55 81 99 46 70 85 54 81 98 45 69 84 117 75 92 42 65 79 42 65 79 45 69 85 94 76 93 42 66 80 54 82 100 42 65 80 43 67 82 46 71 87 55 82 101 44 68 83
55 83 101 91 79 97 48 73 89 52 78 95 122 77 94 56 83 101 54 79 96 50 74 90 64 93 113 18 18 16 18 18 16 18 18 16 18 18 16 182 158 44 182 158 44 182 158 44
182 158 44 182 158 44 182 158 44 182 158 44 182 158 44 182 158 44 182 158 44 182 158 44 182 158 44 18 18 16 18 18 16 18 18 16 18 18 16 182 158 44 182 158 44 182 158 44
182 158 44 182 158 44 182 158 44 182 158 44 18 18 16 18 18 16 18 18 16 18 18 16 182 158 44 182 158 44 182 158 44 182 158 44 182 158 44 182 158 44 182 158 44 182 158 44
18 18 16 18 18 16 18 18 16 18 18 16 182 158 44 182 158 44 182 158 44 182 158 44 182 158 44 182 158 44 182 158 44 182 158 44 182 158 44 182 158 44 182 158 44 182 158 44
182 158 44 20 22 20 20 22 20 20 22 20 49 75 92 47 72 89 46 71 86 53 80 98 52 79 97 47 72 88 57 85 104 119 75 92 93 81 99 47 71 86 56 82 100 48 72 87
63 92 112 50 75 90 61 89 108 60 88 106 58 84 102 61 89 107 65 94 114 60 87 106 59 86 104 61 89 108 56 82 99 62 91 111 55 81 99 24 28 28 24 28 28 24 28 28
24 28 28 24 28 28 24 28 28 24 28 28 24 28 28 24 28 28 101 100 93 80 81 76 101 100 93 85 86 80 91 92 85 96 96 89 88 89 83 95 95 88 92 92 86 103 102 94
88 88 82 98 98 91 81 82 77 86 86 81 24 28 28 24 28 28 24 28 28 77 79 74 73 75 71 81 82 77 97 96 89 86 87 81 24 28 28 24 28 28 24 28 28 24 28 28
85 86 80 99 98 91 80 81 76 99 98 91 89 90 83 94 94 87 76 77 72 74 76 71 104 103 95 90 90 84 91 91 84 102 101 94 84 84 79 91 91 85 74 75 71 85 86 80
99 99 91 84 85 79 84 85 79 104 103 95 96 96 89 97 96 89 73 75 70 75 76 72 104 103 96 96 96 89 82 83 78 87 87 81 86 86 81 86 87 81 73 75 70 77 79 74
72 74 70 75 77 72 78 80 75 78 79 74 70 72 68 73 74 70 99 99 91 83 84 78 88 89 82 75 77 72 86 86 81 79 80 75 86 86 81 102 101 93 74 75 71 24 28 28
24 28 28 24 28 28 24 28 28 24 28 28 24 28 28 24 28 28 24 28 28 24 28 28 24 28 28 24 28 28 24 28 28 24 28 28 24 28 28 24 28 28 24 28 28 24 28 28
24 28 28 24 28 28 24 28 28 24 28 28 24 28 28 24 28 28 24 28 28 24 28 28 24 28 28 24 28 28 24 28 28 24 28 28 24 28 28 24 28 28 24 28 28 24 28 28
24 28 28 24 28 28 24 28 28 24 28 28 24 28 28 24 28 28 24 28 28 24 28 28 24 28 28 24 28 28 24 28 28 24 28 28 24 28 28 24 28 28 24 28 28 24 28 28
24 28 28 24 28 28 24 28 28 55 62 71 65 72 81 45 52 61 24 28 28 46 53 62 48 55 64 61 68 77 47 54 63 24 28 28 54 61 70 68 75 84 68 75 84 53 60 69
56 82 99 57 83 100 51 76 92 85 88 107 60 88 106 78 87 106 57 84 101 47 71 86 54 80 98 117 76 92 127 73 89 57 85 103 47 71 86 53 79 96 52 78 95 58 86 104
56 83 100 49 74 89 50 75 90 50 75 90 58 85 102 59 85 103 55 81 97 56 81 98 73 97 118 18 18 16 18 18 16 18 18 16 18 18 16 182 158 44 182 158 44 182 158 44
182 158 44 182 158 44 182 158 44 182 158 44 182 158 44 182 158 44 182 158 44 182 158 44 182 158 44 18 18 16 18 18 16 18 18 16 18 18 16 182 158 44 182 158 44 182 158 44
182 158 44 182 158 44 182 158 44 182 158 44 18 18 16 18 18 16 18 18 16 18 18 16 182 158 44 182 158 44 182 158 44 182 158 44 182 158 44 182 158 44 182 158 44 182 158 44
18 18 16 18 18 16 18 18 16 18 18 16 182 158 44 182 158 44 182 158 44 182 158 44 182 158 44 182 158 44 182 158 44 182 158 44 182 158 44 182 158 44 182 158 44 182 158 44
182 158 44 20 22 20 20 22 20 20 22 20 47 71 86 47 71 86 56 84 102 56 82 100 60 88 107 55 81 98 47 71 86 57 83 101 61 89 108 59 86 104 53 78 93 66 95 115
53 78 94 103 91 110 61 88 106 67 96 116 134 88 106 58 83 100 84 98 119 114 92 111 57 83 99 55 80 96 66 94 113 63 90 109 62 90 108 24 28 28 24 28 28 24 28 28
24 28 28 24 28 28 24 28 28 24 28 28 24 28 28 24 28 28 104 103 95 74 75 71 76 77 73 71 73 69 81 82 76 104 103 95 78 79 74 95 95 88 84 85 79 74 76 71
103 102 94 73 75 71 96 95 88 102 102 94 24 28 28 24 28 28 24 28 28 101 100 93 87 88 82 94 94 87 103 102 94 84 84 79 24 28 28 24 28 28 24 28 28 24 28 28
83 84 78 79 80 75 75 77 72 91 91 84 98 98 91 93 93 86 88 89 83 103 102 95 85 86 80 78 79 74 95 94 88 76 78 73 76 78 73 72 74 69 70 72 68 90 91 84
105 104 96 82 86 84 104 108 106 95 99 97 86 90 88 87 91 89 82 86 84 85 89 87 104 108 106 92 96 94 103 107 105 103 107 105 88 92 90 86 90 88 92 96 94 87 91 89
95 99 97 97 101 99 102 106 104 105 109 107 92 96 94 85 89 87 97 101 99 85 89 87 79 83 81 91 95 93 94 98 96 93 97 95 99 103 101 85 89 87 100 104 102 98 102 100
102 106 104 82 86 84 89 93 91 91 95 93 85 89 87 83 87 85 90 94 92 105 109 107 79 83 81 96 100 98 99 103 101 96 100 98 104 108 106 98 102 100 81 85 83 105 109 107
90 94 92 85 89 87 102 106 104 82 86 84 92 96 94 81 85 83 90 94 92 82 86 84 83 87 85 83 87 85 82 86 84 96 100 98 89 93 91 85 89 87 95 99 97 92 96 94
98 102 100 81 85 83 101 105 103 103 107 105 88 92 90 93 97 95 95 99 97 89 93 91 94 98 96 103 107 105 80 84 82 105 109 107 82 86 84 83 87 85 79 83 81 83 87 85
24 28 28 24 28 28 24 28 28 45 52 61 48 55 64 64 71 80 24 28 28 51 58 67 45 52 61 61 68 77 62 69 78 24 28 28 60 67 76 46 53 62 46 53 62 68 75 84
65 93 111 54 79 94 62 89 108 64 93 112 103 87 105 64 92 112 55 81 98 52 76 92 56 82 99 56 83 100 51 75 91 59 86 104 100 82 100 58 85 102 50 73 88 54 79 96
59 86 104 51 75 90 57 83 100 59 85 102 61 88 106 68 97 118 64 91 110 79 99 119 68 96 116 18 18 16 18 18 16 18 18 16 18 18 16 182 158 44 182 158 44 182 158 44
182 158 44 182 158 44 182 158 44 182 158 44 182 158 44 182 158 44 182 158 44 182 158 44 182 158 44 18 18 16 18 18 16 18 18 16 18 18 16 182 158 44 182 158 44 182 158 44
182 158 44 182 158 44 182 158 44 182 158 44 18 18 16 18 18 16 18 18 16 18 18 16 182 158 44 182 158 44 182 158 44 182 158 44 182 158 44 182 158 44 182 158 44 182 158 44
18 18 16 18 18 16 18 18 16 18 18 16 182 158 44 182 158 44 182 158 44 182 158 44 182 158 44 182 158 44 182 158 44 182 158 44 182 158 44 182 158 44 182 158 44 182 158 44
182 158 44 20 22 20 20 22 20 20 22 20 53 79 95 91 84 102 55 81 97 53 78 94 55 80 97 52 76 92 54 79 95 58 84 102 55 80 96 54 78 94 58 84 101 62 88 106
56 81 97 68 97 116 71 100 121 65 92 110 65 92 110 72 101 121 63 90 107 58 84 100 59 84 100 60 86 103 97 98 117 62 89 107 68 97 116 24 28 28 24 28 28 24 28 28
24 28 28 24 28 28 24 28 28 24 28 28 24 28 28 24 28 28 97 96 89 86 87 81 71 73 69 73 75 70 75 77 72 88 89 83 86 87 81 73 74 70 102 101 93 95 95 88
102 101 94 75 77 72 103 102 94 89 89 83 24 28 28 24 28 28 24 28 28 105 104 96 103 102 94 72 74 70 78 80 75 73 75 71 24 28 28 24 28 28 24 28 28 24 28 28
77 78 73 71 73 68 101 100 93 100 100 92 76 77 72 95 95 88 98 98 91 98 98 90 90 90 84 98 97 90 88 88 82 93 93 87 103 102 94 101 100 93 92 92 85 74 76 72
71 73 69 96 100 98 90 94 92 96 100 98 104 108 106 93 97 95 85 89 87 86 90 88 88 92 90 88 92 90 86 90 88 93 97 95 89 93 91 102 106 104 84 88 86 103 107 105
87 91 89 80 84 82 97 101 99 99 103 101 85 89 87 86 90 88 81 85 83 86 90 88 94 98 96 96 100 98 98 102 100 83 87 85 89 93 91 88 92 90 84 88 86 105 109 107
104 108 106 84 88 86 98 102 100 91 95 93 100 104 102 94 98 96 106 110 108 83 87 85 89 93 91 92 96 94 105 109 107 86 90 88 84 88 86 97 101 99 88 92 90 93 97 95
92 96 94 99 103 101 81 85 83 88 92 90 92 96 94 99 103 101 81 85 83 92 96 94 90 94 92 102 106 104 85 89 87 96 100 98 103 107 105 83 87 85 94 98 96 79 83 81
88 92 90 103 107 105 90 94 92 93 97 95 97 101 99 82 86 84 101 105 103 84 88 86 91 95 93 85 89 87 93 97 95 93 97 95 92 96 94 79 83 81 106 110 108 89 93 91
24 28 28 24 28 28 24 28 28 53 60 69 68 75 84 58 65 74 24 28 28 50 57 66 67 74 83 58 65 74 67 74 83 24 28 28 60 67 76 54 61 70 68 75 84 57 64 73
88 96 116 66 94 114 53 77 92 64 92 111 113 86 103 97 87 106 59 86 103 54 79 95 53 78 94 56 82 99 61 89 108 57 83 100 51 75 90 61 89 108 50 73 88 55 80 97
55 80 96 51 74 89 52 76 91 76 95 114 55 80 96 63 90 108 69 98 118 138 87 105 63 90 108 18 18 16 18 18 16 18 18 16 18 18 16 182 158 44 182 158 44 182 158 44
182 158 44 182 158 44 182 158 44 182 158 44 182 158 44 182 158 44 182 158 44 182 158 44 182 158 44 18 18 16 18 18 16 18 18 16 18 18 16 182 158 44 182 158 44 182 158 44
182 158 44 182 158 44 182 158 44 182 158 44 18 18 16 18 18 16 18 18 16 18 18 16 182 158 44 182 158 44 182 158 44 182 158 44 182 158 44 182 158 44 182 158 44 182 158 44
18 18 16 18 18 16 18 18 16 18 18 16 182 158 44 182 158 44 182 158 44 182 158 44 182 158 44 182 158 44 182 158 44 182 158 44 182 158 44 182 158 44 182 158 44 182 158 44
182 158 44 20 22 20 20 22 20 20 22 20 61 88 107 49 73 87 52 77 92 55 81 97 55 81 97 62 89 108 62 89 107 64 92 111 64 92 111 102 91 109 60 86 103 55 79 95
71 101 121 66 93 112 59 85 101 69 98 118 62 88 105 61 87 104 72 101 122 98 100 120 61 87 103 67 94 113 143 89 107 67 96 115 71 100 121 24 28 28 24 28 28 24 28 28
24 28 28 24 28 28 24 28 28 24 28 28 24 28 28 24 28 28 85 86 80 73 75 70 83 84 79 72 74 70 87 88 82 80 81 76 71 73 69 77 79 74 95 95 88 93 93 86
94 94 87 77 79 74 81 82 77 90 90 84 24 28 28 24 28 28 24 28 28 72 74 69 85 86 80 96 96 89 85 86 80 95 95 88 24 28 28 24 28 28 24 28 28 24 28 28
84 84 79 78 79 75 81 82 77 85 86 80 77 78 74 92 92 86 99 99 91 86 86 80 77 78 73 71 73 69 80 81 76 85 86 80 90 90 84 71 73 69 71 73 69 93 93 86
94 94 88 104 108 106 89 93 91 85 89 87 90 94 92 104 108 106 84 88 86 100 104 102 100 104 102 98 102 100 82 86 84 90 94 92 93 97 95 81 85 83 100 104 102 99 103 101
86 90 88 83 87 85 91 95 93 99 103 101 105 109 107 92 96 94 99 103 101 83 87 85 94 98 96 99 103 101 90 94 92 82 86 84 105 109 107 97 101 99 97 101 99 100 104 102
83 87 85 89 93 91 83 87 85 105 109 107 89 93 91 87 91 89 103 107 105 78 82 80 92 96 94 93 97 95 104 108 106 79 83 81 96 100 98 80 84 82 79 83 81 95 99 97
86 90 88 80 84 82 79 83 81 83 87 85 99 103 101 98 102 100 98 102 100 86 90 88 89 93 91 85 89 87 98 102 100 95 99 97 97 101 99 90 94 92 89 93 91 88 92 90
96 100 98 79 83 81 93 97 95 86 90 88 95 99 97 84 88 86 96 100 98 82 86 84 93 97 95 102 106 104 83 87 85 88 92 90 104 108 106 96 100 98 83 87 85 81 85 83
24 28 28 24 28 28 24 28 28 64 71 80 47 54 63 43 50 59 24 28 28 49 56 65 59 66 75 67 74 83 48 55 64 24 28 28 47 54 63 62 69 78 56 63 72 45 52 61
61 88 106 52 76 91 54 79 95 52 76 91 56 81 98 53 78 94 51 76 92 49 73 88 54 80 97 53 78 95 45 69 83 60 88 107 110 78 95 52 77 93 55 81 98 58 84 102
56 83 100 55 81 98 64 93 112 60 87 105 60 86 104 59 85 102 58 84 100 64 91 110 57 83 99 18 18 16 18 18 16 18 18 16 18 18 16 182 158 44 182 158 44 182 158 44
182 158 44 182 158 44 182 158 44 182 158 44 182 158 44 182 158 44 182 158 44 182 158 44 182 158 44 18 18 16 18 18 16 18 18 16 18 18 16 182 158 44 182 158 44 182 158 44
182 158 44 182 158 44 182 158 44 182 158 44 18 18 16 18 18 16 18 18 16 18 18 16 182 158 44 182 158 44 182 158 44 182 158 44 182 158 44 182 158 44 182 158 44 182 158 44
18 18 16 18 18 16 18 18 16 18 18 16 182 158 44 182 158 44 182 158 44 182 158 44 182 158 44 182 158 44 182 158 44 182 158 44 182 158 44 182 158 44 182 158 44 182 158 44
182 158 44 20 22 20 20 22 20 20 22 20 45 69 83 51 76 92 50 74 90 51 76 92 55 82 99 50 74 90 57 84 102 49 73 87 54 79 95 76 93 113 64 92 111 59 85 103
54 79 94 65 92 111 140 87 104 109 94 113 67 96 115 68 97 117 67 95 115 70 100 120 60 85 102 64 91 110 63 89 107 64 91 109 60 86 104 24 28 28 24 28 28 24 28 28
24 28 28 24 28 28 24 28 28 24 28 28 24 28 28 24 28 28 101 100 93 87 88 82 84 84 79 81 82 77 81 82 77 101 101 93 103 103 95 80 81 76 93 93 86 83 84 79
75 77 72 88 88 82 96 96 89 88 88 82 24 28 28 24 28 28 24 28 28 85 86 80 80 81 76 72 74 70 92 92 86 105 104 96 24 28 28 24 28 28 24 28 28 24 28 28
84 85 79 84 85 79 99 99 92 95 95 88 80 81 76 90 90 84 105 104 96 96 96 89 78 79 74 96 96 89 91 91 85 91 91 85 101 100 93 99 99 91 97 96 89 98 98 91
104 103 96 94 98 96 85 89 87 96 100 98 88 92 90 91 95 93 80 84 82 87 91 89 103 107 105 98 102 100 79 83 81 80 84 82 94 98 96 79 83 81 83 87 85 93 97 95
84 88 86 91 95 93 96 100 98 91 95 93 84 88 86 100 104 102 86 90 88 102 106 104 92 96 94 93 97 95 88 92 90 101 105 103 84 88 86 98 102 100 104 108 106 101 105 103
98 102 100 97 101 99 97 101 99 103 107 105 90 94 92 86 90 88 94 98 96 101 105 103 86 90 88 98 102 100 81 85 83 79 83 81 81 85 83 92 96 94 98 102 100 80 84 82
97 101 99 91 95 93 87 91 89 85 89 87 88 92 90 84 88 86 94 98 96 85 89 87 81 85 83 86 90 88 84 88 86 97 101 99 106 110 108 91 95 93 101 105 103 97 101 99
95 99 97 98 102 100 84 88 86 78 82 80 92 96 94 102 106 104 85 89 87 95 99 97 98 102 100 81 85 83 104 108 106 99 103 101 99 103 101 82 86 84 87 91 89 91 95 93
24 28 28 24 28 28 24 28 28 61 68 77 49 56 65 64 71 80 24 28 28 47 54 63 44 51 60 61 68 77 43 50 59 24 28 28 51 58 67 42 49 58 46 53 62 54 61 70
60 87 106 108 83 101 60 88 107 58 85 103 58 86 104 56 83 102 49 73 89 50 75 92 47 71 87 46 70 85 98 76 93 45 69 84 51 77 94 49 75 91 46 70 85 48 73 89
47 71 87 51 77 93 57 84 103 47 71 86 59 87 106 55 81 98 63 91 111 53 78 94 53 79 95 18 18 16 18 18 16 18 18 16 18 18 16 182 158 44 182 158 44 182 158 44
182 158 44 182 158 44 182 158 44 182 158 44 182 158 44 182 158 44 182 158 44 182 158 44 182 158 44 18 18 16 18 18 16 18 18 16 18 18 16 182 158 44 182 158 44 182 158 44
182 158 44 182 158 44 182 158 44 182 158 44 18 18 16 18 18 16 18 18 16 18 18 16 182 158 44 182 158 44 182 158 44 182 158 44 182 158 44 182 158 44 182 158 44 182 158 44
18 18 16 18 18 16 18 18 16 18 18 16 182 158 44 182 158 44 182 158 44 182 158 44 182 158 44 182 158 44 182 158 44 182 158 44 182 158 44 182 158 44 182 158 44 182 158 44
182 158 44 20 22 20 20 22 20 20 22 20 42 65 78 41 64 78 56 83 102 52 78 95 47 72 87 45 69 83 104 79 96 116 78 95 49 73 89 129 78 94 53 79 95 61 89 108
52 77 93 54 79 96 128 84 102 61 89 107 61 88 107 60 87 105 65 94 114 60 87 105 59 85 103 64 92 112 64 92 112 57 83 100 59 86 104 24 28 28 24 28 28 24 28 28
24 28 28 24 28 28 24 28 28 24 28 28 24 28 28 24 28 28 86 87 81 86 87 81 102 101 93 70 72 68 102 101 93 81 82 77 103 102 95 86 87 81 86 87 81 76 77 73
85 86 80 104 103 95 101 100 93 94 94 87 24 28 28 24 28 28 24 28 28 78 79 74 104 103 95 81 82 77 90 90 84 79 80 75 24 28 28 24 28 28 24 28 28 24 28 28
95 95 88 99 99 92 104 103 95 84 84 79 78 79 74 87 88 82 81 82 77 90 90 84 99 99 91 96 95 89 82 83 78 91 91 85 71 73 69 75 76 72 77 79 74 98 98 90
101 100 93 103 107 105 88 92 90 91 95 93 90 94 92 96 100 98 80 84 82 96 100 98 82 86 84 97 101 99 81 85 83 98 102 100 94 98 96 98 102 100 106 110 108 80 84 82
103 107 105 80 84 82 101 105 103 81 85 83 86 90 88 102 106 104 90 94 92 89 93 91 88 92 90 89 93 91 90 94 92 103 107 105 78 82 80 80 84 82 80 84 82 101 105 103
87 91 89 96 100 98 87 91 89 95 99 97 99 103 101 90 94 92 89 93 91 92 96 94 106 110 108 94 98 96 102 106 104 81 85 83 89 93 91 90 94 92 79 83 81 97 101 99
81 85 83 94 98 96 101 105 103 89 93 91 106 110 108 88 92 90 104 108 106 104 108 106 103 107 105 80 84 82 79 83 81 96 100 98 96 100 98 99 103 101 91 95 93 83 87 85
90 94 92 104 108 106 94 98 96 99 103 101 95 99 97 80 84 82 89 93 91 89 93 91 104 108 106 95 99 97 97 101 99 97 101 99 82 86 84 88 92 90 91 95 93 90 94 92
24 28 28 24 28 28 24 28 28 51 58 67 67 74 83 59 66 75 24 28 28 68 75 84 48 55 64 54 61 70 55 62 71 24 28 28 55 62 71 44 51 60 67 74 83 67 74 83
56 84 102 45 69 84 45 70 85 53 80 98 53 81 99 93 75 93 51 78 96 48 74 91 51 77 95 69 77 95 49 75 92 50 77 95 41 65 80 123 66 82 42 67 82 97 73 90
46 71 88 54 82 101 43 66 81 55 83 101 45 70 85 113 77 94 59 87 107 57 85 104 52 78 95 18 18 16 18 18 16 18 18 16 18 18 16 182 158 44 182 158 44 182 158 44
182 158 44 182 158 44 182 158 44 182 158 44 182 158 44 182 158 44 182 158 44 182 158 44 182 158 44 18 18 16 18 18 16 18 18 16 18 18 16 182 158 44 182 158 44 182 158 44
182 158 44 182 158 44 182 158 44 182 158 44 18 18 16 18 18 16 18 18 16 18 18 16 182 158 44 182 158 44 182 158 44 182 158 44 182 158 44 182 158 44 182 158 44 182 158 44
18 18 16 18 18 16 18 18 16 18 18 16 182 158 44 182 158 44 182 158 44 182 158 44 182 158 44 182 158 44 182 158 44 182 158 44 182 158 44 182 158 44 182 158 44 182 158 44
182 158 44 20 22 20 20 22 20 20 22 20 37 60 73 52 79 97 41 65 80 38 60 74 48 74 90 101 73 90 42 66 81 48 73 90 47 72 88 49 74 91 131 73 90 56 84 103
51 76 93 78 88 107 49 74 90 62 91 111 51 76 92 58 85 104 64 93 114 53 79 96 61 90 110 51 76 92 51 77 94 54 80 98 59 88 107 24 28 28 24 28 28 24 28 28
24 28 28 24 28 28 24 28 28 24 28 28 24 28 28 24 28 28 70 72 68 80 81 76 82 83 78 83 84 79 88 89 83 82 83 78 97 97 90 93 93 86 101 101 93 87 87 81
91 91 85 75 77 72 87 87 81 83 84 79 24 28 28 24 28 28 24 28 28 95 95 88 92 92 85 90 90 84 72 74 70 87 88 82 24 28 28 24 28 28 24 28 28 24 28 28
24 28 28 24 28 28 24 28 28 24 28 28 24 28 28 24 28 28 24 28 28 24 28 28 24 28 28 24 28 28 24 28 28 24 28 28 24 28 28 24 28 28 24 28 28 24 28 28
24 28 28 86 90 88 89 93 91 104 108 106 80 84 82 106 110 108 86 90 88 83 87 85 96 100 98 84 88 86 91 95 93 94 98 96 91 95 93 81 85 83 79 83 81 84 88 86
98 102 100 103 107 105 102 106 104 96 100 98 85 89 87 101 105 103 101 105 103 88 92 90 95 99 97 99 103 101 98 102 100 103 107 105 89 93 91 87 91 89 89 93 91 103 107 105
101 105 103 80 84 82 88 92 90 104 108 106 95 99 97 91 95 93 79 83 81 95 99 97 87 91 89 101 105 103 78 82 80 100 104 102 87 91 89 93 97 95 93 97 95 100 104 102
94 98 96 104 108 106 93 97 95 93 97 95 94 98 96 102 106 104 82 86 84 104 108 106 105 109 107 87 91 89 101 105 103 87 91 89 104 108 106 100 104 102 99 103 101 89 93 91
85 89 87 88 92 90 103 107 105 102 106 104 102 106 104 87 91 89 104 108 106 92 96 94 96 100 98 82 86 84 80 84 82 103 107 105 83 87 85 80 84 82 79 83 81 100 104 102
24 28 28 24 28 28 24 28 28 50 57 66 51 58 67 55 62 71 24 28 28 43 50 59 42 49 58 48 55 64 48 55 64 24 28 28 68 75 84 55 62 71 45 52 61 52 59 68
50 76 93 52 79 97 39 63 77 39 63 77 44 69 85 50 78 96 45 71 88 37 61 75 38 61 76 42 68 84 108 64 80 41 67 83 34 57 70 48 75 93 35 58 72 50 77 96
49 77 95 40 64 79 89 73 91 44 69 85 41 65 80 44 68 84 75 82 101 55 83 101 58 87 106 18 18 16 18 18 16 18 18 16 18 18 16 182 158 44 182 158 44 182 158 44
182 158 44 182 158 44 182 158 44 182 158 44 182 158 44 182 158 44 182 158 44 182 158 44 182 158 44 18 18 16 18 18 16 18 18 16 18 18 16 182 158 44 182 158 44 182 158 44
182 158 44 182 158 44 182 158 44 182 158 44 18 18 16 18 18 16 18 18 16 18 18 16 182 158 44 182 158 44 182 158 44 182 158 44 182 158 44 182 158 44 182 158 44 182 158 44
18 18 16 18 18 16 18 18 16 18 18 16 182 158 44 182 158 44 182 158 44 182 158 44 182 158 44 182 158 44 182 158 44 182 158 44 182 158 44 182 158 44 182 158 44 182 158 44
182 158 44 20 22 20 20 22 20 20 22 20 36 59 74 40 65 81 44 70 87 49 76 95 36 59 72 39 62 77 49 76 94 45 70 87 70 78 97 42 67 82 51 78 96 126 71 88
51 78 95 47 73 89 47 72 88 55 83 102 60 89 109 53 80 97 56 84 103 54 81 99 46 70 86 49 75 92 59 87 107 46 71 87 124 74 91 24 28 28 24 28 28 24 28 28
24 28 28 24 28 28 24 28 28 24 28 28 24 28 28 24 28 28 77 79 74 92 92 86 88 88 82 75 77 72 84 84 79 96 96 89 80 81 76 80 82 76 97 97 90 84 85 79
92 92 85 96 95 88 77 79 74 77 79 74 24 28 28 24 28 28 24 28 28 82 83 77 73 75 70 82 83 78 83 84 78 93 93 86 24 28 28 24 28 28 24 28 28 24 28 28
24 28 28 24 28 28 24 28 28 24 28 28 24 28 28 24 28 28 24 28 28 24 28 28 24 28 28 24 28 28 24 28 28 24 28 28 24 28 28 24 28 28 24 28 28 24 28 28
24 28 28 87 91 89 82 86 84 87 91 89 89 93 91 83 87 85 93 97 95 85 89 87 101 105 103 101 105 103 105 109 107 80 84 82 99 103 101 83 87 85 99 103 101 106 110 108
97 101 99 95 99 97 103 107 105 103 107 105 90 94 92 85 89 87 95 99 97 100 104 102 89 93 91 92 96 94 84 88 86 106 110 108 78 82 80 103 107 105 95 99 97 99 103 101
87 91 89 96 100 98 98 102 100 101 105 103 79 83 81 91 95 93 84 88 86 79 83 81 87 91 89 82 86 84 89 93 91 84 88 86 88 92 90 91 95 93 99 103 101 96 100 98
88 92 90 102 106 104 99 103 101 87 91 89 93 97 95 78 82 80 105 109 107 99 103 101 93 97 95 93 97 95 105 109 107 105 109 107 91 95 93 81 85 83 98 102 100 103 107 105
100 104 102 98 102 100 91 95 93 102 106 104 102 106 104 96 100 98 95 99 97 94 98 96 97 101 99 79 83 81 99 103 101 85 89 87 85 89 87 94 98 96 88 92 90 81 85 83
24 28 28 24 28 28 24 28 28 51 58 67 65 72 81 63 70 79 24 28 28 54 61 70 45 52 61 43 50 59 42 49 58 24 28 28 63 70 79 57 64 73 68 75 84 51 58 67
51 78 97 96 73 90 50 77 96 50 78 97 35 58 72 45 71 88 38 63 78 45 72 90 37 61 76 42 68 85 34 58 72 41 66 83 38 62 77 45 72 89 41 67 83 39 63 79
39 63 78 48 76 94 50 77 96 51 79 98 38 62 76 51 79 97 53 82 101 49 76 94 54 83 102 18 18 16 18 18 16 18 18 16 18 18 16 182 158 44 182 158 44 182 158 44
182 158 44 182 158 44 182 158 44 182 158 44 182 158 44 182 158 44 182 158 44 182 158 44 182 158 44 18 18 16 18 18 16 18 18 16 18 18 16 182 158 44 182 158 44 182 158 44
182 158 44 182 158 44 182 158 44 182 158 44 18 18 16 18 18 16 18 18 16 18 18 16 182 158 44 182 158 44 182 158 44 182 158 44 182 158 44 182 158 44 182 158 44 182 158 44
18 18 16 18 18 16 18 18 16 18 18 16 182 158 44 182 158 44 182 158 44 182 158 44 182 158 44 182 158 44 182 158 44 182 158 44 182 158 44 182 158 44 182 158 44 182 158 44
182 158 44 20 22 20 20 22 20 20 22 20 35 58 73 32 54 68 35 58 72 81 68 85 35 58 73 48 75 93 42 67 83 40 64 79 48 75 93 39 63 79 39 63 78 48 75 93
51 79 97 47 73 90 41 65 80 120 74 91 55 83 103 111 77 95 57 86 105 55 83 102 54 82 101 51 78 96 47 73 90 56 85 105 44 69 85 24 28 28 24 28 28 24 28 28
24 28 28 24 28 28 24 28 28 24 28 28 24 28 28 24 28 28 81 82 77 71 73 69 95 95 88 102 101 94 81 82 77 85 86 80 77 78 74 99 99 91 104 103 96 88 89 82
93 93 86 79 80 75 102 101 94 103 102 94 24 28 28 24 28 28 24 28 28 97 97 90 94 94 87 71 73 69 77 78 73 84 85 79 24 28 28 24 28 28 24 28 28 24 28 28
24 28 28 24 28 28 24 28 28 24 28 28 24 28 28 24 28 28 24 28 28 24 28 28 24 28 28 24 28 28 24 28 28 24 28 28 24 28 28 24 28 28 24 28 28 24 28 28
24 28 28 94 98 96 98 102 100 102 106 104 106 110 108 82 86 84 82 86 84 92 96 94 87 91 89 103 107 105 80 84 82 93 97 95 103 107 105 84 88 86 104 108 106 97 101 99
102 106 104 83 87 85 88 92 90 82 86 84 83 87 85 91 95 93 88 92 90 96 100 98 98 102 100 97 101 99 86 90 88 104 108 106 86 90 88 92 96 94 96 100 98 104 108 106
103 107 105 91 95 93 106 110 108 90 94 92 81 85 83 105 109 107 95 99 97 80 84 82 105 109 107 100 104 102 86 90 88 105 109 107 96 100 98 100 104 102 95 99 97 78 82 80
105 109 107 94 98 96 100 104 102 84 88 86 101 105 103 87 91 89 79 83 81 87 91 89 97 101 99 90 94 92 78 82 80 105 109 107 97 101 99 84 88 86 82 86 84 99 103 101
101 105 103 92 96 94 80 84 82 88 92 90 92 96 94 100 104 102 94 98 96 87 91 89 100 104 102 94 98 96 90 94 92 87 91 89 105 109 107 88 92 90 83 87 85 104 108 106
24 28 28 24 28 28 24 28 28 55 62 71 69 76 85 48 55 64 24 28 28 65 72 81 56 63 72 50 57 66 66 73 82 24 28 28 59 66 75 55 62 71 60 67 76 60 67 76
94 73 91 48 75 93 52 79 98 35 57 71 35 58 72 42 68 84 34 57 72 42 67 84 32 54 68 34 57 72 37 61 76 37 62 77 36 60 75 34 57 72 44 70 88 38 63 78
96 65 81 37 61 76 34 57 71 36 59 74 57 78 97 74 76 94 38 62 76 49 76 94 52 80 99 18 18 16 18 18 16 18 18 16 18 18 16 182 158 44 182 158 44 182 158 44
182 158 44 182 158 44 182 158 44 182 158 44 182 158 44 182 158 44 182 158 44 182 158 44 182 158 44 18 18 16 18 18 16 18 18 16 18 18 16 182 158 44 182 158 44 182 158 44
182 158 44 182 158 44 182 158 44 182 158 44 18 18 16 18 18 16 18 18 16 18 18 16 182 158 44 182 158 44 182 158 44 182 158 44 182 158 44 182 158 44 182 158 44 182 158 44
18 18 16 18 18 16 18 18 16 18 18 16 182 158 44 182 158 44 182 158 44 182 158 44 182 158 44 182 158 44 182 158 44 182 158 44 182 158 44 182 158 44 182 158 44 182 158 44
182 158 44 20 22 20 20 22 20 20 22 20 42 68 85 30 53 66 109 60 75 41 66 83 43 70 87 42 67 84 42 68 85 38 62 77 50 77 96 37 61 75 50 77 96 38 62 76
45 71 87 51 79 97 69 82 101 87 79 98 48 74 91 50 77 95 51 79 97 65 85 105 48 74 92 43 68 84 51 78 96 42 67 82 47 73 91 24 28 28 24 28 28 24 28 28
24 28 28 24 28 28 24 28 28 24 28 28 24 28 28 24 28 28 72 74 69 77 78 73 80 81 76 98 97 90 77 78 74 99 99 91 88 88 82 82 83 78 88 89 83 96 95 88
72 74 70 99 99 91 97 97 90 93 93 86 24 28 28 24 28 28 24 28 28 91 91 85 73 75 71 86 87 81 77 79 74 89 89 83 24 28 28 24 28 28 24 28 28 24 28 28
24 28 28 24 28 28 24 28 28 24 28 28 24 28 28 24 28 28 24 28 28 24 28 28 24 28 28 24 28 28 24 28 28 24 28 28 24 28 28 24 28 28 24 28 28 24 28 28
24 28 28 100 104 102 81 85 83 83 87 85 106 110 108 104 108 106 80 84 82 84 88 86 98 102 100 81 85 83 92 96 94 104 108 106 100 104 102 92 96 94 95 99 97 96 100 98
99 103 101 88 92 90 79 83 81 79 83 81 94 98 96 84 88 86 105 109 107 96 100 98 105 109 107 90 94 92 97 101 99 95 99 97 100 104 102 86 90 88 82 86 84 83 87 85
105 109 107 103 107 105 97 101 99 103 107 105 94 98 96 90 94 92 101 105 103 105 109 107 87 91 89 104 108 106 83 87 85 88 92 90 96 100 98 79 83 81 100 104 102 100 104 102
91 95 93 103 107 105 103 107 105 87 91 89 84 88 86 93 97 95 105 109 107 80 84 82 82 86 84 79 83 81 101 105 103 91 95 93 84 88 86 96 100 98 97 101 99 82 86 84
94 98 96 100 104 102 87 91 89 103 107 105 88 92 90 99 103 101 90 94 92 104 108 106 87 91 89 100 104 102 101 105 103 89 93 91 93 97 95 89 93 91 103 107 105 87 91 89
24 28 28 24 28 28 24 28 28 62 69 78 68 75 84 51 58 67 24 28 28 67 74 83 65 72 81 56 63 72 60 67 76 24 28 28 58 65 74 66 73 82 56 63 72 45 52 61
45 71 87 40 64 79 40 65 81 43 69 85 34 57 71 38 63 79 46 73 92 44 71 89 31 54 67 52 71 88 35 59 74 37 62 77 29 51 64 39 65 81 45 72 90 36 61 76
44 71 89 65 71 89 48 76 95 118 63 79 41 66 82 45 71 88 49 77 95 47 74 92 39 63 78 18 18 16 18 18 16 18 18 16 18 18 16 182 158 44 182 158 44 182 158 44
182 158 44 182 158 44 182 158 44 182 158 44 182 158 44 182 158 44 182 158 44 182 158 44 182 158 44 18 18 16 18 18 16 18 18 16 18 18 16 182 158 44 182 158 44 182 158 44
182 158 44 182 158 44 182 158 44 182 158 44 18 18 16 18 18 16 18 18 16 18 18 16 182 158 44 182 158 44 182 158 44 182 158 44 182 158 44 182 158 44 182 158 44 182 158 44
18 18 16 18 18 16 18 18 16 18 18 16 182 158 44 182 158 44 182 158 44 182 158 44 182 158 44 182 158 44 182 158 44 182 158 44 182 158 44 182 158 44 182 158 44 182 158 44
182 158 44 20 22 20 20 22 20 20 22 20 88 63 79 48 71 89 30 53 66 42 68 85 66 69 87 40 66 82 39 63 79 45 72 90 36 60 74 75 73 91 51 79 98 49 77 95
49 76 94 53 81 100 44 69 85 54 83 103 54 82 102 50 77 95 41 65 80 49 75 93 44 68 84 55 84 104 120 71 88 53 81 100 41 66 81 24 28 28 24 28 28 24 28 28
24 28 28 24 28 28 24 28 28 24 28 28 24 28 28 24 28 28 90 91 84 81 82 77 105 104 96 83 84 79 85 86 80 76 77 73 87 88 82 88 88 82 91 91 85 101 100 93
92 92 86 89 90 84 71 73 69 85 86 80 24 28 28 24 28 28 24 28 28 84 85 79 75 76 72 79 80 75 87 88 82 104 103 95 24 28 28 24 28 28 24 28 28 24 28 28
24 28 28 24 28 28 24 28 28 24 28 28 24 28 28 24 28 28 24 28 28 24 28 28 24 28 28 24 28 28 24 28 28 24 28 28 24 28 28 24 28 28 24 28 28 24 28 28
24 28 28 89 93 91 85 89 87 90 94 92 82 86 84 84 88 86 94 98 96 82 86 84 104 108 106 105 109 107 86 90 88 84 88 86 85 89 87 87 91 89 102 106 104 103 107 105
105 109 107 105 109 107 86 90 88 98 102 100 97 101 99 92 96 94 79 83 81 83 87 85 78 82 80 87 91 89 90 94 92 80 84 82 87 91 89 99 103 101 87 91 89 94 98 96
95 99 97 81 85 83 86 90 88 88 92 90 104 108 106 98 102 100 99 103 101 106 110 108 79 83 81 99 103 101 104 108 106 94 98 96 97 101 99 92 96 94 102 106 104 94 98 96
93 97 95 102 106 104 80 84 82 100 104 102 103 107 105 102 106 104 79 83 81 99 103 101 82 86 84 85 89 87 105 109 107 85 89 87 82 86 84 82 86 84 102 106 104 86 90 88
105 109 107 102 106 104 96 100 98 85 89 87 93 97 95 78 82 80 89 93 91 100 104 102 102 106 104 81 85 83 100 104 102 96 100 98 93 97 95 92 96 94 103 107 105 79 83 81
24 28 28 24 28 28 24 28 28 57 64 73 44 51 60 46 53 62 24 28 28 43 50 59 59 66 75 52 59 68 62 69 78 24 28 28 46 53 62 54 61 70 56 63 72 43 50 59
106 69 86 41 66 82 35 58 72 38 62 78 41 66 83 36 60 75 45 72 90 41 66 83 114 57 73 29 51 65 30 53 66 42 68 86 35 59 75 35 59 74 43 69 87 43 70 88
32 55 69 40 65 82 32 55 68 39 64 80 42 67 84 37 61 75 40 64 80 50 78 97 53 82 101 18 18 16 18 18 16 18 18 16 18 18 16 182 158 44 182 158 44 182 158 44
182 158 44 182 158 44 182 158 44 182 158 44 182 158 44 182 158 44 182 158 44 182 158 44 182 158 44 18 18 16 18 18 16 18 18 16 18 18 16 182 158 44 182 158 44 182 158 44
182 158 44 182 158 44 182 158 44 182 158 44 18 18 16 18 18 16 18 18 16 18 18 16 182 158 44 182 158 44 182 158 44 182 158 44 182 158 44 182 158 44 182 158 44 182 158 44
18 18 16 18 18 16 18 18 16 18 18 16 182 158 44 182 158 44 182 158 44 182 158 44 182 158 44 182 158 44 182 158 44 182 158 44 182 158 44 182 158 44 182 158 44 182 158 44
182 158 44 20 22 20 20 22 20 20 22 20 36 61 77 43 70 88 41 67 84 42 68 86 30 52 65 33 56 70 38 63 79 38 62 78 47 75 93 37 61 76 113 66 83 51 79 98
37 61 75 111 70 87 50 78 97 43 68 84 49 76 94 53 81 100 90 78 96 53 81 101 55 83 103 46 71 88 41 65 81 52 81 100 37 61 75 24 28 28 24 28 28 24 28 28
24 28 28 24 28 28 24 28 28 24 28 28 24 28 28 24 28 28 75 77 72 73 75 70 81 82 77 103 102 94 71 73 68 78 79 74 90 90 84 77 79 74 92 92 86 88 89 83
92 92 86 88 89 83 78 79 75 95 95 88 24 28 28 24 28 28 24 28 28 75 76 72 77 79 74 85 86 80 77 79 74 82 83 78 24 28 28 24 28 28 24 28 28 24 28 28
24 28 28 24 28 28 24 28 28 24 28 28 24 28 28 24 28 28 24 28 28 24 28 28 24 28 28 24 28 28 24 28 28 24 28 28 24 28 28 24 28 28 24 28 28 24 28 28
24 28 28 94 98 96 100 104 102 91 95 93 88 92 90 79 83 81 106 110 108 86 90 88 101 105 103 94 98 96 95 99 97 99 103 101 90 94 92 92 96 94 105 109 107 103 107 105
97 101 99 99 98 96 89 88 86 100 98 96 99 97 95 87 86 84 97 96 94 98 97 95 91 90 88 107 106 104 85 83 81 97 95 93 93 92 90 104 103 101 104 108 106 104 108 106
88 92 90 96 100 98 86 90 88 98 102 100 92 96 94 88 92 90 80 84 82 93 97 95 82 86 84 101 105 103 85 89 87 100 104 102 91 95 93 87 91 89 93 97 95 92 96 94
102 106 104 91 95 93 86 90 88 90 94 92 86 90 88 91 95 93 87 91 89 102 106 104 97 101 99 98 102 100 97 101 99 78 82 80 100 104 102 88 92 90 83 87 85 90 94 92
104 108 106 100 104 102 101 105 103 92 96 94 99 103 101 103 107 105 82 86 84 78 82 80 87 91 89 93 97 95 90 94 92 94 98 96 104 108 106 90 94 92 103 107 105 82 86 84
24 28 28 24 28 28 24 28 28 43 50 59 47 54 63 69 76 85 24 28 28 42 49 58 41 48 57 66 73 82 55 62 71 24 28 28 65 72 81 62 69 78 68 75 84 45 52 61
46 73 91 36 60 75 35 58 73 45 72 90 106 61 77 37 62 78 31 53 67 29 52 65 40 66 83 37 62 78 39 65 82 101 57 72 29 52 65 41 68 86 96 59 75 42 69 87
32 55 70 30 53 67 56 71 89 44 71 89 35 59 74 44 71 88 36 60 74 41 66 82 37 61 75 18 18 16 18 18 16 18 18 16 18 18 16 182 158 44 182 158 44 182 158 44
182 158 44 182 158 44 182 158 44 182 158 44 182 158 44 182 158 44 182 158 44 182 158 44 182 158 44 18 18 16 18 18 16 18 18 16 18 18 16 182 158 44 182 158 44 182 158 44
182 158 44 182 158 44 182 158 44 182 158 44 18 18 16 18 18 16 18 18 16 18 18 16 182 158 44 182 158 44 182 158 44 182 158 44 182 158 44 182 158 44 182 158 44 182 158 44
18 18 16 18 18 16 18 18 16 18 18 16 182 158 44 182 158 44 182 158 44 182 158 44 182 158 44 182 158 44 182 158 44 182 158 44 182 158 44 182 158 44 182 158 44 182 158 44
182 158 44 20 22 20 20 22 20 20 22 20 77 62 78 60 65 83 35 59 75 29 51 64 32 55 69 41 67 85 43 69 87 35 59 74 35 59 73 40 66 82 42 68 85 45 72 90
44 71 88 36 60 75 44 70 86 38 61 76 44 70 87 51 79 98 40 65 80 54 82 102 42 67 84 39 63 78 40 64 79 41 65 81 39 63 78 24 28 28 24 28 28 24 28 28
24 28 28 24 28 28 24 28 28 24 28 28 24 28 28 24 28 28 89 90 83 80 81 76 98 98 90 99 98 91 103 103 95 90 90 84 84 85 79 84 85 80 102 102 94 96 96 89
102 101 94 71 73 69 91 91 85 86 87 81 24 28 28 24 28 28 24 28 28 95 95 88 74 75 71 104 103 95 98 98 90 103 102 95 24 28 28 24 28 28 24 28 28 24 28 28
24 28 28 24 28 28 24 28 28 24 28 28 24 28 28 24 28 28 24 28 28 24 28 28 24 28 28 24 28 28 24 28 28 24 28 28 24 28 28 24 28 28 24 28 28 24 28 28
24 28 28 82 86 84 92 96 94 89 93 91 87 91 89 88 92 90 82 86 84 103 107 105 83 87 85 83 87 85 86 90 88 95 93 91 99 98 96 82 80 78 85 83 81 106 105 103
102 100 98 105 103 101 99 97 95 89 87 85 88 86 84 92 90 88 108 106 104 109 107 105 95 93 91 102 100 98 102 100 98 104 102 100 97 95 93 84 82 80 95 93 91 102 100 98
91 90 88 106 104 102 97 96 94 94 92 90 93 92 90 91 95 93 80 84 82 84 88 86 84 88 86 102 106 104 101 105 103 105 109 107 86 90 88 102 106 104 91 95 93 105 109 107
92 96 94 91 95 93 99 103 101 78 82 80 99 103 101 93 97 95 79 83 81 102 106 104 99 103 101 80 84 82 85 89 87 92 96 94 86 90 88 93 97 95 104 108 106 83 87 85
104 108 106 89 93 91 105 109 107 84 88 86 104 108 106 105 109 107 83 87 85 78 82 80 98 102 100 98 102 100 99 103 101 101 105 103 88 92 90 84 88 86 105 109 107 100 104 102
24 28 28 24 28 28 24 28 28 49 56 65 58 65 74 47 54 63 24 28 28 69 76 85 56 63 72 42 49 58 59 66 75 24 28 28 68 75 84 44 51 60 48 55 64 55 62 71
40 66 83 37 62 78 65 68 86 35 60 75 33 57 73 36 61 78 27 49 63 26 49 62 27 50 63 38 65 82 27 50 64 27 50 63 98 54 69 33 57 73 37 63 80 34 59 74
36 61 78 28 50 64 39 65 82 36 61 77 83 65 82 43 70 87 41 67 84 39 65 81 38 63 79 18 18 16 18 18 16 18 18 16 18 18 16 182 158 44 182 158 44 182 158 44
182 158 44 182 158 44 182 158 44 182 158 44 182 158 44 182 158 44 182 158 44 182 158 44 182 158 44 18 18 16 18 18 16 18 18 16 18 18 16 182 158 44 182 158 44 182 158 44
182 158 44 182 158 44 182 158 44 182 158 44 18 18 16 18 18 16 18 18 16 18 18 16 182 158 44 182 158 44 182 158 44 182 158 44 182 158 44 182 158 44 182 158 44 182 158 44
18 18 16 18 18 16 18 18 16 18 18 16 182 158 44 182 158 44 182 158 44 182 158 44 182 158 44 182 158 44 182 158 44 182 158 44 182 158 44 182 158 44 182 158 44 182 158 44
182 158 44 20 22 20 20 22 20 20 22 20 26 49 62 29 52 66 30 54 69 28 50 64 26 48 61 26 48 62 40 66 84 95 60 76 36 61 77 31 54 69 31 54 68 34 57 72
47 75 94 41 67 84 34 57 72 49 77 96 36 60 75 40 65 81 44 71 88 39 64 80 110 67 84 50 79 98 49 77 96 36 59 74 36 60 75 24 28 28 24 28 28 24 28 28
24 28 28 24 28 28 24 28 28 24 28 28 24 28 28 24 28 28 97 96 89 96 96 89 102 101 94 103 102 95 72 74 69 98 98 91 103 102 94 70 72 68 74 76 71 77 79 74
71 72 68 100 100 92 88 88 82 87 87 82 24 28 28 24 28 28 24 28 28 81 82 77 101 100 93 96 96 89 104 103 95 93 93 87 24 28 28 24 28 28 24 28 28 24 28 28
24 28 28 24 28 28 24 28 28 24 28 28 24 28 28 24 28 28 24 28 28 24 28 28 24 28 28 24 28 28 24 28 28 24 28 28 24 28 28 24 28 28 24 28 28 24 28 28
24 28 28 92 96 94 90 94 92 101 105 103 93 97 95 94 98 96 93 92 90 100 99 97 86 84 82 94 93 91 91 89 87 89 87 85 95 93 91 86 84 82 93 91 89 88 86 84
107 106 104 107 105 103 91 89 87 108 106 104 86 85 83 101 100 98 94 93 91 99 98 96 108 107 105 93 92 90 103 102 100 85 84 82 84 82 80 93 91 89 109 107 105 110 109 107
89 87 85 104 102 100 83 81 79 104 102 100 85 83 81 91 89 87 83 81 79 90 89 87 98 97 95 96 100 98 80 84 82 79 83 81 87 91 89 91 95 93 98 102 100 98 102 100
87 91 89 83 87 85 105 109 107 80 84 82 94 98 96 79 83 81 86 90 88 96 100 98 82 86 84 94 98 96 83 87 85 100 104 102 94 98 96 84 88 86 103 107 105 96 100 98
85 89 87 85 89 87 82 86 84 84 88 86 91 95 93 83 87 85 102 106 104 92 96 94 105 109 107 84 88 86 103 107 105 99 103 101 90 94 92 97 101 99 98 102 100 86 90 88
24 28 28 24 28 28 24 28 28 49 56 65 65 72 81 67 74 83 24 28 28 66 73 82 49 56 65 47 54 63 42 49 58 24 28 28 54 61 70 54 61 70 50 57 66 63 70 79
31 55 69 82 62 78 27 50 64 31 56 71 36 62 79 37 64 82 31 55 71 57 59 76 23 45 59 85 52 67 28 52 68 25 48 62 29 53 68 22 44 56 29 53 68 36 63 80
25 47 61 37 64 81 27 50 64 92 57 73 28 51 65 65 65 83 54 69 87 42 69 87 44 72 91 18 18 16 18 18 16 18 18 16 18 18 16 182 158 44 182 158 44 182 158 44
182 158 44 182 158 44 182 158 44 182 158 44 182 158 44 182 158 44 182 158 44 182 158 44 182 158 44 18 18 16 18 18 16 18 18 16 18 18 16 182 158 44 182 158 44 182 158 44
182 158 44 182 158 44 182 158 44 182 158 44 18 18 16 18 18 16 18 18 16 18 18 16 182 158 44 182 158 44 182 158 44 182 158 44 182 158 44 182 158 44 182 158 44 182 158 44
18 18 16 18 18 16 18 18 16 18 18 16 182 158 44 182 158 44 182 158 44 182 158 44 182 158 44 182 158 44 182 158 44 182 158 44 182 158 44 182 158 44 182 158 44 182 158 44
182 158 44 20 22 20 20 22 20 20 22 20 35 61 79 22 44 57 96 50 65 23 46 59 25 47 61 25 47 60 36 63 80 47 65 82 40 67 85 37 62 79 40 67 84 31 55 69
43 70 89 38 64 80 42 69 87 33 57 71 40 66 83 67 71 90 44 71 89 38 63 79 44 71 89 32 55 69 46 73 92 39 66 83 44 71 90 24 28 28 24 28 28 24 28 28
24 28 28 24 28 28 24 28 28 24 28 28 24 28 28 24 28 28 75 77 72 81 82 76 85 85 80 103 102 94 90 90 84 84 85 79 83 84 78 77 79 74 104 103 95 76 78 73
79 81 75 88 88 82 80 82 76 80 81 76 24 28 28 24 28 28 24 28 28 77 78 73 84 85 79 94 94 87 92 92 86 85 86 80 24 28 28 24 28 28 24 28 28 24 28 28
24 28 28 24 28 28 24 28 28 24 28 28 24 28 28 24 28 28 24 28 28 24 28 28 24 28 28 24 28 28 24 28 28 24 28 28 24 28 28 24 28 28 24 28 28 24 28 28
24 28 28 91 95 93 103 107 105 105 104 102 108 107 105 101 99 97 99 97 95 103 101 99 107 105 103 104 102 100 97 95 93 95 93 91 109 108 106 96 95 93 86 85 83 97 96 94
102 102 100 102 101 99 85 85 83 79 79 77 90 90 88 81 81 79 94 94 92 80 81 79 80 80 78 78 78 76 97 97 95 92 92 90 84 84 82 80 80 78 97 96 94 104 103 101
93 92 90 81 80 78 88 86 84 102 101 99 104 102 100 97 95 93 94 92 90 83 81 79 90 88 86 83 82 80 98 96 94 85 83 81 97 101 99 103 107 105 103 107 105 80 84 82
97 101 99 106 110 108 101 105 103 85 89 87 82 86 84 101 105 103 81 85 83 94 98 96 92 96 94 99 103 101 87 91 89 101 105 103 103 107 105 88 92 90 106 110 108 101 105 103
82 86 84 97 101 99 84 88 86 90 94 92 79 83 81 101 105 103 85 89 87 78 82 80 87 91 89 98 102 100 103 107 105 101 105 103 81 85 83 88 92 90 101 105 103 81 85 83
24 28 28 24 28 28 24 28 28 55 62 71 58 65 74 49 56 65 24 28 28 58 65 74 45 52 61 60 67 76 57 64 73 24 28 28 54 61 70 47 54 63 45 52 61 43 50 59
29 52 67 27 49 63 38 65 83 36 62 80 22 44 58 50 59 76 28 53 68 54 57 73 20 42 55 29 54 70 24 47 61 30 56 72 32 58 75 33 59 76 91 48 63 32 58 75
24 48 62 24 47 61 29 53 68 29 53 68 97 54 70 62 63 80 37 63 81 36 61 78 34 60 76 18 18 16 18 18 16 18 18 16 18 18 16 182 158 44 182 158 44 182 158 44
182 158 44 182 158 44 182 158 44 182 158 44 182 158 44 182 158 44 182 158 44 182 158 44 182 158 44 18 18 16 18 18 16 18 18 16 18 18 16 182 158 44 182 158 44 182 158 44
182 158 44 182 158 44 182 158 44 182 158 44 18 18 16 18 18 16 18 18 16 18 18 16 182 158 44 182 158 44 182 158 44 182 158 44 182 158 44 182 158 44 182 158 44 182 158 44
18 18 16 18 18 16 18 18 16 18 18 16 182 158 44 182 158 44 182 158 44 182 158 44 182 158 44 182 158 44 182 158 44 182 158 44 182 158 44 182 158 44 182 158 44 182 158 44
182 158 44 20 22 20 20 22 20 20 22 20 29 54 69 22 44 58 44 57 74 81 50 66 32 58 75 31 57 73 57 58 75 23 45 59 23 45 58 30 54 70 26 49 63 30 53 68
28 51 65 37 63 80 32 56 71 42 70 88 65 68 86 66 69 87 75 67 85 44 71 90 37 63 80 31 54 69 36 61 78 30 53 68 31 55 69 24 28 28 24 28 28 24 28 28
24 28 28 24 28 28 24 28 28 24 28 28 24 28 28 24 28 28 77 79 74 86 87 81 87 88 82 76 78 73 101 101 93 98 97 90 77 79 74 92 92 86 102 101 94 70 72 68
87 87 81 90 90 84 101 101 93 82 83 77 24 28 28 24 28 28 24 28 28 90 91 84 83 84 78 90 91 84 75 77 72 78 79 74 24 28 28 24 28 28 24 28 28 24 28 28
24 28 28 24 28 28 24 28 28 24 28 28 24 28 28 24 28 28 24 28 28 24 28 28 24 28 28 24 28 28 24 28 28 24 28 28 24 28 28 24 28 28 24 28 28 24 28 28
24 28 28 103 102 100 93 91 89 98 96 94 92 90 88 91 89 87 98 97 95 101 99 97 86 84 82 96 95 93 97 97 95 78 78 76 104 104 102 85 85 83 87 88 86 83 84 82
89 91 89 86 88 86 78 81 79 89 91 89 70 73 71 73 75 73 73 75 73 85 87 85 77 79 77 68 70 68 85 88 86 80 82 80 90 92 90 93 95 93 81 83 81 79 80 78
100 101 99 76 77 75 86 87 85 83 83 81 86 85 83 97 96 94 81 80 78 96 95 93 94 92 90 85 83 81 90 88 86 95 93 91 105 103 101 107 105 103 103 102 100 96 100 98
90 94 92 86 90 88 101 105 103 86 90 88 91 95 93 94 98 96 104 108 106 106 110 108 79 83 81 97 101 99 105 109 107 101 105 103 102 106 104 90 94 92 90 94 92 101 105 103
105 109 107 98 102 100 88 92 90 85 89 87 98 102 100 80 84 82 78 82 80 80 84 82 83 87 85 79 83 81 105 109 107 100 104 102 91 95 93 100 104 102 83 87 85 96 100 98
24 28 28 24 28 28 24 28 28 56 63 72 57 64 73 51 58 67 24 28 28 46 53 62 51 58 67 48 55 64 57 64 73 24 28 28 59 66 75 47 54 63 59 66 75 47 54 63
37 64 81 39 66 84 26 49 63 32 57 74 35 61 78 23 46 59 48 59 76 34 60 77 61 54 71 23 45 59 24 47 62 27 51 66 24 47 61 30 55 71 26 50 65 27 51 66
26 50 64 23 45 59 24 46 60 32 58 74 24 46 60 35 60 77 31 55 70 41 68 87 32 57 72 18 18 16 18 18 16 18 18 16 18 18 16 182 158 44 182 158 44 182 158 44
182 158 44 182 158 44 182 158 44 182 158 44 182 158 44 182 158 44 182 158 44 182 158 44 182 158 44 18 18 16 18 18 16 18 18 16 18 18 16 182 158 44 182 158 44 182 158 44
182 158 44 182 158 44 182 158 44 182 158 44 18 18 16 18 18 16 18 18 16 18 18 16 182 158 44 182 158 44 182 158 44 182 158 44 182 158 44 182 158 44 182 158 44 182 158 44
18 18 16 18 18 16 18 18 16 18 18 16 182 158 44 182 158 44 182 158 44 182 158 44 182 158 44 182 158 44 182 158 44 182 158 44 182 158 44 182 158 44 182 158 44 182 158 44
182 158 44 20 22 20 20 22 20 20 22 20 18 40 52 31 56 73 29 54 69 32 58 74 21 43 56 44 60 77 31 56 72 75 56 72 31 56 72 86 56 72 34 60 76 39 66 83
38 64 82 37 63 80 40 67 85 40 67 85 39 65 83 38 64 81 43 71 90 43 70 89 69 68 86 32 56 71 32 56 71 31 55 69 28 51 65 24 28 28 24 28 28 24 28 28
24 28 28 24 28 28 24 28 28 24 28 28 24 28 28 24 28 28 75 77 72 93 93 86 73 75 70 72 74 70 86 87 81 78 79 74 79 80 75 75 77 72 84 85 80 75 77 72
96 96 89 96 96 89 95 94 88 98 98 91 24 28 28 24 28 28 24 28 28 82 83 78 82 83 77 78 79 74 74 76 71 95 95 88 24 28 28 24 28 28 24 28 28 24 28 28
24 28 28 24 28 28 24 28 28 24 28 28 24 28 28 24 28 28 24 28 28 24 28 28 24 28 28 24 28 28 24 28 28 24 28 28 24 28 28 24 28 28 24 28 28 24 28 28
24 28 28 109 107 105 85 83 81 105 103 101 105 104 102 103 102 100 88 87 85 103 103 101 86 87 85 96 96 94 85 86 84 72 74 72 93 96 94 88 91 89 75 79 77 64 68 66
63 67 65 73 77 75 83 87 85 92 95 93 92 94 92 74 77 75 82 85 83 90 93 91 77 80 78 77 80 78 95 98 96 77 80 78 74 77 75 71 74 72 91 94 92 71 75 73
92 95 93 79 82 80 80 82 80 74 76 74 96 98 96 80 81 79 100 100 98 88 88 86 81 81 79 108 107 105 84 83 81 107 105 103 101 99 97 103 101 99 104 102 100 94 92 90
88 87 85 99 103 101 95 99 97 96 100 98 103 107 105 99 103 101 90 94 92 87 91 89 80 84 82 80 84 82 102 106 104 97 101 99 98 102 100 97 101 99 98 102 100 96 100 98
84 88 86 95 99 97 85 89 87 87 91 89 90 94 92 86 90 88 86 90 88 104 108 106 90 94 92 93 97 95 86 90 88 88 92 90 99 103 101 93 97 95 94 98 96 99 103 101
24 28 28 24 28 28 24 28 28 41 48 57 46 53 62 48 55 64 24 28 28 55 62 71 65 72 81 53 60 69 58 65 74 24 28 28 64 71 80 49 56 65 68 75 84 55 62 71
31 54 69 82 62 78 28 51 65 30 54 68 35 60 77 98 53 68 37 64 81 23 45 58 28 51 66 29 53 68 24 46 59 21 42 55 23 45 58 26 50 64 27 51 66 33 58 74
31 56 71 30 54 69 29 53 68 89 58 74 32 56 71 29 52 66 106 58 74 38 64 81 30 54 68 18 18 16 18 18 16 18 18 16 18 18 16 182 158 44 182 158 44 182 158 44
182 158 44 182 158 44 182 158 44 182 158 44 182 158 44 182 158 44 182 158 44 182 158 44 182 158 44 18 18 16 18 18 16 18 18 16 18 18 16 182 158 44 182 158 44 182 158 44
182 158 44 182 158 44 182 158 44 182 158 44 18 18 16 18 18 16 18 18 16 18 18 16 182 158 44 182 158 44 182 158 44 182 158 44 182 158 44 182 158 44 182 158 44 182 158 44
18 18 16 18 18 16 18 18 16 18 18 16 182 158 44 182 158 44 182 158 44 182 158 44 182 158 44 182 158 44 182 158 44 182 158 44 182 158 44 182 158 44 182 158 44 182 158 44
182 158 44 20 22 20 20 22 20 20 22 20 32 57 74 26 49 63 38 62 79 30 54 70 28 52 66 52 61 78 27 50 64 29 52 67 32 56 72 27 49 63 36 61 78 42 69 87
34 59 75 42 69 87 101 63 79 39 65 82 36 60 76 44 71 90 40 66 83 34 59 74 52 74 93 83 68 85 46 74 93 34 58 74 76 66 84 24 28 28 24 28 28 24 28 28
24 28 28 24 28 28 24 28 28 24 28 28 24 28 28 24 28 28 80 81 76 79 80 75 102 101 94 85 86 80 74 76 71 81 82 77 82 83 78 80 81 76 75 76 72 101 100 93
83 84 78 81 82 77 95 95 88 95 95 88 24 28 28 24 28 28 24 28 28 94 94 87 75 76 72 94 94 87 93 93 86 89 89 83 24 28 28 24 28 28 24 28 28 24 28 28
24 28 28 24 28 28 24 28 28 24 28 28 24 28 28 24 28 28 24 28 28 24 28 28 24 28 28 24 28 28 24 28 28 24 28 28 24 28 28 24 28 28 24 28 28 24 28 28
24 28 28 95 93 91 99 98 96 107 106 104 94 94 92 84 84 82 82 84 82 98 100 98 77 79 77 86 89 87 66 69 67 87 91 89 69 72 70 77 79 77 72 74 72 76 77 75
87 88 86 93 94 92 91 91 89 96 97 95 100 100 98 79 79 77 92 93 91 84 85 83 89 90 88 75 75 73 80 80 78 81 82 80 96 97 95 99 100 98 97 98 96 90 92 90
85 87 85 75 78 76 68 71 69 80 83 81 83 87 85 68 71 69 94 97 95 75 77 75 80 81 79 77 78 76 79 79 77 98 98 96 107 106 104 97 96 94 107 106 104 100 98 96
101 99 97 109 108 106 97 96 94 104 108 106 83 87 85 94 98 96 101 105 103 104 108 106 105 109 107 100 104 102 105 109 107 86 90 88 89 93 91 86 90 88 97 101 99 88 92 90
101 105 103 93 97 95 92 96 94 90 94 92 91 95 93 103 107 105 87 91 89 104 108 106 102 106 104 80 84 82 83 87 85 85 89 87 87 91 89 79 83 81 94 98 96 102 106 104
24 28 28 24 28 28 24 28 28 49 56 65 56 63 72 42 49 58 24 28 28 52 59 68 50 57 66 55 62 71 48 55 64 24 28 28 56 63 72 45 52 61 62 69 78 56 63 72
49 74 93 36 61 77 41 67 84 49 70 88 40 66 84 30 54 68 80 60 76 26 49 62 32 56 71 76 58 75 34 58 74 27 49 63 34 60 76 37 64 81 33 57 72 33 57 72
41 68 86 32 56 71 35 59 75 35 59 75 74 67 84 37 63 79 40 65 82 42 68 85 86 69 87 18 18 16 18 18 16 18 18 16 18 18 16 182 158 44 182 158 44 182 158 44
182 158 44 182 158 44 182 158 44 182 158 44 182 158 44 182 158 44 182 158 44 182 158 44 182 158 44 18 18 16 18 18 16 18 18 16 18 18 16 182 158 44 182 158 44 182 158 44
182 158 44 182 158 44 182 158 44 182 158 44 18 18 16 18 18 16 18 18 16 18 18 16 182 158 44 182 158 44 182 158 44 182 158 44 182 158 44 182 158 44 182 158 44 182 158 44
18 18 16 18 18 16 18 18 16 18 18 16 182 158 44 182 158 44 182 158 44 182 158 44 182 158 44 182 158 44 182 158 44 182 158 44 182 158 44 182 158 44 182 158 44 182 158 44
182 158 44 20 22 20 20 22 20 20 22 20 29 52 66 29 52 66 34 59 75 33 57 73 36 61 78 35 60 76 28 51 65 29 51 65 94 61 77 33 56 71 34 57 72 44 71 89
35 59 74 34 57 71 40 65 82 47 74 92 37 61 76 39 63 79 39 63 79 123 65 82 115 66 83 45 72 90 37 62 77 42 68 85 47 75 94 24 28 28 24 28 28 24 28 28
24 28 28 24 28 28 24 28 28 24 28 28 24 28 28 24 28 28 81 82 77 97 97 89 98 98 91 78 79 74 81 82 77 95 95 88 81 82 77 97 96 89 71 73 69 99 98 91
98 97 90 93 93 87 74 75 71 89 89 83 24 28 28 24 28 28 24 28 28 91 91 85 102 102 94 86 87 81 91 91 85 77 79 74 24 28 28 24 28 28 24 28 28 24 28 28
24 28 28 24 28 28 24 28 28 24 28 28 24 28 28 24 28 28 24 28 28 24 28 28 24 28 28 24 28 28 24 28 28 24 28 28 24 28 28 24 28 28 24 28 28 24 28 28
24 28 28 102 101 99 98 99 97 93 94 92 96 98 96 69 72 70 80 83 81 68 72 70 79 82 80 84 86 84 76 77 75 87 88 86 91 92 90 83 83 81 89 89 87 88 87 85
89 88 86 100 99 97 85 84 82 88 87 85 87 85 83 81 79 77 102 101 99 82 81 79 85 84 82 105 103 101 98 96 94 100 99 97 103 102 100 102 102 100 98 97 95 86 86 84
82 82 80 93 93 91 95 95 93 99 100 98 87 89 87 97 99 97 77 80 78 81 84 82 77 81 79 94 97 95 81 83 81 80 81 79 81 82 80 99 99 97 89 88 86 98 96 94
89 87 85 104 102 100 83 81 79 103 102 100 103 102 100 84 88 86 82 86 84 92 96 94 87 91 89 96 100 98 81 85 83 101 105 103 105 109 107 103 107 105 95 99 97 101 105 103
87 91 89 84 88 86 91 95 93 88 92 90 86 90 88 97 101 99 96 100 98 106 110 108 78 82 80 87 91 89 99 103 101 87 91 89 102 106 104 91 95 93 91 95 93 89 93 91
24 28 28 24 28 28 24 28 28 45 52 61 57 64 73 51 58 67 24 28 28 45 52 61 44 51 60 55 62 71 62 69 78 24 28 28 42 49 58 50 57 66 64 71 80 61 68 77
43 69 86 39 63 79 33 56 70 42 68 85 44 71 89 36 60 75 37 62 78 42 69 86 41 68 86 41 67 85 35 59 75 27 49 62 42 69 86 104 57 72 98 59 74 84 62 79
30 53 67 40 66 83 42 68 85 33 56 70 40 66 82 47 74 92 48 76 95 36 60 74 43 69 85 18 18 16 18 18 16 18 18 16 18 18 16 182 158 44 182 158 44 182 158 44
182 158 44 182 158 44 182 158 44 182 158 44 182 158 44 182 158 44 182 158 44 182 158 44 182 158 44 18 18 16 18 18 16 18 18 16 18 18 16 182 158 44 182 158 44 182 158 44
182 158 44 182 158 44 182 158 44 182 158 44 18 18 16 18 18 16 18 18 16 18 18 16 182 158 44 182 158 44 182 158 44 182 158 44 182 158 44 182 158 44 182 158 44 182 158 44
18 18 16 18 18 16 18 18 16 18 18 16 182 158 44 182 158 44 182 158 44 182 158 44 182 158 44 182 158 44 182 158 44 182 158 44 182 158 44 182 158 44 182 158 44 182 158 44
182 158 44 20 22 20 20 22 20 20 22 20 35 60 75 41 68 86 27 49 62 42 69 86 50 69 87 29 52 65 38 64 80 40 66 83 46 73 91 37 61 76 43 69 86 49 77 96
43 69 86 73 76 94 41 66 81 68 79 98 47 74 91 52 80 100 45 71 88 47 73 91 47 74 92 46 72 89 50 78 97 47 73 91 39 64 80 24 28 28 24 28 28 24 28 28
24 28 28 24 28 28 24 28 28 24 28 28 24 28 28 24 28 28 85 86 80 72 74 70 91 91 85 80 81 76 99 98 91 86 87 81 82 83 78 96 96 89 84 85 79 93 93 86
103 102 94 104 103 95 98 98 90 75 77 72 24 28 28 24 28 28 24 28 28 91 91 85 98 98 90 73 75 71 77 79 74 80 81 76 24 28 28 24 28 28 24 28 28 24 28 28
24 28 28 24 28 28 24 28 28 24 28 28 24 28 28 24 28 28 24 28 28 24 28 28 24 28 28 24 28 28 24 28 28 24 28 28 24 28 28 24 28 28 24 28 28 24 28 28
24 28 28 79 80 78 97 99 97 71 75 73 75 78 76 94 96 94 88 90 88 89 90 88 79 80 78 99 99 97 94 93 91 103 102 100 80 79 77 98 97 95 103 101 99 91 89 87
102 101 99 102 100 98 95 93 91 91 89 87 94 92 90 99 97 95 109 107 105 90 88 86 108 106 104 106 104 102 111 109 107 107 105 103 99 97 95 85 83 81 93 91 89 96 94 92
100 98 96 81 80 78 105 104 102 103 102 100 81 81 79 99 99 97 89 89 87 82 83 81 82 84 82 89 91 89 89 92 90 73 77 75 87 90 88 73 75 73 98 99 97 94 94 92
95 94 92 106 104 102 85 83 81 87 85 83 92 90 88 106 104 102 106 104 102 94 98 96 81 85 83 84 88 86 83 87 85 83 87 85 102 106 104 90 94 92 101 105 103 96 100 98
98 102 100 86 90 88 88 92 90 84 88 86 96 100 98 101 105 103 103 107 105 89 93 91 104 108 106 90 94 92 85 89 87 87 91 89 103 107 105 91 95 93 80 84 82 88 92 90
24 28 28 24 28 28 24 28 28 62 69 78 61 68 77 46 53 62 24 28 28 41 48 57 50 57 66 61 68 77 61 68 77 24 28 28 49 56 65 45 52 61 69 76 85 62 69 78
88 72 90 42 67 83 41 66 82 114 63 79 40 66 82 44 71 89 41 67 84 34 58 73 38 64 80 36 61 76 39 65 81 29 52 65 31 54 68 29 51 64 43 70 88 31 54 67
36 60 76 32 55 68 33 57 71 107 65 81 36 60 74 50 78 98 36 59 74 49 77 95 41 66 82 18 18 16 18 18 16 18 18 16 18 18 16 182 158 44 182 158 44 182 158 44
182 158 44 182 158 44 182 158 44 182 158 44 182 158 44 182 158 44 182 158 44 182 158 44 182 158 44 18 18 16 18 18 16 18 18 16 18 18 16 182 158 44 182 158 44 182 158 44
182 158 44 182 158 44 182 158 44 182 158 44 18 18 16 18 18 16 18 18 16 18 18 16 182 158 44 182 158 44 182 158 44 182 158 44 182 158 44 182 158 44 182 158 44 182 158 44
18 18 16 18 18 16 18 18 16 18 18 16 182 158 44 182 158 44 182 158 44 182 158 44 182 158 44 182 158 44 182 158 44 182 158 44 182 158 44 182 158 44 182 158 44 182 158 44
182 158 44 20 22 20 20 22 20 20 22 20 115 56 71 38 63 79 30 52 65 40 66 82 30 52 66 43 69 87 45 72 90 41 67 84 38 63 78 39 63 79 44 70 87 56 79 98
41 66 82 48 75 92 45 71 88 42 66 82 46 73 90 41 65 80 41 66 81 42 67 82 55 84 104 41 65 81 120 70 87 93 75 93 97 73 90 24 28 28 24 28 28 24 28 28
24 28 28 24 28 28 24 28 28 24 28 28 24 28 28 24 28 28 104 103 95 79 80 75 95 95 88 83 84 79 102 101 94 88 88 82 92 92 85 103 102 94 91 91 85 91 91 85
92 92 86 91 91 85 78 80 75 73 74 70 24 28 28 24 28 28 24 28 28 75 77 72 83 84 78 93 93 87 81 82 77 87 87 81 24 28 28 24 28 28 24 28 28 24 28 28
24 28 28 24 28 28 24 28 28 24 28 28 24 28 28 24 28 28 24 28 28 24 28 28 24 28 28 24 28 28 24 28 28 24 28 28 24 28 28 24 28 28 24 28 28 24 28 28
24 28 28 85 89 87 66 69 67 89 92 90 93 95 93 97 98 96 77 77 75 80 80 78 91 90 88 81 80 78 83 81 79 103 102 100 98 96 94 85 83 81 89 87 85 98 96 94
103 101 99 100 99 97 90 88 86 103 101 99 99 97 95 109 108 106 82 81 79 108 107 105 108 107 105 94 93 91 97 96 94 104 102 100 92 90 88 108 106 104 89 87 85 85 83 81
88 86 84 111 109 107 104 102 100 108 106 104 102 100 98 93 92 90 105 104 102 88 87 85 84 84 82 83 83 81 86 87 85 73 75 73 91 94 92 89 93 91 84 86 84 78 80 78
98 99 97 89 89 87 87 86 84 91 90 88 109 108 106 96 94 92 91 89 87 104 102 100 84 88 86 85 89 87 96 100 98 85 89 87 97 101 99 100 104 102 89 93 91 81 85 83
94 98 96 86 90 88 89 93 91 96 100 98 103 107 105 79 83 81 100 104 102 89 93 91 103 107 105 101 105 103 105 109 107 95 99 97 83 87 85 79 83 81 90 94 92 85 89 87
24 28 28 24 28 28 24 28 28 47 54 63 41 48 57 68 75 84 24 28 28 48 55 64 42 49 58 58 65 74 65 72 81 24 28 28 56 63 72 58 65 74 60 67 76 57 64 73
50 78 96 38 62 77 63 76 94 46 72 90 43 69 86 45 72 89 41 67 83 39 64 80 39 65 81 35 59 74 36 61 76 33 57 71 33 56 71 35 59 74 76 66 83 41 67 83
33 55 69 40 65 81 40 64 80 82 71 88 47 73 91 107 69 85 47 74 91 102 72 90 45 71 88 18 18 16 18 18 16 18 18 16 18 18 16 182 158 44 182 158 44 182 158 44
182 158 44 182 158 44 182 158 44 182 158 44 182 158 44 182 158 44 182 158 44 182 158 44 182 158 44 18 18 16 18 18 16 18 18 16 18 18 16 182 158 44 182 158 44 182 158 44
182 158 44 182 158 44 182 158 44 182 158 44 18 18 16 18 18 16 18 18 16 18 18 16 182 158 44 182 158 44 182 158 44 182 158 44 182 158 44 182 158 44 182 158 44 182 158 44
18 18 16 18 18 16 18 18 16 18 18 16 182 158 44 182 158 44 182 158 44 182 158 44 182 158 44 182 158 44 182 158 44 182 158 44 182 158 44 182 158 44 182 158 44 182 158 44
182 158 44 20 22 20 20 22 20 20 22 20 66 67 84 43 70 88 36 60 76 43 69 87 103 61 77 59 71 89 43 69 86 39 63 79 35 59 73 37 61 76 50 78 97 47 74 92
39 62 77 39 63 78 49 76 94 44 69 85 56 85 105 50 77 95 46 72 89 43 67 83 46 72 89 109 74 92 78 80 99 45 70 87 47 74 91 24 28 28 24 28 28 24 28 28
24 28 28 24 28 28 24 28 28 24 28 28 24 28 28 24 28 28 80 82 76 80 81 76 91 91 85 76 77 73 88 89 83 84 85 79 85 86 80 97 97 90 89 90 83 72 74 70
99 99 92 78 80 75 79 81 75 82 83 77 24 28 28 24 28 28 24 28 28 81 82 77 81 82 77 71 73 69 98 97 90 93 93 87 24 28 28 24 28 28 24 28 28 24 28 28
24 28 28 24 28 28 24 28 28 24 28 28 24 28 28 24 28 28 24 28 28 24 28 28 24 28 28 24 28 28 24 28 28 24 28 28 24 28 28 24 28 28 24 28 28 24 28 28
24 28 28 74 76 74 79 80 78 81 81 79 100 100 98 99 99 97 98 97 95 89 87 85 105 103 101 88 86 84 89 87 85 103 101 99 97 95 93 82 81 79 88 86 84 107 106 104
95 94 92 103 103 101 92 91 89 105 105 103 90 90 88 101 101 99 99 99 97 78 78 76 99 99 97 102 102 100 89 89 87 91 91 89 91 91 89 89 89 87 82 81 79 105 104 102
82 81 79 108 107 105 94 92 90 109 108 106 90 88 86 111 109 107 86 84 82 84 83 81 85 84 82 101 100 98 105 105 103 79 79 77 80 81 79 84 86 84 79 82 80 80 84 82
72 75 73 84 86 84 85 86 84 94 94 92 100 99 97 110 108 106 100 98 96 87 85 83 100 98 96 96 94 92 90 94 92 101 105 103 94 98 96 84 88 86 91 95 93 104 108 106
101 105 103 102 106 104 106 110 108 88 92 90 86 90 88 103 107 105 97 101 99 100 104 102 105 109 107 91 95 93 88 92 90 81 85 83 98 102 100 93 97 95 99 103 101 94 98 96
24 28 28 24 28 28 24 28 28 65 72 81 50 57 66 67 74 83 24 28 28 58 65 74 57 64 73 65 72 81 46 53 62 24 28 28 61 68 77 60 67 76 61 68 77 54 61 70
44 69 86 49 76 95 39 63 78 42 68 84 43 69 86 37 61 76 38 62 78 38 63 79 42 68 86 32 55 68 53 71 89 37 62 78 50 71 90 38 62 78 46 73 91 74 68 86
44 70 88 93 67 84 37 61 76 73 73 91 45 72 89 39 62 77 46 72 89 47 73 91 44 70 86 18 18 16 18 18 16 18 18 16 18 18 16 182 158 44 182 158 44 182 158 44
182 158 44 182 158 44 182 158 44 182 158 44 182 158 44 182 158 44 182 158 44 182 158 44 182 158 44 18 18 16 18 18 16 18 18 16 18 18 16 182 158 44 182 158 44 182 158 44
182 158 44 182 158 44 182 158 44 182 158 44 18 18 16 18 18 16 18 18 16 18 18 16 182 158 44 182 158 44 182 158 44 182 158 44 182 158 44 182 158 44 182 158 44 182 158 44
18 18 16 18 18 16 18 18 16 18 18 16 182 158 44 182 158 44 182 158 44 182 158 44 182 158 44 182 158 44 182 158 44 182 158 44 182 158 44 182 158 44 182 158 44 182 158 44
182 158 44 20 22 20 20 22 20 20 22 20 41 67 84 39 64 80 42 68 85 31 54 67 41 67 84 34 58 72 41 66 83 39 63 78 44 70 87 46 72 89 49 76 95 40 65 80
54 82 102 40 64 79 54 82 102 48 75 92 72 83 102 47 73 90 113 75 93 46 71 88 45 70 86 53 80 99 53 81 100 47 73 90 41 66 81 24 28 28 24 28 28 24 28 28
24 28 28 24 28 28 24 28 28 24 28 28 24 28 28 24 28 28 75 77 72 88 88 82 92 92 86 96 96 89 95 95 88 91 91 85 103 102 94 78 79 74 85 86 80 97 97 90
74 76 71 89 90 83 89 89 83 80 81 76 24 28 28 24 28 28 24 28 28 71 73 69 79 80 75 80 81 76 83 84 79 95 95 88 24 28 28 24 28 28 24 28 28 24 28 28
24 28 28 24 28 28 24 28 28 24 28 28 24 28 28 24 28 28 24 28 28 24 28 28 24 28 28 24 28 28 24 28 28 24 28 28 24 28 28 24 28 28 24 28 28 24 28 28
24 28 28 85 86 84 90 90 88 96 95 93 93 91 89 94 92 90 94 92 90 97 95 93 100 99 97 93 91 89 98 96 94 90 90 88 92 92 90 79 79 77 103 104 102 78 79 77
81 82 80 82 84 82 90 92 90 93 95 93 77 79 77 87 90 88 71 73 71 74 76 74 81 83 81 69 72 70 83 85 83 76 78 76 74 76 74 83 85 83 82 83 81 90 91 89
90 90 88 78 78 76 83 82 80 80 79 77 89 88 86 98 97 95 96 94 92 96 94 92 98 96 94 87 85 83 99 97 95 83 81 79 100 99 97 103 103 101 90 91 89 95 97 95
93 96 94 87 90 88 75 77 75 75 77 75 76 76 74 88 88 86 91 89 87 103 102 100 107 105 103 101 99 97 87 86 84 104 108 106 95 99 97 95 99 97 86 90 88 98 102 100
103 107 105 99 103 101 101 105 103 95 99 97 92 96 94 79 83 81 79 83 81 79 83 81 95 99 97 105 109 107 104 108 106 100 104 102 89 93 91 84 88 86 105 109 107 80 84 82
24 28 28 24 28 28 24 28 28 61 68 77 61 68 77 46 53 62 24 28 28 45 52 61 56 63 72 45 52 61 47 54 63 24 28 28 41 48 57 64 71 80 52 59 68 67 74 83
44 69 85 41 65 81 45 71 88 40 65 81 88 70 87 37 60 75 45 72 89 44 71 88 41 66 82 38 63 78 41 67 83 45 72 89 38 63 78 44 70 87 35 58 73 61 73 90
108 64 80 42 67 83 66 75 93 47 73 91 38 62 77 45 70 87 53 82 101 40 64 79 88 79 97 18 18 16 18 18 16 18 18 16 18 18 16 182 158 44 182 158 44 182 158 44
182 158 44 182 158 44 182 158 44 182 158 44 182 158 44 182 158 44 182 158 44 182 158 44 182 158 44 18 18 16 18 18 16 18 18 16 18 18 16 182 158 44 182 158 44 182 158 44
182 158 44 182 158 44 182 158 44 182 158 44 18 18 16 18 18 16 18 18 16 18 18 16 182 158 44 182 158 44 182 158 44 182 158 44 182 158 44 182 158 44 182 158 44 182 158 44
18 18 16 18 18 16 18 18 16 18 18 16 182 158 44 182 158 44 182 158 44 182 158 44 182 158 44 182 158 44 182 158 44 182 158 44 182 158 44 182 158 44 182 158 44 182 158 44
182 158 44 20 22 20 20 22 20 20 22 20 32 55 69 35 59 73 33 56 70 57 72 90 46 72 90 43 68 85 46 72 90 40 65 80 122 65 81 50 77 95 43 68 84 46 72 89
53 81 100 48 74 91 104 76 94 44 69 85 47 72 89 55 83 102 107 78 96 58 87 108 47 73 90 43 67 82 57 85 105 52 80 99 117 72 89 24 28 28 24 28 28 24 28 28
24 28 28 24 28 28 24 28 28 24 28 28 24 28 28 24 28 28 99 99 91 100 100 92 89 90 83 103 102 94 85 85 80 81 82 77 97 97 90 73 75 70 97 96 89 76 77 73
78 79 74 76 78 73 92 92 85 83 84 78 24 28 28 24 28 28 24 28 28 79 80 75 102 101 93 102 101 93 96 96 89 99 98 91 24 28 28 24 28 28 24 28 28 24 28 28
24 28 28 24 28 28 24 28 28 24 28 28 24 28 28 24 28 28 24 28 28 24 28 28 24 28 28 24 28 28 24 28 28 24 28 28 24 28 28 24 28 28 24 28 28 24 28 28
24 28 28 87 86 84 96 94 92 95 93 91 86 84 82 84 82 80 89 87 85 89 87 85 86 85 83 104 104 102 84 84 82 81 81 79 77 79 77 81 83 81 95 97 95 76 79 77
88 92 90 87 91 89 67 71 69 85 89 87 81 84 82 67 69 67 83 86 84 75 78 76 83 86 84 85 88 86 91 94 92 89 93 91 93 96 94 78 82 80 73 77 75 67 71 69
83 86 84 82 84 82 84 85 83 94 95 93 81 81 79 93 93 91 84 83 81 84 83 81 104 102 100 103 101 99 89 87 85 92 90 88 92 90 88 100 98 96 99 98 96 81 81 79
82 83 81 93 95 93 69 72 70 89 93 91 92 94 92 98 99 97 81 81 79 89 88 86 88 86 84 96 94 92 101 99 97 90 88 86 99 103 101 104 108 106 105 109 107 81 85 83
82 86 84 83 87 85 85 89 87 89 93 91 104 108 106 105 109 107 103 107 105 97 101 99 79 83 81 87 91 89 103 107 105 93 97 95 97 101 99 86 90 88 81 85 83 87 91 89
24 28 28 24 28 28 24 28 28 62 69 78 47 54 63 67 74 83 24 28 28 47 54 63 42 49 58 41 48 57 44 51 60 24 28 28 62 69 78 50 57 66 56 63 72 67 74 83
49 75 92 113 72 89 49 76 94 53 81 100 44 69 85 43 68 85 45 71 87 35 58 72 49 76 94 48 75 94 39 64 79 47 73 91 112 63 79 44 70 87 114 64 80 47 74 91
43 68 84 45 70 87 46 72 89 45 71 87 46 71 87 116 72 89 50 76 93 44 69 84 47 72 88 18 18 16 18 18 16 18 18 16 18 18 16 182 158 44 182 158 44 182 158 44
182 158 44 182 158 44 182 158 44 182 158 44 182 158 44 182 158 44 182 158 44 182 158 44 182 158 44 18 18 16 18 18 16 18 18 16 18 18 16 182 158 44 182 158 44 182 158 44
182 158 44 182 158 44 182 158 44 182 158 44 18 18 16 18 18 16 18 18 16 18 18 16 182 158 44 182 158 44 182 158 44 182 158 44 182 158 44 182 158 44 182 158 44 182 158 44
18 18 16 18 18 16 18 18 16 18 18 16 182 158 44 182 158 44 182 158 44 182 158 44 182 158 44 182 158 44 182 158 44 182 158 44 182 158 44 182 158 44 182 158 44 182 158 44
182 158 44 20 22 20 20 22 20 20 22 20 36 60 74 88 68 85 34 56 69 42 67 83 42 66 82 40 64 79 46 72 88 45 70 87 39 62 76 45 70 87 50 77 95 48 74 91
89 80 99 49 75 92 48 73 90 52 79 96 59 88 108 124 77 95 55 83 102 97 83 101 80 86 105 50 76 93 75 85 105 51 77 94 53 80 98 24 28 28 24 28 28 24 28 28
24 28 28 24 28 28 24 28 28 24 28 28 24 28 28 24 28 28 99 98 91 79 80 75 98 97 90 86 87 81 98 97 90 94 94 87 83 84 79 74 76 71 73 74 70 100 99 92
98 98 90 91 91 85 77 79 74 85 85 80 24 28 28 24 28 28 24 28 28 73 75 71 74 76 71 79 81 75 70 72 68 93 93 86 24 28 28 24 28 28 24 28 28 24 28 28
24 28 28 24 28 28 24 28 28 24 28 28 24 28 28 24 28 28 24 28 28 24 28 28 24 28 28 24 28 28 24 28 28 24 28 28 24 28 28 24 28 28 24 28 28 24 28 28
24 28 28 85 83 81 103 101 99 94 92 90 83 81 79 90 89 87 84 84 82 82 82 80 96 97 95 90 92 90 73 76 74 74 77 75 85 89 87 93 96 94 72 75 73 96 98 96
70 72 70 76 78 76 76 77 75 75 76 74 93 94 92 88 88 86 102 102 100 89 89 87 97 97 95 93 93 91 83 84 82 97 98 96 90 91 89 83 84 82 79 80 78 95 97 95
73 76 74 66 69 67 73 77 75 65 68 66 94 97 95 76 78 76 79 80 78 101 101 99 104 104 102 107 107 105 94 93 91 103 102 100 101 99 97 102 100 98 99 97 95 90 89 87
105 105 103 95 95 93 82 84 82 86 89 87 91 95 93 69 71 69 100 101 99 86 86 84 97 96 94 93 92 90 102 100 98 104 102 100 92 90 88 89 93 91 94 98 96 93 97 95
83 87 85 95 99 97 94 98 96 106 110 108 82 86 84 94 98 96 81 85 83 105 109 107 87 91 89 82 86 84 84 88 86 79 83 81 94 98 96 87 91 89 81 85 83 106 110 108
24 28 28 24 28 28 24 28 28 50 57 66 68 75 84 46 53 62 24 28 28 54 61 70 48 55 64 47 54 63 54 61 70 24 28 28 61 68 77 69 76 85 54 61 70 49 56 65
52 78 95 58 86 105 54 82 100 45 69 84 111 73 90 41 64 78 41 64 79 40 63 78 39 62 76 51 78 96 44 68 84 47 72 89 41 64 79 39 62 76 49 75 92 42 66 80
42 66 80 45 70 86 104 75 92 56 84 103 50 76 93 57 85 104 54 80 98 56 84 102 52 78 95 18 18 16 18 18 16 18 18 16 18 18 16 182 158 44 182 158 44 182 158 44
182 158 44 182 158 44 182 158 44 182 158 44 182 158 44 182 158 44 182 158 44 182 158 44 182 158 44 18 18 16 18 18 16 18 18 16 18 18 16 182 158 44 182 158 44 182 158 44
182 158 44 182 158 44 182 158 44 182 158 44 18 18 16 18 18 16 18 18 16 18 18 16 182 158 44 182 158 44 182 158 44 182 158 44 182 158 44 182 158 44 182 158 44 182 158 44
18 18 16 18 18 16 18 18 16 18 18 16 182 158 44 182 158 44 182 158 44 182 158 44 182 158 44 182 158 44 182 158 44 182 158 44 182 158 44 182 158 44 182 158 44 182 158 44
182 158 44 20 22 20 20 22 20 20 22 20 51 78 96 41 65 80 40 63 78 41 64 79 41 65 79 53 80 98 46 72 88 53 80 99 86 80 98 45 69 84 52 78 96 56 83 102
128 77 94 54 80 98 59 87 106 60 89 108 62 90 110 54 80 97 51 76 92 53 79 95 61 90 109 51 77 93 54 81 98 50 75 91 61 90 109 24 28 28 24 28 28 24 28 28
24 28 28 24 28 28 24 28 28 24 28 28 24 28 28 24 28 28 73 75 71 87 88 82 71 73 69 89 89 83 95 95 88 81 82 77 80 81 76 101 100 93 86 86 81 97 97 90
97 97 90 79 80 75 73 75 71 102 101 94 24 28 28 24 28 28 24 28 28 90 90 84 74 75 71 92 92 86 100 99 92 79 80 75 24 28 28 24 28 28 24 28 28 24 28 28
24 28 28 24 28 28 24 28 28 24 28 28 24 28 28 24 28 28 24 28 28 24 28 28 24 28 28 24 28 28 24 28 28 24 28 28 24 28 28 24 28 28 24 28 28 24 28 28
24 28 28 105 103 101 90 88 86 91 90 88 89 88 86 89 90 88 91 93 91 71 73 71 78 81 79 79 83 81 75 78 76 94 97 95 84 85 83 74 75 73 92 92 90 82 82 80
98 98 96 101 101 99 84 83 81 107 106 104 85 84 82 82 80 78 84 82 80 100 98 96 81 79 77 101 99 97 82 81 79 102 101 99 98 97 95 81 80 78 100 99 97 85 84 82
99 99 97 83 84 82 93 95 93 69 71 69 74 77 75 70 74 72 81 84 82 80 83 81 73 75 73 90 91 89 79 79 77 89 88 86 87 86 84 83 82 80 99 97 95 110 108 106
82 80 78 105 105 103 96 96 94 87 88 86 82 84 82 81 85 83 84 87 85 86 88 86 88 88 86 100 99 97 105 104 102 87 85 83 83 81 79 92 90 88 104 103 101 90 94 92
96 100 98 100 104 102 86 90 88 81 85 83 98 102 100 81 85 83 84 88 86 89 93 91 79 83 81 102 106 104 87 91 89 104 108 106 104 108 106 84 88 86 95 99 97 95 99 97
24 28 28 24 28 28 24 28 28 51 58 67 47 54 63 55 62 71 24 28 28 54 61 70 45 52 61 51 58 67 44 51 60 24 28 28 49 56 65 57 64 73 66 73 82 61 68 77
51 75 91 57 84 102 55 81 99 54 80 97 56 83 101 55 82 100 56 83 102 54 81 99 57 84 103 42 65 79 45 69 84 55 82 100 44 68 83 65 83 102 52 79 96 47 71 87
48 73 88 56 84 102 51 77 93 54 80 97 56 82 100 54 80 97 58 85 102 109 86 104 56 82 99 18 18 16 18 18 16 18 18 16 18 18 16 182 158 44 182 158 44 182 158 44
182 158 44 182 158 44 182 158 44 182 158 44 182 158 44 182 158 44 182 158 44 182 158 44 182 158 44 18 18 16 18 18 16 18 18 16 18 18 16 182 158 44 182 158 44 182 158 44
182 158 44 182 158 44 182 158 44 182 158 44 18 18 16 18 18 16 18 18 16 18 18 16 182 158 44 182 158 44 182 158 44 182 158 44 182 158 44 182 158 44 182 158 44 182 158 44
18 18 16 18 18 16 18 18 16 18 18 16 182 158 44 182 158 44 182 158 44 182 158 44 182 158 44 182 158 44 182 158 44 182 158 44 182 158 44 182 158 44 182 158 44 182 158 44
182 158 44 20 22 20 20 22 20 20 22 20 47 72 88 42 64 78 56 83 102 124 72 88 47 72 87 55 82 100 58 86 105 46 69 84 60 88 108 48 72 87 58 86 104 103 86 104
63 91 110 56 82 99 63 92 111 62 90 109 68 97 118 57 83 100 62 89 108 58 84 101 58 85 102 63 92 111 62 90 109 75 94 115 58 85 103 24 28 28 24 28 28 24 28 28
24 28 28 24 28 28 24 28 28 24 28 28 24 28 28 24 28 28 75 76 72 83 84 78 101 100 93 95 95 88 77 78 73 89 89 83 84 85 79 79 81 76 88 89 83 77 79 74
102 101 93 74 76 71 90 90 84 102 102 94 24 28 28 24 28 28 24 28 28 81 82 77 89 90 84 82 83 78 78 79 74 97 96 89 24 28 28 24 28 28 24 28 28 24 28 28
24 28 28 24 28 28 24 28 28 24 28 28 24 28 28 24 28 28 24 28 28 24 28 28 24 28 28 24 28 28 24 28 28 24 28 28 24 28 28 24 28 28 24 28 28 24 28 28
24 28 28 92 90 88 104 104 102 77 78 76 81 82 80 74 76 74 73 77 75 73 77 75 85 88 86 76 78 76 84 85 83 91 92 90 101 101 99 90 89 87 103 102 100 95 94 92
90 88 86 95 94 92 93 91 89 102 100 98 86 84 82 93 91 89 87 85 83 101 99 97 99 97 95 87 85 83 87 85 83 88 86 84 98 96 94 86 85 83 98 96 94 108 107 105
93 91 89 101 101 99 79 78 76 96 96 94 100 101 99 76 78 76 84 86 84 80 84 82 76 80 78 76 78 76 98 100 98 93 94 92 83 83 81 95 94 92 103 101 99 96 94 92
93 91 89 105 103 101 105 104 102 98 97 95 96 97 95 87 89 87 73 77 75 75 79 77 94 96 94 87 87 85 80 80 78 108 107 105 103 101 99 85 83 81 102 100 98 98 102 100
91 95 93 104 108 106 90 94 92 102 106 104 103 107 105 87 91 89 95 99 97 87 91 89 88 92 90 86 90 88 106 110 108 81 85 83 99 103 101 85 89 87 100 104 102 79 83 81
24 28 28 24 28 28 24 28 28 59 66 75 51 58 67 45 52 61 24 28 28 44 51 60 49 56 65 51 58 67 45 52 61 24 28 28 68 75 84 43 50 59 63 70 79 44 51 60
58 84 101 60 87 105 54 78 94 50 74 89 51 75 91 51 76 92 48 71 86 61 88 107 49 73 88 50 75 90 49 74 89 117 77 93 59 87 106 93 82 100 58 86 104 54 80 97
96 84 102 63 91 110 58 84 102 53 77 93 132 82 99 56 82 99 66 94 113 67 96 115 64 91 110 20 22 20 20 22 20 20 22 20 182 158 44 18 18 16 18 18 16 18 18 16
18 18 16 18 18 16 18 18 16 18 18 16 18 18 16 18 18 16 18 18 16 18 18 16 18 18 16 182 158 44 182 158 44 182 158 44 182 158 44 18 18 16 18 18 16 18 18 16
18 18 16 18 18 16 18 18 16 18 18 16 18 18 16 18 18 16 18 18 16 18 18 16 18 18 16 18 18 16 18 18 16 18 18 16 18 18 16 18 18 16 18 18 16 18 18 16
18 18 16 18 18 16 18 18 16 18 18 16 182 158 44 182 158 44 182 158 44 182 158 44 182 158 44 182 158 44 182 158 44 182 158 44 182 158 44 182 158 44 182 158 44 182 158 44
182 158 44 20 22 20 20 22 20 20 22 20 53 79 96 68 87 106 53 79 96 57 84 101 61 89 108 54 80 96 62 90 109 62 90 109 55 81 97 66 95 115 98 90 109 105 90 109
55 79 95 78 98 118 66 94 113 60 86 103 60 87 104 65 92 111 63 89 107 57 82 98 67 95 114 68 96 116 67 95 114 68 97 117 55 79 95 24 28 28 24 28 28 24 28 28
24 28 28 24 28 28 24 28 28 24 28 28 24 28 28 24 28 28 75 76 72 78 79 74 80 81 76 88 88 82 74 76 71 82 83 77 85 86 80 83 84 78 76 78 73 83 84 79
84 85 80 99 99 91 77 79 74 86 86 81 24 28 28 24 28 28 24 28 28 89 90 83 86 87 81 81 82 77 104 103 95 93 93 87 24 28 28 24 28 28 24 28 28 24 28 28
24 28 28 24 28 28 24 28 28 24 28 28 24 28 28 24 28 28 24 28 28 24 28 28 24 28 28 24 28 28 24 28 28 24 28 28 24 28 28 24 28 28 24 28 28 24 28 28
24 28 28 79 78 76 98 99 97 74 76 74 93 96 94 90 94 92 86 88 86 76 78 76 94 95 93 89 89 87 104 103 101 97 95 93 99 97 95 106 105 103 85 83 81 85 83 81
95 93 91 108 106 104 109 108 106 84 82 80 85 83 81 106 104 102 106 105 103 107 106 104 87 86 84 106 105 103 105 103 101 88 86 84 92 91 89 106 104 102 99 97 95 111 109 107
90 88 86 86 84 82 95 93 91 95 94 92 101 100 98 85 84 82 91 92 90 73 75 73 88 90 88 87 90 88 76 80 78 83 86 84 96 97 95 78 79 77 91 91 89 92 90 88
95 94 92 95 93 91 105 103 101 90 89 87 97 97 95 88 88 86 77 78 76 93 96 94 81 84 82 94 96 94 83 83 81 97 97 95 86 85 83 86 84 82 96 94 92 104 102 100
99 103 101 89 93 91 96 100 98 97 101 99 88 92 90 105 109 107 90 94 92 89 93 91 93 97 95 103 107 105 94 98 96 98 102 100 105 109 107 101 105 103 90 94 92 96 100 98
24 28 28 24 28 28 24 28 28 52 59 68 44 51 60 60 67 76 24 28 28 56 63 72 41 48 57 52 59 68 47 54 63 24 28 28 68 75 84 61 68 77 53 60 69 47 54 63
64 92 110 56 80 96 55 79 95 62 89 107 62 90 108 50 73 88 55 80 97 55 81 98 133 77 94 59 86 104 53 78 94 50 73 88 112 81 98 57 84 101 55 80 97 62 90 109
100 86 104 56 81 97 59 85 102 67 96 116 60 87 104 65 93 112 58 83 99 122 91 109 62 89 106 20 22 20 20 22 20 20 22 20 182 158 44 18 18 16 18 18 16 18 18 16
18 18 16 18 18 16 18 18 16 18 18 16 18 18 16 18 18 16 18 18 16 18 18 16 18 18 16 182 158 44 182 158 44 182 158 44 182 158 44 18 18 16 18 18 16 18 18 16
18 18 16 18 18 16 18 18 16 18 18 16 18 18 16 18 18 16 18 18 16 18 18 16 18 18 16 18 18 16 18 18 16 18 18 16 18 18 16 18 18 16 18 18 16 18 18 16
18 18 16 18 18 16 18 18 16 18 18 16 182 158 44 182 158 44 182 158 44 182 158 44 182 158 44 182 158 44 182 158 44 182 158 44 182 158 44 182 158 44 182 158 44 182 158 44
182 158 44 20 22 20 20 22 20 20 22 20 52 76 92 103 82 100 57 83 101 53 78 94 98 85 103 50 73 88 63 91 110 56 82 99 65 94 113 60 87 104 54 78 93 65 93 112
63 89 107 66 94 113 65 93 111 62 88 105 67 95 114 68 96 115 64 91 108 62 87 104 71 100 120 65 93 111 68 96 115 72 102 122 64 91 109 24 28 28 24 28 28 24 28 28
24 28 28 24 28 28 24 28 28 24 28 28 24 28 28 24 28 28 93 93 87 85 86 80 88 88 82 70 72 68 102 101 93 90 90 84 77 78 74 77 78 74 74 76 71 82 83 77
76 78 73 93 93 87 92 92 86 77 78 73 24 28 28 24 28 28 24 28 28 98 98 91 87 88 82 95 95 88 77 78 73 97 96 89 24 28 28 24 28 28 24 28 28 24 28 28
24 28 28 24 28 28 24 28 28 24 28 28 24 28 28 24 28 28 24 28 28 24 28 28 24 28 28 24 28 28 24 28 28 24 28 28 24 28 28 24 28 28 24 28 28 24 28 28
24 28 28 97 99 97 84 87 85 72 76 74 87 90 88 86 88 86 76 77 75 94 94 92 100 99 97 82 81 79 100 99 97 87 85 83 106 104 102 99 97 95 110 108 106 103 102 100
84 83 81 100 100 98 93 92 90 85 84 82 80 80 78 89 88 86 95 95 93 89 89 87 77 77 75 85 85 83 93 93 91 90 90 88 94 94 92 105 104 102 89 88 86 89 88 86
94 92 90 87 85 83 99 97 95 102 100 98 94 92 90 100 98 96 98 97 95 96 96 94 102 102 100 91 93 91 84 86 84 93 96 94 81 84 82 91 93 91 100 100 98 91 91 89
85 84 82 108 106 104 87 85 83 92 90 88 93 92 90 97 96 94 97 98 96 82 84 82 69 72 70 70 73 71 76 78 76 76 76 74 86 85 83 83 82 80 84 82 80 94 92 90
86 85 83 93 97 95 99 103 101 87 91 89 91 95 93 86 90 88 83 87 85 78 82 80 87 91 89 88 92 90 89 93 91 89 93 91 84 88 86 90 94 92 106 110 108 98 102 100
24 28 28 24 28 28 24 28 28 56 63 72 56 63 72 63 70 79 24 28 28 46 53 62 45 52 61 63 70 79 60 67 76 24 28 28 57 64 73 69 76 85 43 50 59 45 52 61
63 90 109 60 86 104 67 97 117 66 95 115 57 83 101 64 92 111 58 84 101 54 80 96 52 76 92 62 90 109 51 76 91 60 87 105 52 77 92 58 84 102 50 74 89 51 75 90
56 82 99 66 93 113 60 87 105 62 89 107 60 86 103 57 82 99 61 87 105 68 97 116 69 98 118 20 22 20 20 22 20 20 22 20 182 158 44 18 18 16 18 18 16 18 18 16
18 18 16 18 18 16 18 18 16 18 18 16 18 18 16 18 18 16 18 18 16 18 18 16 18 18 16 182 158 44 182 158 44 182 158 44 182 158 44 18 18 16 18 18 16 18 18 16
18 18 16 18 18 16 18 18 16 18 18 16 18 18 16 18 18 16 18 18 16 18 18 16 18 18 16 18 18 16 18 18 16 18 18 16 18 18 16 18 18 16 18 18 16 18 18 16
18 18 16 18 18 16 18 18 16 18 18 16 182 158 44 182 158 44 182 158 44 182 158 44 182 158 44 182 158 44 182 158 44 182 158 44 182 158 44 182 158 44 182 158 44 182 158 44
182 158 44 20 22 20 20 22 20 20 22 20 53 78 94 48 72 86 54 80 97 116 80 97 50 74 89 55 81 97 97 87 105 61 89 107 59 85 103 53 77 92 54 78 93 66 94 113
56 80 96 60 86 103 59 85 101 73 103 124 67 95 114 59 84 100 68 96 115 58 83 99 59 85 101 71 100 120 62 89 106 69 98 118 58 83 99 24 28 28 24 28 28 24 28 28
24 28 28 24 28 28 24 28 28 24 28 28 24 28 28 24 28 28 89 90 84 95 95 88 71 73 69 81 82 77 80 82 76 86 87 81 97 96 89 86 87 81 74 76 71 100 100 92
90 90 84 88 88 82 80 81 76 103 103 95 24 28 28 24 28 28 24 28 28 83 84 79 86 87 81 103 102 94 78 79 74 103 102 94 24 28 28 24 28 28 24 28 28 24 28 28
24 28 28 24 28 28 24 28 28 24 28 28 24 28 28 24 28 28 24 28 28 24 28 28 24 28 28 24 28 28 24 28 28 24 28 28 24 28 28 24 28 28 24 28 28 24 28 28
24 28 28 71 75 73 87 91 89 85 87 85 83 84 82 90 90 88 91 90 88 108 107 105 100 99 97 99 97 95 86 84 82 101 99 97 99 98 96 81 80 78 85 85 83 98 97 95
90 90 88 75 76 74 84 85 83 96 97 95 71 73 71 78 80 78 86 89 87 86 89 87 79 82 80 91 93 91 81 83 81 85 87 85 90 92 90 84 85 83 80 81 79 91 91 89
91 90 88 96 95 93 102 100 98 93 91 89 102 100 98 101 99 97 100 98 96 109 107 105 88 87 85 95 94 92 101 101 99 76 78 76 94 97 95 90 93 91 90 93 91 89 91 89
91 91 89 86 86 84 90 88 86 101 99 97 84 82 80 103 102 100 106 105 103 88 89 87 90 91 89 91 94 92 67 70 68 83 84 82 92 93 91 90 89 87 102 100 98 91 89 87
102 100 98 82 80 78 96 100 98 80 84 82 83 87 85 80 84 82 79 83 81 86 90 88 97 101 99 101 105 103 93 97 95 89 93 91 89 93 91 85 89 87 93 97 95 86 90 88
24 28 28 24 28 28 24 28 28 69 76 85 62 69 78 44 51 60 24 28 28 65 72 81 51 58 67 67 74 83 56 63 72 24 28 28 48 55 64 64 71 80 56 63 72 47 54 63
66 96 116 55 81 98 61 89 107 49 73 87 50 74 90 61 89 108 60 88 107 58 86 104 53 78 95 51 76 93 47 71 87 72 84 103 46 69 84 50 76 92 59 87 106 52 77 94
48 72 86 49 74 89 57 83 101 63 91 110 56 82 99 51 76 91 61 88 107 66 95 115 76 97 117 20 22 20 20 22 20 20 22 20 182 158 44 18 18 16 18 18 16 18 18 16
18 18 16 18 18 16 18 18 16 18 18 16 18 18 16 18 18 16 18 18 16 18 18 16 18 18 16 182 158 44 182 158 44 182 158 44 182 158 44 18 18 16 18 18 16 18 18 16
18 18 16 18 18 16 18 18 16 18 18 16 18 18 16 18 18 16 18 18 16 18 18 16 18 18 16 18 18 16 18 18 16 18 18 16 18 18 16 18 18 16 18 18 16 18 18 16
18 18 16 18 18 16 18 18 16 18 18 16 182 158 44 182 158 44 182 158 44 182 158 44 182 158 44 182 158 44 182 158 44 182 158 44 182 158 44 182 158 44 182 158 44 182 158 44
182 158 44 20 22 20 20 22 20 20 22 20 54 80 97 57 84 102 115 76 93 55 82 99 47 71 86 92 83 101 84 86 104 57 83 101 64 92 112 51 75 90 89 90 109 60 86 104
52 77 92 62 89 108 70 99 120 70 100 120 63 91 110 63 90 109 60 87 104 59 85 102 66 94 113 67 96 115 59 85 102 66 94 114 53 77 93 24 28 28 24 28 28 24 28 28
24 28 28 24 28 28 24 28 28 24 28 28 24 28 28 24 28 28 102 101 94 91 91 85 101 100 93 74 76 71 71 73 69 76 77 73 75 76 72 72 74 70 81 82 77 99 98 91
94 94 87 80 81 76 71 73 69 83 84 79 24 28 28 24 28 28 24 28 28 77 78 74 77 78 74 86 87 81 96 96 89 94 94 87 24 28 28 24 28 28 24 28 28 24 28 28
24 28 28 24 28 28 24 28 28 24 28 28 24 28 28 24 28 28 24 28 28 24 28 28 24 28 28 24 28 28 24 28 28 24 28 28 24 28 28 24 28 28 24 28 28 24 28 28
24 28 28 88 91 89 75 77 75 87 87 85 88 88 86 100 98 96 83 81 79 107 105 103 84 82 80 95 93 91 83 81 79 92 91 89 86 85 83 91 92 90 93 94 92 93 96 94
69 72 70 89 93 91 75 78 76 66 70 68 70 73 71 69 72 70 76 79 77 86 89 87 69 72 70 67 70 68 80 84 82 90 94 92 89 93 91 83 86 84 72 74 72 71 73 71
80 82 80 80 81 79 92 92 90 96 95 93 97 96 94 101 99 97 106 104 102 104 102 100 101 99 97 85 84 82 79 78 76 77 77 75 91 92 90 90 93 91 67 71 69 80 83 81
93 94 92 78 78 76 107 106 104 86 84 82 93 91 89 91 89 87 98 97 95 93 92 90 94 94 92 76 78 76 86 89 87 89 92 90 87 88 86 95 95 93 95 94 92 98 96 94
101 99 97 84 82 80 90 89 87 98 102 100 99 103 101 96 100 98 92 96 94 93 97 95 86 90 88 103 107 105 95 99 97 97 101 99 104 108 106 103 107 105 101 105 103 94 98 96
24 28 28 24 28 28 24 28 28 55 62 71 56 63 72 59 66 75 24 28 28 65 72 81 60 67 76 68 75 84 63 70 79 24 28 28 49 56 65 64 71 80 54 61 70 56 63 72
60 88 107 54 80 98 94 82 101 50 76 92 49 74 90 47 72 87 46 70 85 46 71 86 50 76 93 41 64 78 54 81 99 42 66 81 43 67 82 44 68 83 42 65 80 51 77 95
53 79 97 46 70 85 56 84 103 66 87 106 51 77 94 52 77 94 55 81 99 94 87 106 61 90 109 20 22 20 20 22 20 20 22 20 20 22 20 18 18 16 18 18 16 18 18 16
18 18 16 18 18 16 18 18 16 18 18 16 18 18 16 18 18 16 18 18 16 18 18 16 18 18 16 20 22 20 20 22 20 20 22 20 20 22 20 18 18 16 18 18 16 18 18 16
18 18 16 18 18 16 18 18 16 18 18 16 18 18 16 18 18 16 18 18 16 18 18 16 18 18 16 18 18 16 18 18 16 18 18 16 18 18 16 18 18 16 18 18 16 18 18 16
18 18 16 18 18 16 18 18 16 18 18 16 20 22 20 20 22 20 20 22 20 20 22 20 20 22 20 20 22 20 20 22 20 20 22 20 20 22 20 20 22 20 20 22 20 20 22 20
20 22 20 20 22 20 20 22 20 20 22 20 44 68 84 53 80 98 45 69 84 47 72 88 120 71 87 42 66 80 46 70 85 58 86 105 45 68 83 51 76 93 61 89 109 70 90 110
48 73 88 57 84 102 51 75 91 52 77 93 58 85 103 53 78 94 52 77 93 64 93 113 58 84 102 57 84 101 96 89 108 56 82 99 61 89 108 24 28 28 24 28 28 24 28 28
24 28 28 24 28 28 24 28 28 24 28 28 24 28 28 24 28 28 104 103 95 74 75 71 93 93 86 90 90 84 81 82 77 85 85 80 89 89 83 86 86 81 74 76 71 77 78 74
82 83 78 71 73 69 99 99 91 96 95 88 24 28 28 24 28 28 24 28 28 101 100 93 89 89 83 98 97 90 85 86 80 98 97 90 24 28 28 24 28 28 24 28 28 24 28 28
24 28 28 24 28 28 24 28 28 24 28 28 24 28 28 24 28 28 24 28 28 24 28 28 24 28 28 24 28 28 24 28 28 24 28 28 24 28 28 24 28 28 24 28 28 24 28 28
24 28 28 79 80 78 80 80 78 86 85 83 95 93 91 110 108 106 93 91 89 99 97 95 91 89 87 85 84 82 97 97 95 77 78 76 78 80 78 78 81 79 74 78 76 88 91 89
81 84 82 93 95 93 84 86 84 84 85 83 88 89 87 78 79 77 94 94 92 93 93 91 77 77 75 88 89 87 80 80 78 85 86 84 81 83 81 92 94 92 76 78 76 83 86 84
64 68 66 79 82 80 94 96 94 75 76 74 102 102 100 93 92 90 105 104 102 102 100 98 89 87 85 88 86 84 83 81 79 103 102 100 77 77 75 87 88 86 94 96 94 66 69 67
72 75 73 87 89 87 100 100 98 91 90 88 90 88 86 92 90 88 90 88 86 96 95 93 91 91 89 93 94 92 79 81 79 70 73 71 95 98 96 88 89 87 96 95 93 100 98 96
100 98 96 86 84 82 88 86 84 87 91 89 105 109 107 95 99 97 99 103 101 95 99 97 82 86 84 93 97 95 104 108 106 92 96 94 85 89 87 105 109 107 91 95 93 100 104 102
24 28 28 24 28 28 24 28 28 57 64 73 67 74 83 42 49 58 24 28 28 42 49 58 51 58 67 47 54 63 43 50 59 24 28 28 65 72 81 43 50 59 51 58 67 42 49 58
63 86 106 54 81 100 50 76 93 49 75 92 39 62 77 42 66 81 79 75 93 46 71 88 40 63 78 61 77 95 50 78 96 114 65 81 38 62 76 42 67 82 38 62 76 43 67 83
52 80 98 48 74 92 42 66 81 51 78 95 56 84 103 44 68 83 51 77 94 59 87 107 53 80 98 20 22 20 20 22 20 20 22 20 20 22 20 18 18 16 18 18 16 18 18 16
18 18 16 18 18 16 18 18 16 18 18 16 18 18 16 18 18 16 18 18 16 18 18 16 18 18 16 20 22 20 20 22 20 20 22 20 20 22 20 18 18 16 18 18 16 18 18 16
18 18 16 18 18 16 18 18 16 18 18 16 18 18 16 18 18 16 18 18 16 18 18 16 18 18 16 18 18 16 18 18 16 18 18 16 18 18 16 18 18 16 18 18 16 18 18 16
18 18 16 18 18 16 18 18 16 18 18 16 20 22 20 20 22 20 20 22 20 20 22 20 20 22 20 20 22 20 20 22 20 20 22 20 20 22 20 20 22 20 20 22 20 20 22 20
20 22 20 20 22 20 20 22 20 20 22 20 47 73 90 44 69 85 45 71 88 41 65 80 47 73 90 52 80 98 49 75 93 51 78 96 49 75 92 87 79 97 43 67 82 48 73 89
116 77 95 46 71 86 49 74 91 60 89 109 58 86 104 57 85 104 123 80 98 58 86 104 55 81 99 61 90 110 98 84 102 92 84 103 53 80 98 24 28 28 24 28 28 24 28 28
24 28 28 24 28 28 24 28 28 24 28 28 24 28 28 24 28 28 96 96 89 96 96 89 88 88 82 87 87 81 75 77 72 72 74 70 85 85 80 80 81 76 73 75 71 105 104 96
93 93 86 82 83 78 98 97 90 101 100 93 24 28 28 24 28 28 24 28 28 71 73 69 103 102 94 71 73 68 89 89 83 91 91 85 24 28 28 24 28 28 24 28 28 24 28 28
24 28 28 24 28 28 24 28 28 24 28 28 24 28 28 24 28 28 24 28 28 24 28 28 24 28 28 24 28 28 24 28 28 24 28 28 24 28 28 24 28 28 24 28 28 24 28 28
24 28 28 102 102 100 107 106 104 103 101 99 98 96 94 95 93 91 86 84 82 82 81 79 104 104 102 76 76 74 77 79 77 74 77 75 80 84 82 73 76 74 97 99 97 95 97 95
97 97 95 99 99 97 80 79 77 97 96 94 85 84 82 88 87 85 81 80 78 100 98 96 85 83 81 85 84 82 94 93 91 87 86 84 79 79 77 94 94 92 84 85 83 87 88 86
94 95 93 74 76 74 81 84 82 72 75 73 84 86 84 77 78 76 104 104 102 89 88 86 90 89 87 92 91 89 88 86 84 96 95 93 91 89 87 88 87 85 82 83 81 82 84 82
82 85 83 91 93 91 96 97 95 94 94 92 87 86 84 107 105 103 92 90 88 102 101 99 90 89 87 79 79 77 97 98 96 76 79 77 86 90 88 70 72 70 82 82 80 85 84 82
82 80 78 104 102 100 91 89 87 83 82 80 90 94 92 90 94 92 82 86 84 95 99 97 81 85 83 98 102 100 93 97 95 84 88 86 90 94 92 89 93 91 95 99 97 105 109 107
24 28 28 24 28 28 24 28 28 46 53 62 43 50 59 50 57 66 24 28 28 42 49 58 49 56 65 67 74 83 64 71 80 24 28 28 48 55 64 56 63 72 65 72 81 47 54 63
42 67 82 51 78 97 44 70 86 51 79 98 50 77 96 44 70 87 37 61 75 39 64 79 37 61 76 43 69 85 36 59 74 41 66 82 42 67 84 82 68 85 33 55 69 35 58 72
51 77 96 45 71 88 43 68 83 50 77 95 77 77 95 53 80 99 55 83 103 56 85 104 127 72 89 20 22 20 20 22 20 20 22 20 20 22 20 18 18 16 18 18 16 18 18 16
18 18 16 18 18 16 18 18 16 18 18 16 18 18 16 18 18 16 18 18 16 18 18 16 18 18 16 20 22 20 20 22 20 20 22 20 20 22 20 18 18 16 18 18 16 18 18 16
18 18 16 18 18 16 18 18 16 18 18 16 18 18 16 18 18 16 18 18 16 18 18 16 18 18 16 18 18 16 18 18 16 18 18 16 18 18 16 18 18 16 18 18 16 18 18 16
18 18 16 18 18 16 18 18 16 18 18 16 20 22 20 20 22 20 20 22 20 20 22 20 20 22 20 20 22 20 20 22 20 20 22 20 20 22 20 20 22 20 20 22 20 20 22 20
20 22 20 20 22 20 20 22 20 20 22 20 38 62 77 46 72 90 36 60 74 38 62 77 44 69 86 45 71 88 39 63 78 49 77 95 50 78 96 55 81 101 44 70 86 99 75 93
44 69 84 55 84 103 46 71 87 51 78 95 44 69 84 48 73 90 45 69 85 56 84 104 58 87 107 59 88 108 56 85 104 129 72 89 56 85 104 24 28 28 24 28 28 24 28 28
24 28 28 24 28 28 24 28 28 24 28 28 24 28 28 24 28 28 84 85 79 78 79 74 82 83 77 79 80 75 78 79 74 102 102 94 86 87 81 77 78 73 89 89 83 86 86 81
92 92 86 102 102 94 70 72 68 86 87 81 24 28 28 24 28 28 24 28 28 104 103 95 98 98 91 85 85 80 95 95 88 79 80 75 24 28 28 24 28 28 24 28 28 24 28 28
24 28 28 24 28 28 24 28 28 24 28 28 24 28 28 24 28 28 24 28 28 24 28 28 24 28 28 24 28 28 24 28 28 24 28 28 24 28 28 24 28 28 24 28 28 24 28 28
24 28 28 90 89 87 103 101 99 111 109 107 102 100 98 104 103 101 84 83 81 98 99 97 94 96 94 90 93 91 84 88 86 88 91 89 85 87 85 85 85 83 103 103 101 86 86 84
98 97 95 81 80 78 101 99 97 94 92 90 105 103 101 100 98 96 103 101 99 100 98 96 84 82 80 103 101 99 95 93 91 92 90 88 88 86 84 94 92 90 98 96 94 93 92 90
95 95 93 98 98 96 91 92 90 81 84 82 79 83 81 73 76 74 89 91 89 91 92 90 88 88 86 100 99 97 94 92 90 89 87 85 84 82 80 103 102 100 88 88 86 79 80 78
77 79 77 74 78 76 77 80 78 99 101 99 78 78 76 94 93 91 84 83 81 107 105 103 95 93 91 91 90 88 94 94 92 71 72 70 84 88 86 74 77 75 87 88 86 96 96 94
107 106 104 104 103 101 107 105 103 95 93 91 93 97 95 88 92 90 99 103 101 100 104 102 82 86 84 93 97 95 91 95 93 95 99 97 83 87 85 93 97 95 105 109 107 81 85 83
24 28 28 24 28 28 24 28 28 54 61 70 67 74 83 62 69 78 24 28 28 55 62 71 54 61 70 65 72 81 48 55 64 24 28 28 47 54 63 41 48 57 62 69 78 50 57 66
40 64 79 52 80 99 86 73 90 38 61 76 47 74 92 45 72 90 42 68 85 36 60 74 35 58 73 43 69 86 114 59 74 85 65 82 35 58 73 33 56 70 54 72 90 102 63 79
36 60 75 38 62 78 49 76 95 43 69 85 46 72 89 50 78 97 115 70 87 53 81 100 46 72 89 56 84 104 44 69 85 42 66 81 49 76 93 44 68 84 45 70 86 54 82 101
54 82 101 50 77 95 50 77 95 99 75 93 62 81 100 49 76 94 42 66 82 44 69 86 46 72 90 41 66 82 46 73 91 42 68 85 42 68 85 51 73 91 35 58 73 36 60 76
40 66 82 45 72 90 75 68 85 42 68 85 37 61 77 45 71 89 42 67 84 68 74 92 88 72 89 43 69 85 45 71 88 53 81 101 80 79 98 54 82 101 53 81 100 44 68 84
45 70 85 90 80 99 44 69 84 57 86 106 46 71 88 53 81 100 50 76 94 49 75 93 45 70 86 52 80 99 42 67 83 41 66 82 42 67 83 44 70 87 36 59 73 37 61 75
45 72 90 91 65 81 91 64 81 43 69 86 36 59 74 35 58 73 94 64 80 42 68 85 46 73 92 34 58 72 34 57 71 47 74 92 36 59 73 46 73 90 41 65 81 51 79 98
40 64 79 118 72 89 54 82 102 110 75 93 118 74 92 52 79 97 56 84 104 55 84 103 44 69 85 57 86 106 88 79 98 54 83 102 52 79 98 24 28 28 24 28 28 24 28 28
24 28 28 24 28 28 24 28 28 24 28 28 24 28 28 24 28 28 90 90 84 71 73 69 83 84 79 99 98 91 103 102 94 103 102 94 100 100 92 96 96 89 72 74 69 80 81 76
70 72 68 99 99 92 103 102 94 97 97 90 24 28 28 24 28 28 24 28 28 72 73 69 74 76 71 73 75 70 104 103 95 91 91 84 24 28 28 24 28 28 24 28 28 24 28 28
24 28 28 24 28 28 24 28 28 24 28 28 24 28 28 24 28 28 24 28 28 24 28 28 24 28 28 24 28 28 24 28 28 24 28 28 24 28 28 24 28 28 24 28 28 24 28 28
24 28 28 102 100 98 84 82 80 90 88 86 101 99 97 95 95 93 89 90 88 80 82 80 86 89 87 91 94 92 74 76 74 75 76 74 87 87 85 93 92 90 101 100 98 84 82 80
99 97 95 104 102 100 99 97 95 84 82 80 83 81 79 107 105 103 105 103 101 97 96 94 83 82 80 92 90 88 87 85 83 100 99 97 88 86 84 94 92 90 97 95 93 92 91 89
91 90 88 92 91 89 81 81 79 80 81 79 90 91 89 72 75 73 75 79 77 70 73 71 91 92 90 82 82 80 82 81 79 95 93 91 110 108 106 88 86 84 85 83 81 102 101 99
89 90 88 94 97 95 68 72 70 86 88 86 75 75 73 81 80 78 95 94 92 94 92 90 94 92 90 108 107 105 90 90 88 97 98 96 86 89 87 69 73 71 81 83 81 77 78 76
91 90 88 107 105 103 106 104 102 101 99 97 102 101 99 100 104 102 98 102 100 95 99 97 80 84 82 99 103 101 90 94 92 87 91 89 81 85 83 86 90 88 99 103 101 99 103 101
24 28 28 24 28 28 24 28 28 68 75 84 68 75 84 48 55 64 24 28 28 67 74 83 53 60 69 44 51 60 50 57 66 24 28 28 63 70 79 42 49 58 52 59 68 58 65 74
37 61 75 40 65 80 48 76 94 36 60 75 44 70 87 39 64 80 34 57 71 112 60 76 42 68 85 90 63 79 30 53 66 34 57 71 34 58 72 33 56 70 36 60 75 45 71 89
36 60 74 45 72 90 41 66 82 39 63 79 40 64 80 49 77 95 46 73 90 126 68 84 44 69 86 48 74 92 80 80 99 51 78 96 45 70 86 45 70 86 51 78 96 55 84 104
51 79 97 43 68 84 52 80 98 47 74 91 41 65 80 44 69 86 49 77 96 40 65 80 37 61 76 47 74 92 85 67 84 46 74 92 42 68 85 40 65 81 35 59 74 39 65 81
34 57 72 32 55 69 44 70 88 36 60 75 43 69 86 45 72 89 43 69 86 38 63 78 106 67 84 40 65 81 50 77 96 41 65 81 40 63 78 43 69 85 48 75 92 43 68 84
51 79 97 54 83 102 52 80 98 42 66 82 53 81 100 48 75 92 57 84 104 49 75 93 45 71 88 49 76 94 39 63 77 43 69 85 40 65 81 37 60 75 37 61 76 47 74 93
35 58 73 43 70 87 44 71 88 94 62 78 30 52 65 90 63 79 39 64 80 41 67 83 39 64 80 43 69 86 47 75 93 37 61 76 39 64 79 38 62 77 50 78 96 42 67 83
52 80 99 43 68 84 49 75 93 48 75 92 52 79 98 42 66 81 52 80 98 48 75 92 87 80 98 44 68 84 52 79 98 44 70 86 50 77 95 24 28 28 24 28 28 24 28 28
24 28 28 24 28 28 24 28 28 24 28 28 24 28 28 24 28 28 83 84 78 81 82 76 97 96 89 76 77 73 93 93 86 78 79 74 75 76 72 87 87 81 71 73 68 94 94 87
88 89 83 94 94 87 88 89 82 98 97 90 24 28 28 24 28 28 24 28 28 104 103 95 95 95 88 86 87 81 75 76 72 101 100 93 24 28 28 24 28 28 24 28 28 24 28 28
24 28 28 24 28 28 24 28 28 24 28 28 24 28 28 24 28 28 24 28 28 24 28 28 24 28 28 24 28 28 24 28 28 24 28 28 24 28 28 24 28 28 24 28 28 24 28 28
24 28 28 96 94 92 104 102 100 99 98 96 88 88 86 92 93 91 70 72 70 86 89 87 71 74 72 88 89 87 89 89 87 83 83 81 89 87 85 85 83 81 86 84 82 106 104 102
89 88 86 106 105 103 89 88 86 85 84 82 83 83 81 102 102 100 83 82 80 81 81 79 86 86 84 103 103 101 100 99 97 90 89 87 87 86 84 86 85 83 102 100 98 95 93 91
97 95 93 103 101 99 88 87 85 79 78 76 79 79 77 88 90 88 74 76 74 80 84 82 72 74 72 75 76 74 88 88 86 89 88 86 91 89 87 110 108 106 85 84 82 105 104 102
97 97 95 82 83 81 87 90 88 67 70 68 78 80 78 85 86 84 87 86 84 108 106 104 102 100 98 86 85 83 84 83 81 88 88 86 82 84 82 92 95 93 67 70 68 94 95 93
98 98 96 104 103 101 108 106 104 110 108 106 98 97 95 83 87 85 93 97 95 101 105 103 89 93 91 82 86 84 84 88 86 94 98 96 87 91 89 106 110 108 80 84 82 80 84 82
24 28 28 24 28 28 24 28 28 47 54 63 51 58 67 64 71 80 24 28 28 60 67 76 54 61 70 55 62 71 46 53 62 24 28 28 65 72 81 58 65 74 63 70 79 51 58 67
48 75 93 98 70 87 62 75 94 46 73 91 44 70 87 42 68 84 40 66 82 36 61 76 44 71 89 31 54 67 29 52 65 31 54 67 31 53 67 33 56 70 32 55 69 42 68 85
31 53 67 96 65 82 45 72 89 35 58 73 42 67 83 42 68 84 45 71 88 50 77 96 84 77 95 47 73 90 53 82 101 45 71 87 49 76 94 49 76 94 43 67 83 55 84 104
47 73 90 53 82 101 52 80 99 51 78 97 101 71 89 46 72 89 40 65 81 39 64 79 93 67 84 40 65 82 94 65 81 42 69 86 31 54 67 41 68 85 31 53 67 60 68 86
30 52 66 44 71 90 32 55 69 42 68 86 44 71 89 47 74 93 36 60 74 85 69 86 41 67 83 45 71 88 45 71 88 43 68 84 66 80 99 53 81 100 44 70 86 51 78 97
53 81 100 41 65 80 108 75 93 42 67 82 53 81 101 105 74 92 49 76 94 40 65 80 41 66 81 52 80 99 74 75 93 49 76 95 38 62 78 36 60 74 45 73 91 44 71 89
43 70 88 41 66 83 39 64 80 34 58 73 32 55 69 34 58 72 29 51 65 39 64 81 35 59 75 46 73 92 42 68 85 47 75 93 44 70 87 36 60 74 38 62 77 47 74 92
42 67 82 44 70 87 48 75 93 49 75 93 44 70 86 94 77 96 44 69 86 52 79 98 120 72 89 44 69 85 53 81 100 46 72 90 47 73 91 24 28 28 24 28 28 24 28 28
24 28 28 24 28 28 24 28 28 24 28 28 24 28 28 24 28 28 87 88 82 81 82 77 87 88 82 83 84 78 99 98 91 94 94 87 100 99 92 78 79 74 78 79 74 79 80 75
73 75 71 84 84 79 103 102 95 74 75 71 24 28 28 24 28 28 24 28 28 85 86 80 93 93 86 105 104 96 102 101 93 97 97 90 24 28 28 24 28 28 24 28 28 24 28 28
24 28 28 24 28 28 24 28 28 24 28 28 24 28 28 24 28 28 24 28 28 24 28 28 24 28 28 24 28 28 24 28 28 24 28 28 24 28 28 24 28 28 24 28 28 24 28 28
24 28 28 98 96 94 93 92 90 88 87 85 79 79 77 88 90 88 71 74 72 78 80 78 77 79 77 89 89 87 87 86 84 94 93 91 99 97 95 84 82 80 99 98 96 81 80 78
88 87 85 99 99 97 81 81 79 90 91 89 86 88 86 79 81 79 73 75 73 91 94 92 90 92 90 93 95 93 89 90 88 99 100 98 79 80 78 93 93 91 85 84 82 95 94 92
104 102 100 89 87 85 106 104 102 82 80 78 102 101 99 83 83 81 77 78 76 81 84 82 65 69 67 69 71 69 83 84 82 99 99 97 102 100 98 104 103 101 102 100 98 108 106 104
100 99 97 86 87 85 79 81 79 83 86 84 77 80 78 75 76 74 103 103 101 97 95 93 93 91 89 108 106 104 102 101 99 94 94 92 99 99 97 75 78 76 71 75 73 73 75 73
91 91 89 101 100 98 99 97 95 110 108 106 89 87 85 91 95 93 84 88 86 86 90 88 99 103 101 87 91 89 89 93 91 78 82 80 85 89 87 99 103 101 84 88 86 106 110 108
24 28 28 24 28 28 24 28 28 47 54 63 60 67 76 43 50 59 24 28 28 46 53 62 62 69 78 50 57 66 60 67 76 24 28 28 56 63 72 53 60 69 59 66 75 44 51 60
36 59 74 114 65 81 47 75 93 38 62 78 34 57 72 38 63 79 39 65 81 32 55 68 29 52 65 34 59 74 29 51 64 39 64 81 55 68 85 38 64 80 30 53 66 31 54 68
41 67 84 52 72 91 46 73 91 44 71 88 35 59 73 36 59 74 37 60 75 106 70 87 40 65 80 78 77 96 48 76 94 73 80 99 42 67 83 50 77 96 45 71 88 94 76 94
48 75 93 52 81 100 52 81 100 79 75 94 43 69 86 45 71 89 49 77 96 41 66 83 42 67 84 32 55 69 96 63 79 33 57 71 39 65 82 39 64 80 36 60 76 42 69 86
36 60 76 28 51 64 31 54 68 30 53 67 32 55 69 81 66 83 32 54 68 37 61 76 41 67 84 35 58 72 35 59 73 48 76 94 45 71 88 52 80 100 71 79 98 46 72 89
51 79 98 48 75 92 53 81 101 52 80 99 43 68 84 40 64 79 40 65 80 39 63 78 49 76 95 120 65 82 35 58 72 47 74 92 39 64 79 88 66 83 45 72 90 49 72 90
53 70 88 36 61 76 38 64 80 30 53 66 36 60 76 36 60 76 69 65 82 28 50 63 34 58 73 36 61 76 42 69 86 32 55 69 43 69 86 49 76 95 45 72 90 42 67 83
51 80 99 50 78 97 45 71 89 44 70 86 43 68 84 53 81 100 47 73 90 53 82 101 53 82 101 50 78 96 105 72 90 46 72 89 42 67 83 24 28 28 24 28 28 24 28 28
24 28 28 24 28 28 24 28 28 24 28 28 24 28 28 24 28 28 104 103 95 94 94 87 95 95 88 85 85 80 85 86 80 73 75 71 79 81 75 84 85 79 82 83 78 83 84 79
89 89 83 93 93 86 84 85 79 90 90 84 24 28 28 24 28 28 24 28 28 71 73 69 100 99 92 98 98 90 103 102 95 94 94 87 24 28 28 24 28 28 24 28 28 24 28 28
24 28 28 24 28 28 24 28 28 24 28 28 24 28 28 24 28 28 24 28 28 24 28 28 24 28 28 24 28 28 24 28 28 24 28 28 24 28 28 24 28 28 24 28 28 24 28 28
24 28 28 87 85 83 95 94 92 99 99 97 85 87 85 86 89 87 72 75 73 91 93 91 103 103 101 97 96 94 104 102 100 100 98 96 110 108 106 86 84 82 86 85 83 100 100 98
87 88 86 79 81 79 68 70 68 84 87 85 90 94 92 68 71 69 68 71 69 74 77 75 81 84 82 81 85 83 70 74 72 77 81 79 76 79 77 96 98 96 89 90 88 85 85 83
81 80 78 84 83 81 107 105 103 102 100 98 110 108 106 98 97 95 79 79 77 97 98 96 92 94 92 67 70 68 78 80 78 80 81 79 95 95 93 82 81 79 87 85 83 110 108 106
96 95 93 86 85 83 96 97 95 91 93 91 69 73 71 95 97 95 76 77 75 93 92 90 86 84 82 107 105 103 107 105 103 104 103 101 85 85 83 86 88 86 85 88 86 69 71 69
93 94 92 103 102 100 88 87 85 110 108 106 85 83 81 97 95 93 88 92 90 80 84 82 79 83 81 92 96 94 93 97 95 84 88 86 92 96 94 99 103 101 85 89 87 94 98 96
24 28 28 24 28 28 24 28 28 67 74 83 54 61 70 61 68 77 24 28 28 51 58 67 60 67 76 66 73 82 56 63 72 24 28 28 59 66 75 68 75 84 54 61 70 49 56 65
42 68 85 35 59 74 36 60 75 94 63 80 41 68 85 42 69 87 29 52 65 36 62 78 34 59 75 37 63 79 39 65 82 36 62 78 26 48 60 41 68 86 35 59 75 33 57 72
66 65 83 43 70 88 31 54 67 36 60 75 88 66 83 44 71 88 85 70 87 40 65 81 36 59 74 45 72 89 41 66 83 39 64 79 44 69 86 44 70 87 48 76 94 42 68 84
48 75 94 104 70 87 49 77 96 40 66 82 34 57 72 44 70 88 40 66 82 38 63 79 38 63 79 38 63 79 34 58 73 113 55 70 37 63 79 104 56 71 30 53 68 26 48 61
28 50 63 39 65 82 31 55 69 40 66 84 37 62 78 35 59 75 34 58 73 44 72 90 36 61 76 44 71 89 46 74 93 45 72 90 46 74 92 39 64 80 37 61 76 51 80 100
39 63 79 46 72 90 43 68 85 48 76 94 42 67 84 49 77 95 50 79 98 48 75 94 45 72 90 47 74 93 113 63 79 32 55 69 37 62 77 100 61 77 42 69 87 36 61 77
41 67 85 28 50 63 34 58 74 113 53 68 36 62 78 30 54 68 27 49 62 29 52 66 37 63 79 31 54 68 32 55 69 33 56 70 42 68 86 56 73 91 45 72 90 37 61 76
40 65 81 71 75 93 50 78 97 121 67 83 49 77 96 51 79 99 40 65 81 43 68 85 50 78 98 40 65 81 86 73 92 49 77 96 36 60 75 24 28 28 24 28 28 24 28 28
24 28 28 24 28 28 24 28 28 24 28 28 24 28 28 24 28 28 89 90 83 86 87 81 94 94 88 71 73 69 83 84 79 89 89 83 89 89 83 88 89 82 100 100 92 94 94 87
83 84 78 99 98 91 97 96 89 89 90 83 24 28 28 24 28 28 24 28 28 76 78 73 88 89 83 103 102 94 88 88 82 79 81 76 24 28 28 24 28 28 24 28 28 24 28 28
24 28 28 24 28 28 24 28 28 24 28 28 24 28 28 24 28 28 24 28 28 24 28 28 24 28 28 24 28 28 24 28 28 24 28 28 24 28 28 24 28 28 24 28 28 24 28 28
24 28 28 88 86 84 100 100 98 75 76 74 88 91 89 88 92 90 86 88 86 78 78 76 96 95 93 91 89 87 93 91 89 89 87 85 92 91 89 80 79 77 88 88 86 76 77 75
84 86 84 77 81 79 91 94 92 85 87 85 93 95 93 91 92 90 100 101 99 92 92 90 79 80 78 83 84 82 80 81 79 74 76 74 94 97 95 70 73 71 70 73 71 86 88 86
90 91 89 90 89 87 106 104 102 94 93 91 94 92 90 86 84 82 89 88 86 96 96 94 82 83 81 74 77 75 79 83 81 89 91 89 88 88 86 100 99 97 87 85 83 107 105 103
86 84 82 98 98 96 78 79 77 98 100 98 67 71 69 89 91 89 92 93 91 89 88 86 107 106 104 97 95 93 90 88 86 107 105 103 82 82 80 94 95 93 81 84 82 87 90 88
95 97 95 102 101 99 97 96 94 111 109 107 110 108 106 91 90 88 93 97 95 100 104 102 86 90 88 100 104 102 84 88 86 95 99 97 88 92 90 84 88 86 101 105 103 98 102 100
24 28 28 24 28 28 24 28 28 57 64 73 55 62 71 43 50 59 24 28 28 41 48 57 58 65 74 67 74 83 65 72 81 24 28 28 47 54 63 52 59 68 64 71 80 57 64 73
42 69 86 33 57 72 43 70 88 38 63 80 33 58 73 37 64 81 25 47 60 46 64 82 29 53 67 29 52 67 24 46 59 27 50 64 53 61 78 34 60 76 28 51 66 32 57 72
25 47 60 28 51 64 30 54 68 30 53 68 34 58 74 44 71 90 36 60 76 43 70 88 104 64 81 35 59 74 43 70 88 43 70 87 100 68 85 42 68 84 37 61 77 43 70 87
41 66 83 39 64 80 91 67 84 39 64 80 43 70 88 31 54 68 33 58 73 31 54 69 65 64 82 37 63 80 43 66 84 28 51 65 33 58 74 35 60 77 28 51 66 37 64 81
36 62 80 24 47 60 48 63 80 24 46 59 30 54 69 26 48 61 39 65 83 40 67 84 42 69 87 38 63 80 33 57 71 34 58 73 42 68 86 36 61 76 33 56 71 45 72 91
43 69 86 48 77 96 40 65 81 87 70 88 96 68 86 48 76 95 53 75 94 38 63 79 40 66 83 35 59 74 29 52 66 30 53 67 39 66 83 32 56 71 29 53 67 27 50 64
92 55 70 35 61 77 74 57 73 26 48 62 33 58 74 37 64 81 34 59 76 33 58 74 32 57 73 30 54 68 33 58 74 34 59 75 36 61 77 37 63 80 97 61 78 31 54 68
36 61 76 44 72 90 42 68 85 44 71 89 36 60 76 36 61 76 47 75 94 39 65 81 39 65 81 35 59 74 34 57 72 49 76 95 62 72 90 24 28 28 24 28 28 24 28 28
24 28 28 24 28 28 24 28 28 24 28 28 24 28 28 24 28 28 98 97 90 79 80 75 82 83 78 80 81 76 95 95 88 82 83 78 95 95 88 97 96 89 97 96 89 97 97 90
90 90 84 88 89 82 85 86 80 97 97 90 24 28 28 24 28 28 24 28 28 75 77 72 93 93 86 83 84 79 83 84 79 104 104 96 24 28 28 24 28 28 24 28 28 24 28 28
24 28 28 24 28 28 24 28 28 24 28 28 24 28 28 24 28 28 24 28 28 24 28 28 24 28 28 24 28 28 24 28 28 24 28 28 24 28 28 24 28 28 24 28 28 24 28 28
24 28 28 95 94 92 87 88 86 79 81 79 91 95 93 81 83 81 88 89 87 105 104 102 105 103 101 109 107 105 97 95 93 91 89 87 89 88 86 99 100 98 89 90 88 71 74 72
77 80 78 93 95 93 86 87 85 83 83 81 48 47 45 69 68 66 57 56 54 58 57 55 49 48 46 70 69 67 69 69 67 69 68 66 98 99 97 84 86 84 74 77 75 84 88 86
81 83 81 89 90 88 97 96 94 91 89 87 90 88 86 92 90 88 103 101 99 86 85 83 87 87 85 93 95 93 87 91 89 82 84 82 98 99 97 87 86 84 88 87 85 100 98 96
110 108 106 106 104 102 79 79 77 76 78 76 94 97 95 75 79 77 86 88 86 81 81 79 107 106 104 102 100 98 107 105 103 103 102 100 94 94 92 83 84 82 95 98 96 74 78 76
84 86 84 86 87 85 101 100 98 99 97 95 107 105 103 109 107 105 85 89 87 80 84 82 92 96 94 86 90 88 82 86 84 80 84 82 95 99 97 104 108 106 101 105 103 97 101 99
24 28 28 24 28 28 24 28 28 52 59 68 68 75 84 57 64 73 24 28 28 50 57 66 56 63 72 55 62 71 63 70 79 24 28 28 60 67 76 68 75 84 44 51 60 55 62 71
49 68 86 35 60 76 35 61 78 24 46 59 29 53 68 28 51 66 26 50 64 20 42 54 27 51 66 27 50 65 24 46 60 28 52 67 30 54 70 64 55 71 27 51 66 31 56 72
34 60 77 32 56 72 36 62 80 36 62 79 39 65 83 29 52 66 33 57 73 37 62 79 40 66 84 37 63 80 35 60 75 38 63 80 45 73 92 33 57 72 38 63 79 32 56 71
81 66 84 38 64 80 37 62 79 28 51 64 38 65 82 28 51 65 30 54 69 30 54 69 38 65 83 82 55 71 101 50 65 21 42 55 25 48 62 23 45 59 88 50 65 22 44 57
25 49 63 25 48 62 23 45 59 25 49 63 33 59 75 33 59 76 25 48 62 26 49 63 31 56 71 33 58 74 35 60 76 36 61 78 33 57 72 42 70 88 38 63 80 41 68 86
33 57 71 34 58 74 45 73 92 41 67 85 43 70 89 36 61 77 37 63 79 36 62 78 39 65 82 40 67 85 26 49 62 32 57 73 29 53 67 28 52 67 35 61 77 22 44 57
24 47 60 31 56 72 34 60 77 20 42 54 26 49 64 27 52 67 22 44 57 26 49 64 23 46 59 22 43 56 85 54 70 37 63 81 72 59 76 38 65 82 32 56 72 49 68 87
33 57 73 39 65 82 40 67 84 43 71 90 49 73 92 44 71 90 45 73 92 40 66 83 41 67 85 45 74 93 34 59 75 57 70 88 42 69 88 24 28 28 24 28 28 24 28 28
24 28 28 24 28 28 24 28 28 24 28 28 24 28 28 24 28 28 75 77 72 78 79 74 81 82 76 93 93 86 98 98 91 85 86 80 98 97 90 89 90 83 96 96 89 85 85 80
97 96 89 85 86 80 88 89 83 95 95 88 24 28 28 24 28 28 24 28 28 96 95 88 71 73 69 99 98 91 105 104 96 72 73 69 24 28 28 24 28 28 24 28 28 24 28 28
24 28 28 24 28 28 24 28 28 24 28 28 24 28 28 24 28 28 24 28 28 24 28 28 24 28 28 24 28 28 24 28 28 24 28 28 24 28 28 24 28 28 24 28 28 24 28 28
24 28 28 88 87 85 98 99 97 90 92 90 86 90 88 95 97 95 79 80 78 93 93 91 104 102 100 108 106 104 89 87 85 90 89 87 97 97 95 90 92 90 84 87 85 89 93 91
73 75 73 90 91 89 56 55 53 72 71 69 58 56 54 72 70 68 51 49 47 74 72 70 51 49 47 49 47 45 56 54 52 59 58 56 59 58 56 78 78 76 87 88 86 92 95 93
64 68 66 96 98 96 79 79 77 90 89 87 92 90 88 103 101 99 98 96 94 107 105 103 97 97 95 97 98 96 77 79 77 89 93 91 80 82 80 84 84 82 87 86 84 93 92 90
98 96 94 98 96 94 98 98 96 74 75 73 86 89 87 86 90 88 94 96 94 87 87 85 85 84 82 89 87 85 86 84 82 95 93 91 86 85 83 85 85 83 71 73 71 82 86 84
91 93 91 87 88 86 83 82 80 87 85 83 102 100 98 95 93 91 79 83 81 91 95 93 86 90 88 100 104 102 84 88 86 95 99 97 97 101 99 105 109 107 93 97 95 102 106 104
24 28 28 24 28 28 24 28 28 58 65 74 67 74 83 48 55 64 24 28 28 58 65 74 52 59 68 61 68 77 61 68 77 24 28 28 53 60 69 66 73 82 51 58 67 52 59 68
55 65 83 28 51 65 37 64 81 23 45 58 36 63 81 49 59 76 24 48 62 23 46 60 18 39 51 31 56 73 21 44 57 30 55 72 27 51 66 18 40 52 64 53 69 93 48 63
27 51 66 29 54 70 48 61 78 36 63 80 26 49 63 35 61 78 33 58 74 39 66 85 29 53 68 41 68 86 29 52 66 41 68 86 36 62 78 38 64 80 33 57 73 38 64 81
56 69 88 40 67 85 39 66 84 28 51 65 31 55 70 38 65 83 28 51 66 26 49 64 28 53 68 53 59 76 20 42 55 74 53 68 33 59 77 30 55 71 32 58 75 30 56 72
28 53 69 55 54 71 19 40 52 25 49 64 31 57 73 20 42 55 23 46 59 32 57 73 30 54 70 33 59 75 30 54 69 29 52 67 38 65 83 39 66 84 41 69 87 33 57 73
38 64 81 39 65 82 37 63 80 32 56 70 31 54 69 43 71 90 43 70 89 33 58 74 106 56 72 38 65 83 25 47 60 33 59 75 26 49 63 32 57 73 31 57 73 50 58 75
31 56 72 18 40 52 30 55 71 19 41 53 65 52 68 20 42 55 18 40 52 32 58 74 88 49 64 55 57 73 55 58 75 24 46 60 36 62 80 38 65 83 29 52 67 27 51 65
31 55 70 34 59 75 36 62 78 77 65 82 87 64 81 34 58 74 32 56 71 30 54 68 40 67 85 42 69 87 41 68 86 63 66 84 81 62 79 24 28 28 24 28 28 24 28 28
24 28 28 24 28 28 24 28 28 24 28 28 24 28 28 24 28 28 81 82 76 103 102 94 104 103 95 94 94 87 97 97 90 99 99 91 81 82 77 86 87 81 96 96 89 87 88 82
73 74 70 85 85 80 83 84 79 84 85 80 24 28 28 24 28 28 24 28 28 99 98 91 91 91 85 92 92 86 82 83 78 90 90 84 24 28 28 24 28 28 24 28 28 24 28 28
24 28 28 24 28 28 24 28 28 24 28 28 24 28 28 24 28 28 24 28 28 24 28 28 24 28 28 24 28 28 24 28 28 24 28 28 24 28 28 24 28 28 24 28 28 24 28 28
24 28 28 87 87 85 86 87 85 91 94 92 89 92 90 97 98 96 89 89 87 99 97 95 93 91 89 92 90 88 94 93 91 79 78 76 77 78 76 89 92 90 76 80 78 80 82 80
84 85 83 56 56 54 60 59 57 58 56 54 74 72 70 56 54 52 52 50 48 53 51 49 48 46 44 63 62 60 57 55 53 65 63 61 69 67 65 56 56 54 100 100 98 85 87 85
83 86 84 68 71 69 86 87 85 78 78 76 102 101 99 109 108 106 101 99 97 108 106 104 81 80 78 94 95 93 86 88 86 81 85 83 73 76 74 84 84 82 95 94 92 86 84 82
88 86 84 97 95 93 86 85 83 85 85 83 76 78 76 73 76 74 84 86 84 82 83 81 103 102 100 87 85 83 95 93 91 92 91 89 99 98 96 101 101 99 78 80 78 76 80 78
69 71 69 85 85 83 90 90 88 81 80 78 103 101 99 86 85 83 88 87 85 104 108 106 106 110 108 90 94 92 105 109 107 103 107 105 78 82 80 86 90 88 103 107 105 88 92 90
24 28 28 24 28 28 24 28 28 45 52 61 56 63 72 68 75 84 24 28 28 47 54 63 61 68 77 54 61 70 64 71 80 24 28 28 59 66 75 68 75 84 56 63 72 67 74 83
35 60 77 33 58 74 39 66 84 34 60 77 26 49 64 25 48 62 24 47 61 23 46 59 19 41 53 25 49 63 64 54 70 32 58 75 23 46 59 26 49 64 34 61 78 42 60 77
67 56 72 35 61 79 27 50 64 34 60 76 101 54 70 39 66 84 29 52 67 29 53 67 29 52 67 34 59 75 29 52 66 41 67 85 36 62 78 42 69 88 42 69 88 38 64 81
41 68 86 35 59 75 37 62 79 41 68 87 28 51 64 27 50 64 64 62 80 26 48 62 56 61 78 23 46 59 30 55 71 35 61 78 31 56 72 78 52 67 19 41 53 24 47 62
21 43 56 28 53 68 25 48 62 29 54 70 30 54 70 23 45 58 23 45 59 107 51 66 27 50 64 88 58 74 102 56 72 38 64 82 33 58 73 96 61 78 52 71 90 58 70 89
35 60 75 42 70 88 43 71 89 38 63 80 33 58 73 31 54 68 35 60 76 42 70 88 30 54 68 27 50 64 33 58 74 30 54 69 31 56 71 23 45 58 25 48 62 31 56 72
52 58 75 34 61 78 56 56 72 33 59 76 24 46 60 34 60 77 29 53 69 31 57 73 101 48 63 31 56 72 26 49 63 32 57 73 25 47 61 93 56 72 31 55 70 27 50 63
41 68 87 36 62 79 30 53 67 38 64 81 35 59 75 34 59 74 33 57 72 35 59 75 101 62 79 30 54 68 33 57 72 36 61 78 36 61 78 24 28 28 24 28 28 24 28 28
24 28 28 24 28 28 24 28 28 24 28 28 24 28 28 24 28 28 78 79 74 100 99 92 70 72 68 94 94 87 88 88 82 96 96 89 77 78 74 101 100 93 96 96 89 70 72 68
90 90 84 99 98 91 101 100 93 98 98 91 24 28 28 24 28 28 24 28 28 87 87 81 95 95 88 101 101 93 80 81 76 71 73 68 24 28 28 24 28 28 24 28 28 24 28 28
24 28 28 24 28 28 24 28 28 24 28 28 24 28 28 24 28 28 24 28 28 24 28 28 24 28 28 24 28 28 24 28 28 24 28 28 24 28 28 24 28 28 24 28 28 24 28 28
24 28 28 102 102 100 96 98 96 72 76 74 76 78 76 93 93 91 104 104 102 81 80 78 96 94 92 103 101 99 96 95 93 95 95 93 81 83 81 84 88 86 77 79 77 79 80 78
64 64 62 47 45 43 74 72 70 60 58 56 48 46 44 66 65 63 77 76 74 82 81 79 86 86 84 65 64 62 54 53 51 74 72 70 62 60 58 62 61 59 58 58 56 94 95 93
78 80 78 87 91 89 79 81 79 97 97 95 80 79 77 94 92 90 103 101 99 105 103 101 107 106 104 95 96 94 77 79 77 87 91 89 91 94 92 78 79 77 101 101 99 107 105 103
85 83 81 100 99 97 86 85 83 89 89 87 79 80 78 77 80 78 85 87 85 83 84 82 87 87 85 101 100 98 92 90 88 102 100 98 85 84 82 94 94 92 78 80 78 67 70 68
86 89 87 73 74 72 91 90 88 108 107 105 110 108 106 111 109 107 88 87 85 102 106 104 94 98 96 82 86 84 86 90 88 103 107 105 105 109 107 100 104 102 81 85 83 87 91 89
24 28 28 24 28 28 24 28 28 52 59 68 46 53 62 62 69 78 24 28 28 52 59 68 64 71 80 60 67 76 59 66 75 24 28 28 54 61 70 57 64 73 54 61 70 59 66 75
32 56 71 29 51 65 42 70 88 31 55 70 26 48 61 61 62 79 33 58 74 33 58 74 34 60 77 22 44 56 24 47 60 30 54 69 27 51 65 24 47 60 32 57 72 23 45 57
26 48 61 29 52 67 33 58 73 37 63 80 43 70 89 33 57 72 99 62 78 33 57 71 40 65 82 36 60 75 34 58 73 52 76 95 41 67 84 49 77 97 42 68 85 48 76 96
84 69 87 43 70 88 36 60 76 43 70 88 38 63 80 41 68 86 78 64 81 40 66 84 30 54 68 30 53 68 37 63 80 27 50 64 81 56 72 34 59 76 83 54 70 29 53 67
32 57 73 29 53 68 74 56 73 26 49 63 34 60 76 37 63 80 31 54 69 27 49 63 40 66 84 68 66 83 35 59 75 32 56 71 51 73 92 42 68 86 41 67 84 35 60 75
34 58 72 71 73 91 47 74 93 36 61 76 34 57 72 44 71 89 34 58 73 35 60 75 38 63 80 33 57 72 38 64 81 35 59 75 34 58 74 29 53 67 29 53 68 34 59 75
35 60 77 28 52 66 25 47 61 34 59 76 22 43 56 25 48 61 28 52 66 26 48 62 27 50 65 26 49 62 36 61 78 37 63 80 33 58 73 35 59 75 35 60 76 87 64 81
38 64 81 80 68 86 37 62 78 59 74 93 41 67 84 35 59 73 35 59 75 41 66 83 40 66 82 43 69 87 35 60 75 32 55 70 38 63 79 24 28 28 24 28 28 24 28 28
24 28 28 24 28 28 24 28 28 24 28 28 24 28 28 24 28 28 71 73 69 74 76 71 101 100 93 86 86 80 82 83 78 96 96 89 92 92 86 104 103 95 99 99 91 78 79 74
101 101 93 78 79 74 77 78 73 101 101 93 24 28 28 24 28 28 24 28 28 98 98 91 105 104 96 101 100 93 93 93 87 70 72 68 24 28 28 24 28 28 24 28 28 24 28 28
24 28 28 24 28 28 24 28 28 24 28 28 24 28 28 24 28 28 24 28 28 24 28 28 24 28 28 24 28 28 24 28 28 24 28 28 24 28 28 24 28 28 24 28 28 24 28 28
24 28 28 80 81 79 86 88 86 66 69 67 78 80 78 78 79 77 96 95 93 83 81 79 97 95 93 89 87 85 99 98 96 94 94 92 88 90 88 81 85 83 88 91 89 90 91 89
45 45 43 50 48 46 55 53 51 55 54 52 47 46 44 84 83 81 84 85 83 72 74 72 80 81 79 76 76 74 58 57 55 49 47 45 60 58 56 50 48 46 67 66 64 79 79 77
84 86 84 66 70 68 75 77 75 82 82 80 78 78 76 96 94 92 105 103 101 89 88 86 85 84 82 81 81 79 84 85 83 88 91 89 92 94 92 94 95 93 102 102 100 106 105 103
105 103 101 90 88 86 91 90 88 86 86 84 72 74 72 83 86 84 82 85 83 80 81 79 82 81 79 82 81 79 89 87 85 88 86 84 107 106 104 104 103 101 91 93 91 67 71 69
75 78 76 96 97 95 79 78 76 100 99 97 95 93 91 105 103 101 102 100 98 98 102 100 99 103 101 104 108 106 106 110 108 84 88 86 84 88 86 79 83 81 98 102 100 95 99 97
24 28 28 24 28 28 24 28 28 58 65 74 51 58 67 46 53 62 24 28 28 47 54 63 61 68 77 57 64 73 46 53 62 24 28 28 46 53 62 50 57 66 66 73 82 54 61 70
47 75 94 45 72 91 34 57 72 37 61 77 40 66 83 76 64 81 35 60 76 31 55 69 27 49 62 36 61 77 26 48 61 26 49 62 37 62 79 27 49 63 31 54 69 39 65 82
30 53 67 36 61 77 41 67 84 32 55 69 36 60 75 32 55 69 36 60 76 38 62 77 38 63 78 56 78 97 46 72 90 43 68 85 37 61 76 109 70 87 48 75 94 69 77 96
37 61 76 42 68 85 40 66 82 116 64 81 47 74 93 46 73 91 42 69 86 43 70 88 30 53 67 32 55 69 41 67 84 39 65 83 27 49 62 26 49 62 103 55 70 39 65 82
37 63 80 31 55 69 32 56 71 41 68 86 41 68 85 40 67 84 42 69 87 43 69 87 40 65 82 36 60 75 34 57 72 44 71 89 35 59 74 68 75 94 53 79 99 46 73 91
50 78 97 40 64 80 38 62 78 43 69 85 50 79 98 44 70 87 48 76 94 36 60 75 107 66 82 45 71 89 44 71 88 32 55 69 42 68 86 36 60 76 43 70 88 34 58 74
34 59 74 39 65 83 38 64 81 27 49 62 34 59 75 86 58 74 27 49 63 55 65 82 31 55 69 42 69 87 104 58 74 32 55 70 42 69 86 57 72 90 35 59 74 61 74 92
38 62 78 36 59 74 36 59 74 39 64 80 52 80 100 48 76 94 50 78 97 57 80 100 122 67 83 43 69 86 45 71 89 45 72 90 46 73 91 24 28 28 24 28 28 24 28 28
24 28 28 24 28 28 24 28 28 24 28 28 24 28 28 24 28 28 89 90 84 75 76 72 72 74 70 92 92 86 76 78 73 75 77 72 74 76 72 96 95 89 94 94 87 75 77 72
100 100 92 77 79 74 81 82 77 79 80 75 24 28 28 24 28 28 24 28 28 74 75 71 99 98 91 75 76 72 98 98 91 71 73 69 24 28 28 24 28 28 24 28 28 24 28 28
24 28 28 24 28 28 24 28 28 24 28 28 24 28 28 24 28 28 24 28 28 24 28 28 24 28 28 24 28 28 24 28 28 24 28 28 24 28 28 24 28 28 24 28 28 24 28 28
24 28 28 100 100 98 90 92 90 79 83 81 88 90 88 76 77 75 103 102 100 92 90 88 84 82 80 97 95 93 95 94 92 81 82 80 73 75 73 80 84 82 93 96 94 93 94 92
48 47 45 64 62 60 60 58 56 69 68 66 70 69 67 66 66 64 64 65 63 63 66 64 68 70 68 87 88 86 47 46 44 50 48 46 49 47 45 48 47 45 73 72 70 101 101 99
91 93 91 76 80 78 81 83 81 97 97 95 87 87 85 84 83 81 104 102 100 108 107 105 92 91 89 92 92 90 93 94 92 86 89 87 93 96 94 91 92 90 95 95 93 93 92 90
96 94 92 93 91 89 105 104 102 86 86 84 77 79 77 67 70 68 79 82 80 78 79 77 103 102 100 82 81 79 92 90 88 102 100 98 92 91 89 103 103 101 93 95 93 81 85 83
86 89 87 80 81 79 101 100 98 86 85 83 88 86 84 108 106 104 102 100 98 80 84 82 96 100 98 89 93 91 84 88 86 81 85 83 84 88 86 84 88 86 83 87 85 101 105 103
24 28 28 24 28 28 24 28 28 66 73 82 43 50 59 58 65 74 24 28 28 53 60 69 52 59 68 41 48 57 41 48 57 24 28 28 41 48 57 48 55 64 44 51 60 55 62 71
35 59 73 49 77 96 43 69 86 33 56 70 39 64 80 34 58 73 31 53 67 33 57 72 29 51 64 31 54 68 40 66 83 37 62 79 31 54 68 38 63 80 30 52 66 31 54 68
42 68 86 35 59 74 44 71 89 113 62 78 42 68 85 47 74 92 48 75 93 52 80 100 48 75 93 39 63 78 47 73 91 53 82 101 50 77 96 51 78 97 45 71 88 49 76 94
79 78 97 44 70 86 56 81 100 86 74 92 49 76 95 39 63 78 78 71 89 44 70 88 65 71 89 43 69 86 34 58 72 43 69 87 49 70 88 36 61 77 40 66 83 41 68 85
35 60 75 40 66 83 32 56 70 35 59 74 32 55 69 32 55 69 45 72 91 38 62 78 37 61 76 112 64 81 48 75 93 105 69 86 51 79 98 50 78 97 52 80 99 42 67 82
39 63 78 48 75 93 45 71 88 44 70 86 39 63 77 41 66 81 46 72 89 46 73 91 43 69 86 47 74 92 101 67 84 35 59 74 45 72 90 37 61 76 36 60 76 112 59 74
107 59 74 28 50 63 41 67 84 29 51 64 40 66 84 29 52 65 36 60 76 38 64 80 35 59 75 31 54 68 37 61 77 35 59 74 34 57 71 48 75 94 114 65 81 46 73 91
45 71 89 41 65 81 51 79 98 48 75 93 47 74 91 54 82 102 61 82 102 45 71 87 54 83 103 45 70 87 42 68 84 52 81 100 41 67 83 24 28 28 24 28 28 24 28 28
24 28 28 24 28 28 24 28 28 24 28 28 24 28 28 24 28 28 82 83 78 76 77 73 88 88 82 98 97 90 78 80 75 79 80 75 104 103 95 76 78 73 102 101 94 87 87 81
70 72 68 74 75 71 92 92 86 95 95 88 24 28 28 24 28 28 24 28 28 74 76 71 93 93 86 100 99 92 98 98 91 103 102 94 24 28 28 24 28 28 24 28 28 24 28 28
24 28 28 24 28 28 24 28 28 24 28 28 24 28 28 24 28 28 24 28 28 24 28 28 24 28 28 24 28 28 24 28 28 24 28 28 24 28 28 24 28 28 24 28 28 24 28 28
24 28 28 82 83 81 94 96 94 73 77 75 77 80 78 87 88 86 81 81 79 83 81 79 111 109 107 95 94 92 104 103 101 101 101 99 80 81 79 71 74 72 77 80 78 97 98 96
69 68 66 54 53 51 60 58 56 57 55 53 51 50 48 56 55 53 70 70 68 79 80 78 71 71 69 74 73 71 54 53 51 53 52 50 68 66 64 48 46 44 52 51 49 103 103 101
75 77 75 75 79 77 73 75 73 100 101 99 90 89 87 104 102 100 106 104 102 88 87 85 85 84 82 80 80 78 79 81 79 70 74 72 78 80 78 78 78 76 91 91 89 105 103 101
106 104 102 89 88 86 102 101 99 89 89 87 87 88 86 88 91 89 74 77 75 98 99 97 80 80 78 90 89 87 109 107 105 83 81 79 88 87 85 96 96 94 98 100 98 88 92 90
83 86 84 98 99 97 97 96 94 101 100 98 101 99 97 92 90 88 87 86 84 86 90 88 79 83 81 89 93 91 103 107 105 101 105 103 91 95 93 84 88 86 102 106 104 90 94 92
24 28 28 24 28 28 24 28 28 59 66 75 47 54 63 42 49 58 24 28 28 59 66 75 66 73 82 48 55 64 52 59 68 24 28 28 63 70 79 58 65 74 66 73 82 50 57 66
43 68 84 47 74 92 47 74 92 106 65 81 47 74 93 39 65 81 38 62 78 31 54 68 41 67 84 43 70 88 51 70 88 39 64 80 43 70 87 32 55 69 36 61 76 33 56 71
35 59 74 35 59 73 45 72 90 42 68 84 48 76 94 37 61 76 50 78 97 47 74 91 100 73 91 52 80 99 50 78 96 46 71 88 41 65 80 50 77 95 52 80 99 50 77 95
43 68 83 43 68 84 70 80 99 47 73 91 104 70 88 41 66 82 36 60 74 88 69 87 41 66 82 77 69 86 35 58 73 39 64 80 37 62 77 40 65 82 37 62 77 36 61 76
43 70 88 94 61 77 40 66 82 41 67 84 40 65 81 34 57 71 46 73 91 35 59 73 49 77 96 41 66 83 36 60 74 40 64 79 43 68 84 52 80 99 50 78 96 43 67 83
59 84 104 41 65 80 54 83 102 54 82 101 86 79 97 46 71 88 42 67 83 54 82 102 51 79 98 45 71 88 43 68 85 38 62 77 44 70 88 34 57 71 41 66 82 32 55 69
35 59 73 30 52 65 40 66 83 42 69 86 29 51 64 82 64 80 32 55 69 40 66 82 32 55 69 44 70 88 36 60 75 36 60 74 39 64 80 42 68 84 36 60 74 50 78 97
50 78 97 48 75 93 54 82 102 44 69 85 41 66 81 51 79 98 42 67 82 52 80 98 108 74 92 43 68 83 54 83 102 48 75 93 42 67 83 24 28 28 24 28 28 24 28 28
24 28 28 24 28 28 24 28 28 24 28 28 24 28 28 24 28 28 102 101 93 81 82 77 100 99 92 83 84 79 79 80 75 91 91 84 84 85 79 97 97 90 83 84 78 85 86 80
73 75 70 91 91 84 88 89 83 78 80 75 24 28 28 24 28 28 24 28 28 95 95 88 97 97 90 78 79 74 102 101 93 95 95 88 24 28 28 24 28 28 24 28 28 24 28 28
24 28 28 24 28 28 24 28 28 24 28 28 24 28 28 24 28 28 24 28 28 24 28 28 24 28 28 24 28 28 24 28 28 24 28 28 24 28 28 24 28 28 24 28 28 24 28 28
24 28 28 93 93 91 76 78 76 79 83 81 91 94 92 96 97 95 82 81 79 88 87 85 110 108 106 102 100 98 99 98 96 78 78 76 86 87 85 88 91 89 93 96 94 78 80 78
77 78 76 56 55 53 66 64 62 75 73 71 72 70 68 70 68 66 62 61 59 52 51 49 60 58 56 71 69 67 63 61 59 61 59 57 61 60 58 60 59 57 62 62 60 84 86 84
92 95 93 91 94 92 80 81 79 95 95 93 104 103 101 106 104 102 103 101 99 91 89 87 82 81 79 86 86 84 85 87 85 79 83 81 97 99 97 98 98 96 93 92 90 98 96 94
96 94 92 94 92 90 81 80 78 97 98 96 78 80 78 72 76 74 95 98 96 77 78 76 104 104 102 85 83 81 93 91 89 95 94 92 88 87 85 79 79 77 91 92 90 68 71 69
71 73 71 90 91 89 102 102 100 94 93 91 100 98 96 103 101 99 96 95 93 102 106 104 92 96 94 82 86 84 106 110 108 97 101 99 86 90 88 104 108 106 78 82 80 81 85 83
24 28 28 24 28 28 24 28 28 48 55 64 56 63 72 52 59 68 24 28 28 63 70 79 45 52 61 64 71 80 59 66 75 24 28 28 65 72 81 62 69 78 59 66 75 48 55 64
38 61 76 45 71 88 50 78 97 45 71 89 48 75 94 39 64 80 62 71 89 31 53 67 36 60 75 37 61 76 31 53 67 42 69 86 42 69 86 35 58 73 40 65 82 32 55 69
47 74 93 36 60 75 42 67 84 42 67 83 43 69 86 49 76 95 47 74 91 49 77 95 49 76 94 51 79 97 41 65 80 55 84 104 47 73 90 65 84 104 52 80 98 49 76 93
110 74 92 66 82 102 50 77 95 44 69 85 53 81 101 45 71 88 45 71 88 43 69 86 41 66 82 42 67 84 43 69 86 41 67 84 34 57 72 45 72 90 34 57 71 41 67 84
36 60 75 39 65 81 41 67 84 33 56 70 41 67 84 40 65 81 47 74 92 46 73 91 47 74 92 43 69 86 38 62 77 46 73 90 40 64 79 46 72 89 45 70 86 54 82 101
54 83 102 50 76 94 74 82 102 53 81 100 88 79 97 83 79 98 48 74 92 39 63 77 73 78 97 49 77 95 45 72 89 41 66 83 41 66 83 46 72 90 40 65 81 39 64 80
62 70 88 94 63 79 40 66 82 40 66 82 30 52 65 36 61 76 61 69 86 42 68 85 38 62 78 34 57 71 33 55 69 36 60 75 48 75 93 36 59 74 45 71 89 41 65 81
98 73 91 45 71 88 47 74 91 59 84 104 49 75 93 84 80 99 42 66 81 47 73 91 55 84 104 55 84 104 43 67 83 47 74 91 41 66 81 24 28 28 24 28 28 24 28 28
24 28 28 24 28 28 24 28 28 24 28 28 24 28 28 24 28 28 100 99 92 82 83 77 92 92 85 88 88 82 103 102 95 93 93 87 89 90 83 99 99 91 88 89 83 88 89 82
71 73 69 100 100 92 103 102 95 73 75 71 24 28 28 24 28 28 24 28 28 24 28 28 24 28 28 24 28 28 24 28 28 24 28 28 24 28 28 24 28 28 24 28 28 24 28 28
24 28 28 24 28 28 24 28 28 24 28 28 24 28 28 24 28 28 24 28 28 24 28 28 24 28 28 24 28 28 24 28 28 24 28 28 24 28 28 24 28 28 24 28 28 24 28 28
24 28 28 84 84 82 97 98 96 72 75 73 92 95 93 87 89 87 96 96 94 83 82 80 94 93 91 103 101 99 108 106 104 105 104 102 93 94 92 91 93 91 85 88 86 90 93 91
90 91 89 100 100 98 52 51 49 69 68 66 59 57 55 61 59 57 63 61 59 49 47 45 52 50 48 56 54 52 54 52 50 63 61 59 48 47 45 48 48 46 75 76 74 84 86 84
82 86 84 76 79 77 101 101 99 105 104 102 82 81 79 94 92 90 108 106 104 84 83 81 91 90 88 77 78 76 91 94 92 66 69 67 82 83 81 79 79 77 91 90 88 86 85 83
95 93 91 105 103 101 106 105 103 89 90 88 85 87 85 81 85 83 93 95 93 89 89 87 105 104 102 92 90 88 107 105 103 100 98 96 84 83 81 98 99 97 95 97 95 68 71 69
96 99 97 95 96 94 104 103 101 106 104 102 95 93 91 109 108 106 94 93 91 86 90 88 100 104 102 87 91 89 105 109 107 91 95 93 86 90 88 105 109 107 92 96 94 102 106 104
24 28 28 24 28 28 24 28 28 66 73 82 50 57 66 64 71 80 24 28 28 67 74 83 68 75 84 49 56 65 45 52 61 24 28 28 68 75 84 46 53 62 66 73 82 57 64 73
43 68 84 41 66 82 39 63 78 42 68 84 43 68 85 49 76 94 45 71 89 35 58 72 31 53 66 38 63 78 80 66 83 34 58 72 35 59 74 41 66 83 31 54 67 36 60 74
99 65 81 45 72 89 34 57 71 118 65 81 47 73 91 39 63 78 49 76 95 44 69 86 52 80 99 63 84 103 51 78 96 50 77 94 49 76 94 49 76 94 52 79 97 53 80 99
45 71 87 53 80 99 53 81 100 50 77 95 44 70 86 45 71 88 39 62 77 48 75 93 42 67 84 35 59 73 45 71 89 42 68 85 31 54 67 34 57 71 40 65 82 35 59 73
36 59 74 36 60 75 42 68 85 37 61 77 38 62 77 40 64 80 48 75 94 49 76 95 50 77 96 86 73 91 40 64 79 46 71 88 79 79 97 51 78 96 100 77 95 43 68 84
45 71 87 55 84 103 120 74 92 46 71 88 74 83 102 42 67 82 45 70 86 41 65 81 45 71 87 76 77 96 38 61 76 37 60 75 49 77 96 36 59 74 44 70 87 45 71 89
43 69 86 46 73 91 41 66 83 52 71 89 42 68 85 37 61 76 44 70 88 41 67 83 75 69 86 44 71 89 46 73 91 36 59 73 45 71 88 42 67 83 46 72 89 48 75 93
59 82 102 42 66 82 56 85 105 53 81 100 45 70 87 75 83 102 55 83 102 54 82 101 43 67 82 43 68 84 46 72 88 54 83 102 46 72 88 24 28 28 24 28 28 24 28 28
24 28 28 24 28 28 24 28 28 24 28 28 24 28 28 24 28 28 81 82 77 79 80 75 90 90 84 77 79 74 87 88 82 87 88 82 103 102 94 86 86 80 75 76 72 104 103 95
78 79 74 90 90 84 76 77 72 88 88 82 24 28 28 24 28 28 24 28 28 24 28 28 24 28 28 24 28 28 24 28 28 24 28 28 24 28 28 24 28 28 24 28 28 24 28 28
24 28 28 24 28 28 24 28 28 24 28 28 24 28 28 24 28 28 24 28 28 24 28 28 24 28 28 24 28 28 24 28 28 24 28 28 24 28 28 24 28 28 24 28 28 24 28 28
24 28 28 88 87 85 94 94 92 90 92 90 82 86 84 73 75 73 81 82 80 94 94 92 95 94 92 86 84 82 97 95 93 103 102 100 89 89 87 100 101 99 95 97 95 69 73 71
77 79 77 96 98 96 87 87 85 46 46 44 68 68 66 50 48 46 66 65 63 55 53 51 60 58 56 58 57 55 52 51 49 49 49 47 95 95 93 94 96 94 68 71 69 72 76 74
84 86 84 90 92 90 97 97 95 104 103 101 101 100 98 85 83 81 109 107 105 106 105 103 97 97 95 77 78 76 83 86 84 82 85 83 83 84 82 95 95 93 87 86 84 88 86 84
101 99 97 86 85 83 102 101 99 84 85 83 95 98 96 71 74 72 85 86 84 94 94 92 96 95 93 94 93 91 111 109 107 88 86 84 90 89 87 81 82 80 93 95 93 75 78 76
95 97 95 101 101 99 103 102 100 108 106 104 104 102 100 87 85 83 84 88 86 95 99 97 103 107 105 86 90 88 93 97 95 99 103 101 95 99 97 102 106 104 84 88 86 85 89 87
24 28 28 24 28 28 24 28 28 69 76 85 53 60 69 53 60 69 24 28 28 58 65 74 52 59 68 50 57 66 42 49 58 24 28 28 42 49 58 66 73 82 58 65 74 55 62 71
53 80 99 42 66 82 43 68 84 38 61 76 39 63 79 37 60 75 41 66 82 44 70 87 33 56 69 34 56 70 89 66 82 45 72 89 44 70 87 43 69 86 42 68 85 33 56 69
110 65 81 47 73 91 39 63 78 46 73 90 44 69 86 46 72 89 53 81 100 50 76 94 55 84 103 72 84 103 57 85 105 48 74 90 46 72 88 53 81 99 46 70 86 57 85 105
47 72 88 48 74 90 53 81 100 69 83 102 104 74 92 54 83 102 44 70 86 47 73 91 36 59 73 35 58 72 48 76 94 34 57 70 65 72 90 47 74 92 42 68 84 35 59 73
44 70 88 45 71 89 39 64 80 41 66 83 35 58 72 50 77 96 45 71 87 43 69 85 39 63 78 44 69 85 83 77 96 79 79 98 51 77 95 47 73 89 43 67 83 56 85 104
54 81 100 48 74 91 86 83 102 54 82 101 117 76 94 94 80 99 44 68 83 47 72 89 43 68 83 47 73 90 40 64 78 40 64 79 43 68 85 48 75 93 37 60 74 59 75 93
35 58 72 35 58 73 42 68 84 33 56 69 39 63 79 42 67 84 36 60 74 41 66 82 38 63 78 38 62 76 39 63 79 44 69 86 77 75 93 46 72 89 42 66 82 45 71 87
41 65 80 48 74 91 57 85 105 54 82 100 50 76 94 59 88 108 58 87 107 49 74 91 58 86 106 46 70 86 48 74 91 57 86 106 43 68 83 24 28 28 24 28 28 24 28 28
24 28 28 24 28 28 24 28 28 24 28 28 24 28 28 24 28 28 85 86 80 75 77 72 80 81 76 71 73 69 87 88 82 84 85 79 75 77 72 78 79 74 97 97 90 96 95 88
74 76 71 71 73 69 100 100 92 91 92 85 24 28 28 24 28 28 24 28 28 24 28 28 24 28 28 24 28 28 24 28 28 24 28 28 24 28 28 24 28 28 24 28 28 24 28 28
24 28 28 24 28 28 24 28 28 24 28 28 24 28 28 24 28 28 24 28 28 24 28 28 24 28 28 24 28 28 24 28 28 24 28 28 24 28 28 24 28 28 24 28 28 24 28 28
24 28 28 83 82 80 81 81 79 91 92 90 80 83 81 69 73 71 92 94 92 103 103 101 103 102 100 84 82 80 102 100 98 95 93 91 92 90 88 104 103 101 80 81 79 78 80 78
84 87 85 85 89 87 92 95 93 95 97 95 87 87 85 91 92 90 83 83 81 55 55 53 47 46 44 80 80 78 95 96 94 85 86 84 91 93 91 93 96 94 65 69 67 79 82 80
100 101 99 94 93 91 97 96 94 101 99 97 106 104 102 96 94 92 96 94 92 88 88 86 91 92 90 81 84 82 76 80 78 93 95 93 92 92 90 90 89 87 93 91 89 99 97 95
100 99 97 89 88 86 88 88 86 84 86 84 85 89 87 85 88 86 88 89 87 100 100 98 83 82 80 86 84 82 94 92 90 83 82 80 89 88 86 78 79 77 87 90 88 87 90 88
74 76 74 104 104 102 80 79 77 104 103 101 89 87 85 102 100 98 103 107 105 96 100 98 92 96 94 79 83 81 90 94 92 80 84 82 82 86 84 90 94 92 92 96 94 93 97 95
24 28 28 24 28 28 24 28 28 58 65 74 45 52 61 69 76 85 24 28 28 60 67 76 50 57 66 67 74 83 56 63 72 24 28 28 44 51 60 49 56 65 67 74 83 66 73 82
57 85 105 113 74 91 53 80 99 41 64 79 51 78 96 49 76 93 39 62 76 40 64 79 42 67 82 49 77 95 95 68 85 39 63 78 43 68 84 50 77 95 44 70 86 40 64 79
38 60 74 97 72 89 82 76 94 48 74 91 48 74 91 46 72 88 51 77 94 56 84 103 55 83 101 57 84 103 46 71 86 61 90 111 47 71 86 106 82 101 60 88 108 48 72 88
59 87 106 55 82 101 54 81 99 57 85 105 44 68 83 84 81 99 43 68 83 124 70 86 94 74 92 50 77 95 52 79 98 48 75 92 66 76 94 42 66 82 44 69 85 35 58 71
37 60 74 93 69 86 50 78 96 37 60 74 50 77 96 38 61 75 52 79 98 44 69 85 42 66 81 41 65 79 45 69 85 97 79 97 58 86 106 71 87 107 55 82 101 53 79 96
56 84 103 61 91 111 54 81 99 56 84 102 54 81 98 55 82 100 54 80 98 49 75 92 48 73 90 51 78 95 57 85 105 43 67 82 50 76 94 49 75 93 116 68 84 47 73 90
39 63 78 46 72 90 48 74 92 96 68 85 40 64 79 44 69 85 49 77 95 45 71 88 47 74 91 38 60 74 106 70 87 39 63 77 118 70 87 47 72 89 57 85 105 50 77 94
44 69 84 47 71 87 48 73 89 46 70 85 57 85 103 47 72 88 60 88 108 48 73 88 51 77 94 60 89 109 76 87 107 56 84 102 58 87 107 24 28 28 24 28 28 24 28 28
24 28 28 24 28 28 24 28 28 24 28 28 24 28 28 24 28 28 93 93 86 95 95 88 75 76 72 85 86 80 87 87 81 72 74 69 95 95 88 71 73 69 98 98 91 98 98 91
75 76 72 84 85 79 92 92 85 83 84 78 24 28 28 24 28 28 24 28 28 24 28 28 24 28 28 24 28 28 24 28 28 24 28 28 24 28 28 24 28 28 24 28 28 24 28 28
24 28 28 24 28 28 24 28 28 24 28 28 24 28 28 24 28 28 24 28 28 24 28 28 24 28 28 24 28 28 24 28 28 24 28 28 24 28 28 24 28 28 24 28 28 24 28 28
24 28 28 98 96 94 95 94 92 78 78 76 78 80 78 89 93 91 86 89 87 94 96 94 104 104 102 84 83 81 101 99 97 96 94 92 99 97 95 97 96 94 91 90 88 101 102 100
74 75 73 95 97 95 89 93 91 69 73 71 75 78 76 71 73 71 72 74 72 78 80 78 80 82 80 83 86 84 81 83 81 66 70 68 80 84 82 93 96 94 78 79 77 92 93 91
79 79 77 83 82 80 93 91 89 97 95 93 107 105 103 104 103 101 94 94 92 83 84 82 94 96 94 70 74 72 90 92 90 91 92 90 101 100 98 95 93 91 89 87 85 97 95 93
96 95 93 103 103 101 94 95 93 91 93 91 72 76 74 87 89 87 90 90 88 98 97 95 96 94 92 96 94 92 91 90 88 91 90 88 82 82 80 99 101 99 73 77 75 81 84 82
81 82 80 94 94 92 96 95 93 86 84 82 106 104 102 104 103 101 97 101 99 95 99 97 97 101 99 99 103 101 86 90 88 101 105 103 78 82 80 102 106 104 100 104 102 95 99 97
24 28 28 24 28 28 24 28 28 54 61 70 42 49 58 66 73 82 24 28 28 48 55 64 59 66 75 63 70 79 45 52 61 24 28 28 60 67 76 55 62 71 62 69 78 51 58 67
61 89 109 55 82 100 54 80 98 89 81 99 43 66 80 50 76 93 43 66 81 50 76 93 45 70 86 50 76 93 39 62 76 40 64 78 42 66 81 46 72 88 41 64 78 50 76 93
43 67 82 53 80 98 56 84 102 53 80 97 49 74 90 50 76 92 49 74 90 50 74 90 58 86 105 97 87 106 58 85 103 76 93 113 52 78 94 56 82 99 64 94 114 59 87 105
62 90 110 103 86 105 63 92 112 62 90 110 53 78 95 55 81 99 56 83 101 45 69 84 55 83 101 56 84 103 49 74 91 52 79 96 55 82 101 45 69 85 40 64 78 47 72 89
50 76 94 43 67 82 51 78 96 53 80 98 46 71 87 51 77 95 43 67 81 56 84 102 58 86 105 45 69 84 56 83 101 57 84 102 50 75 91 61 90 109 53 78 95 52 77 93
55 81 98 55 81 98 52 77 93 53 78 94 122 84 102 50 75 91 55 81 99 56 83 101 47 72 87 59 88 107 53 79 97 46 71 86 49 74 90 55 82 101 57 85 104 55 83 102
42 66 80 107 72 88 48 74 91 115 69 85 54 82 100 50 77 94 43 67 83 40 63 77 44 68 83 43 66 81 112 74 90 115 74 91 48 73 89 58 86 105 46 70 85 56 84 102
52 77 94 60 88 107 56 83 101 65 94 114 60 88 107 56 82 99 56 83 101 53 79 95 54 79 96 62 90 109 51 76 92 50 74 90 122 81 98 24 28 28 24 28 28 24 28 28
24 28 28 24 28 28 24 28 28 24 28 28 24 28 28 24 28 28 96 96 89 102 102 94 83 84 78 91 91 85 96 96 89 78 79 74 100 100 92 94 94 87 89 89 83 104 103 96
94 94 87 87 87 81 92 92 86 78 79 74 24 28 28 24 28 28 24 28 28 24 28 28 24 28 28 24 28 28 24 28 28 24 28 28 24 28 28 24 28 28 24 28 28 24 28 28
24 28 28 24 28 28 24 28 28 24 28 28 24 28 28 24 28 28 24 28 28 24 28 28 24 28 28 24 28 28 24 28 28 24 28 28 24 28 28 24 28 28 24 28 28 24 28 28
24 28 28 87 85 83 87 85 83 90 89 87 87 88 86 95 98 96 88 92 90 81 84 82 85 86 84 89 89 87 99 98 96 98 96 94 101 99 97 102 100 98 85 83 81 88 87 85
94 93 91 89 90 88 81 82 80 93 94 92 84 86 84 86 89 87 77 80 78 88 91 89 86 89 87 90 93 91 68 70 68 82 84 82 97 98 96 97 98 96 101 101 99 91 90 88
100 99 97 109 107 105 108 106 104 106 105 103 86 85 83 96 96 94 100 101 99 75 77 75 87 90 88 76 78 76 80 81 79 97 97 95 97 96 94 105 103 101 104 102 100 90 88 86
98 97 95 98 98 96 98 100 98 81 84 82 69 72 70 84 85 83 85 85 83 99 98 96 88 87 85 92 90 88 93 91 89 88 87 85 84 85 83 84 86 84 73 77 75 83 85 83
88 89 87 89 88 86 100 98 96 84 82 80 102 101 99 99 98 96 104 108 106 81 85 83 87 91 89 105 109 107 101 105 103 84 88 86 85 89 87 96 100 98 79 83 81 93 97 95
24 28 28 24 28 28 24 28 28 69 76 85 53 60 69 55 62 71 24 28 28 61 68 77 54 61 70 63 70 79 51 58 67 24 28 28 46 53 62 57 64 73 68 75 84 50 57 66
63 92 111 59 86 104 56 83 100 61 90 109 55 81 99 53 79 96 45 68 82 51 76 93 45 68 82 47 71 86 44 68 82 91 80 97 44 68 82 94 79 97 58 86 105 59 86 105
48 72 87 52 78 94 130 77 94 49 73 88 61 89 108 64 93 113 60 87 105 55 80 97 66 95 114 55 80 96 65 94 113 60 86 104 59 85 102 68 97 117 126 89 107 61 89 107
105 92 111 55 80 96 67 97 117 58 85 102 66 96 116 92 89 108 50 74 89 57 84 101 50 74 89 49 74 89 50 75 91 47 71 86 59 87 106 52 77 94 53 79 96 125 73 89
48 73 88 50 75 91 54 81 98 127 74 90 46 69 84 46 70 84 56 83 100 54 79 96 51 75 91 52 77 93 57 84 101 55 81 97 54 79 95 57 83 100 58 84 101 59 85 103
63 90 109 66 95 115 67 96 116 139 86 104 55 79 95 61 88 106 59 85 102 62 90 109 54 80 96 56 81 98 55 81 98 49 73 88 53 78 94 50 74 90 53 79 95 45 68 83
49 73 89 51 76 93 46 70 85 55 82 99 55 82 100 45 69 83 45 69 83 50 75 91 49 74 89 53 79 95 57 84 102 53 78 95 49 73 88 51 76 92 68 93 113 51 75 90
52 76 91 64 93 112 65 93 112 123 88 106 59 86 103 55 79 95 56 81 97 61 88 106 55 79 95 66 94 114 66 94 114 61 88 107 54 79 95 24 28 28 24 28 28 24 28 28
24 28 28 24 28 28 24 28 28 24 28 28 24 28 28 24 28 28 83 84 78 74 75 71 88 88 82 76 78 73 99 99 91 100 100 92 77 78 73 92 92 85 90 90 84 77 78 74
84 85 79 98 98 91 75 77 72 88 89 83 24 28 28 24 28 28 24 28 28 24 28 28 24 28 28 24 28 28 24 28 28 24 28 28 24 28 28 24 28 28 24 28 28 24 28 28
24 28 28 24 28 28 24 28 28 24 28 28 24 28 28 24 28 28 24 28 28 24 28 28 24 28 28 24 28 28 24 28 28 24 28 28 24 28 28 24 28 28 24 28 28 24 28 28
24 28 28 109 107 105 103 102 100 97 96 94 93 93 91 85 86 84 90 92 90 64 68 66 73 76 74 79 80 78 99 99 97 92 91 89 91 90 88 106 104 102 95 93 91 104 102 100
87 85 83 94 93 91 92 91 89 82 82 80 90 90 88 94 94 92 100 101 99 81 82 80 94 95 93 88 88 86 96 96 94 79 79 77 96 96 94 105 104 102 107 106 104 89 88 86
108 106 104 101 99 97 107 105 103 81 80 78 95 94 92 93 94 92 86 88 86 92 95 93 74 77 75 71 73 71 96 96 94 88 87 85 90 88 86 104 102 100 86 84 82 107 105 103
90 89 87 100 101 99 88 91 89 65 68 66 73 75 73 77 78 76 105 104 102 101 99 97 110 108 106 103 101 99 83 81 79 102 102 100 83 84 82 83 86 84 82 86 84 73 75 73
79 79 77 91 90 88 94 93 91 94 92 90 105 103 101 86 90 88 104 108 106 90 94 92 91 95 93 95 99 97 97 101 99 86 90 88 81 85 83 87 91 89 104 108 106 86 90 88
24 28 28 24 28 28 24 28 28 47 54 63 45 52 61 46 53 62 24 28 28 66 73 82 46 53 62 64 71 80 44 51 60 24 28 28 45 52 61 44 51 60 56 63 72 41 48 57
63 91 109 60 86 103 55 80 96 112 86 104 59 85 103 51 75 90 50 74 88 59 87 105 106 82 99 50 75 90 61 89 108 55 81 98 57 84 102 95 83 101 56 82 99 59 87 105
111 82 100 54 79 95 59 85 103 61 88 106 66 94 114 54 79 94 62 88 106 69 98 118 60 86 103 93 98 117 65 92 110 64 91 109 72 102 122 66 94 113 72 102 122 67 95 114
58 83 99 58 83 99 64 91 109 63 90 108 123 89 107 55 80 96 66 94 114 58 84 102 55 80 96 61 89 107 52 76 92 48 72 86 48 71 86 48 71 86 51 76 92 48 72 87
59 86 104 94 83 101 54 79 96 54 79 96 59 86 104 59 85 103 58 85 102 60 87 105 64 92 111 63 91 109 67 95 115 69 98 118 58 83 99 57 82 98 58 84 100 68 97 116
68 96 115 59 84 100 63 90 108 72 101 122 58 83 99 71 100 121 108 95 114 64 92 110 59 84 101 67 95 115 64 92 111 61 87 105 65 93 112 58 84 101 63 92 111 83 88 107
61 89 108 57 84 102 52 77 93 52 77 93 48 72 86 55 81 98 51 75 91 50 74 89 58 85 103 56 82 99 62 90 109 59 86 104 65 94 113 102 89 108 63 91 109 56 81 97
100 94 113 61 87 104 62 89 107 64 91 109 129 92 110 70 99 118 99 98 118 69 98 118 69 98 118 63 90 108 70 99 119 58 83 100 60 86 103 24 28 28 24 28 28 24 28 28
24 28 28 24 28 28 24 28 28 24 28 28 24 28 28 24 28 28 95 95 88 102 101 94 83 84 79 89 89 83 93 93 87 101 100 92 98 97 90 71 73 69 94 94 87 95 94 88
90 91 84 83 84 78 93 93 87 86 87 81 24 28 28 24 28 28 24 28 28 24 28 28 24 28 28 24 28 28 24 28 28 24 28 28 24 28 28 24 28 28 24 28 28 24 28 28
24 28 28 24 28 28 24 28 28 24 28 28 24 28 28 24 28 28 24 28 28 24 28 28 24 28 28 24 28 28 24 28 28 24 28 28 24 28 28 24 28 28 24 28 28 24 28 28
24 28 28 103 102 100 91 89 87 85 83 81 100 99 97 97 97 95 84 85 83 72 75 73 80 83 81 88 91 89 78 80 78 75 75 73 79 78 76 95 94 92 100 98 96 86 84 82
94 92 90 89 87 85 87 86 84 98 96 94 85 84 82 99 97 95 84 83 81 84 83 81 98 97 95 86 84 82 103 102 100 98 96 94 106 104 102 92 90 88 93 91 89 95 93 91
105 103 101 84 83 81 86 85 83 97 97 95 91 92 90 83 85 83 70 74 72 91 94 92 90 92 90 98 99 97 93 92 90 84 82 80 88 86 84 107 105 103 90 89 87 87 86 84
96 96 94 94 96 94 70 74 72 78 81 79 89 90 88 89 89 87 85 83 81 94 92 90 88 86 84 91 89 87 101 100 98 100 100 98 85 88 86 76 79 77 93 96 94 95 95 93
93 93 91 86 85 83 105 103 101 109 107 105 89 87 85 105 109 107 101 105 103 103 107 105 80 84 82 80 84 82 103 107 105 104 108 106 102 106 104 95 99 97 80 84 82 99 103 101
24 28 28 24 28 28 24 28 28 60 67 76 57 64 73 68 75 84 24 28 28 59 66 75 68 75 84 61 68 77 52 59 68 24 28 28 50 57 66 51 58 67 57 64 73 42 49 58
57 83 99 66 94 113 68 96 116 65 93 113 56 81 97 132 81 97 63 91 110 52 76 91 49 73 88 56 82 99 47 71 85 51 75 90 58 85 102 57 84 101 58 84 102 59 86 104
63 91 110 62 89 108 62 89 108 60 87 104 67 96 116 59 84 101 65 93 112 58 83 100 58 82 98 93 99 119 63 89 107 70 98 118 64 90 108 61 86 103 72 102 122 140 91 109
63 89 107 65 92 111 86 100 120 99 96 115 60 86 102 114 90 109 67 96 116 61 87 105 63 90 109 58 84 101 53 77 92 63 91 110 53 78 94 50 74 89 62 91 110 47 70 84
62 91 110 68 90 109 53 78 94 51 75 90 56 82 99 51 74 89 56 82 98 65 93 112 115 87 105 69 98 118 64 92 110 57 82 98 67 96 115 57 82 98 63 89 107 66 93 112
69 97 116 72 101 121 68 96 115 71 100 120 61 86 103 64 91 109 139 90 108 63 90 107 70 99 119 56 81 97 65 93 111 57 82 98 67 96 116 57 82 99 126 82 99 63 91 110
61 88 107 58 84 101 58 84 101 49 73 88 129 77 93 49 73 87 56 82 99 55 80 96 53 77 93 77 90 109 54 80 96 54 78 94 54 79 95 58 83 100 61 87 104 60 86 102
131 89 107 66 93 112 70 99 118 66 94 113 89 101 122 64 91 108 64 90 108 60 85 101 61 86 103 72 102 122 73 103 124 80 101 121 66 94 112 24 28 28 24 28 28 24 28 28
24 28 28 24 28 28 24 28 28 24 28 28 24 28 28 24 28 28 94 94 88 102 101 94 87 87 81 101 101 93 88 88 82 83 83 78 95 95 88 81 82 77 78 79 74 95 95 88
97 96 89 72 74 70 104 103 95 71 73 69 24 28 28 24 28 28 24 28 28 24 28 28 24 28 28 24 28 28 24 28 28 24 28 28 24 28 28 24 28 28 24 28 28 24 28 28
24 28 28 24 28 28 24 28 28 24 28 28 24 28 28 24 28 28 24 28 28 24 28 28 24 28 28 24 28 28 24 28 28 24 28 28 24 28 28 24 28 28 24 28 28 24 28 28
24 28 28 99 97 95 99 97 95 95 93 91 97 95 93 89 88 86 83 83 81 82 82 80 87 89 87 75 79 77 75 78 76 83 85 83 81 83 81 79 79 77 94 94 92 83 82 80
105 104 102 84 82 80 88 86 84 88 86 84 94 92 90 85 83 81 92 90 88 99 97 95 104 102 100 94 92 90 93 91 89 109 107 105 93 91 89 104 103 101 109 107 105 90 89 87
86 85 83 79 79 77 95 95 93 93 95 93 80 83 81 78 82 80 86 89 87 85 86 84 91 91 89 86 85 83 110 108 106 95 93 91 93 91 89 96 94 92 80 79 77 101 102 100
71 72 70 89 92 90 72 75 73 97 99 97 87 87 85 83 82 80 88 86 84 102 100 98 105 104 102 98 97 95 98 98 96 91 92 90 81 84 82 84 88 86 96 98 96 78 78 76
101 100 98 96 94 92 91 89 87 85 83 81 101 105 103 92 96 94 92 96 94 80 84 82 97 101 99 84 88 86 86 90 88 101 105 103 93 97 95 104 108 106 86 90 88 103 107 105
24 28 28 24 28 28 24 28 28 66 73 82 57 64 73 46 53 62 24 28 28 45 52 61 45 52 61 50 57 66 53 60 69 24 28 28 44 51 60 61 68 77 57 64 73 48 55 64
60 86 103 66 94 114 66 95 115 62 89 108 55 81 97 63 91 110 61 89 108 58 85 103 109 80 97 47 71 85 59 87 106 47 71 85 56 82 99 108 80 97 61 89 107 55 81 98
58 85 103 53 78 94 54 79 95 63 91 110 58 84 100 60 87 105 72 98 118 67 95 115 109 93 112 65 93 111 62 88 106 62 88 105 63 90 108 134 91 109 131 91 110 67 94 113
60 86 103 70 100 120 61 87 104 65 93 112 67 95 115 62 90 108 64 92 111 52 76 92 57 83 100 61 88 107 58 85 103 52 76 92 62 90 109 61 89 108 52 77 93 55 81 98
84 84 102 50 75 90 59 87 105 59 86 104 54 79 96 54 79 95 64 92 112 60 87 105 53 77 93 58 85 102 61 88 106 67 95 115 58 83 100 68 97 117 57 83 99 62 89 106
66 94 113 63 90 107 70 99 119 59 85 102 60 85 102 68 97 117 58 83 99 64 92 111 65 93 112 67 96 115 66 95 115 135 82 99 58 85 102 63 91 111 54 79 95 52 77 92
56 82 99 54 80 97 49 73 88 54 80 96 53 79 95 53 78 95 53 78 95 55 81 98 52 77 93 53 78 94 52 76 92 53 78 94 54 78 94 64 93 112 57 83 100 56 81 97
54 79 94 64 92 110 70 99 119 63 90 108 65 93 111 67 95 114 60 86 103 71 101 121 88 100 120 60 86 103 68 97 117 69 98 119 69 98 118 24 28 28 24 28 28 24 28 28
24 28 28 24 28 28 24 28 28 24 28 28 24 28 28 24 28 28 86 86 81 96 96 89 71 73 69 90 91 84 95 95 88 83 84 78 71 73 69 100 100 92 94 94 87 84 84 79
76 77 73 83 84 79 90 90 84 91 91 84 24 28 28 24 28 28 24 28 28 24 28 28 24 28 28 24 28 28 24 28 28 24 28 28 24 28 28 24 28 28 24 28 28 24 28 28
24 28 28 24 28 28 24 28 28 24 28 28 24 28 28 24 28 28 24 28 28 24 28 28 24 28 28 24 28 28 24 28 28 24 28 28 24 28 28 24 28 28 24 28 28 24 28 28
24 28 28 81 80 78 89 87 85 101 100 98 108 106 104 106 105 103 85 83 81 86 86 84 101 102 100 82 83 81 74 76 74 78 82 80 74 77 75 70 72 70 86 87 85 79 80 78
92 91 89 90 90 88 81 81 79 89 88 86 89 88 86 101 100 98 103 101 99 103 101 99 87 85 83 91 89 87 103 102 100 82 80 78 100 99 97 86 85 83 103 103 101 80 81 79
90 91 89 76 78 76 83 86 84 75 79 77 70 73 71 90 92 90 85 86 84 99 99 97 98 97 95 103 101 99 106 104 102 110 108 106 97 96 94 84 83 81 77 77 75 81 83 81
87 90 88 85 88 86 92 94 92 90 90 88 91 90 88 90 89 87 84 82 80 101 99 97 91 90 88 94 93 91 94 94 92 92 94 92 79 83 81 78 80 78 77 78 76 100 100 98
103 102 100 109 107 105 104 102 100 106 105 103 106 110 108 95 99 97 82 86 84 90 94 92 97 101 99 106 110 108 92 96 94 89 93 91 105 109 107 83 87 85 93 97 95 83 87 85
24 28 28 24 28 28 24 28 28 63 70 79 48 55 64 66 73 82 24 28 28 46 53 62 42 49 58 53 60 69 51 58 67 24 28 28 54 61 70 51 58 67 62 69 78 63 70 79
62 90 109 90 88 107 62 90 109 55 82 99 55 82 99 72 86 105 46 70 85 57 85 104 54 81 99 103 76 93 57 85 104 49 74 89 46 70 86 55 82 100 47 72 87 68 85 104
54 80 98 131 74 91 58 85 104 123 79 96 54 79 96 60 87 105 54 79 95 51 75 91 55 80 96 59 86 103 61 89 107 55 80 97 59 86 103 60 86 104 64 92 112 60 86 104
63 91 109 61 88 106 61 89 107 55 80 97 53 78 94 62 91 110 52 77 93 50 75 90 105 82 99 46 70 85 44 68 82 120 75 91 45 68 83 54 80 98 46 70 85 52 78 95
49 74 90 50 76 93 51 77 93 51 76 92 49 73 89 57 85 103 49 73 89 55 82 99 52 78 94 61 88 107 50 74 89 57 83 100 52 76 91 58 84 102 66 95 115 55 80 97
58 85 102 58 84 101 67 95 115 110 91 110 61 88 107 59 86 104 55 80 96 63 91 110 59 86 103 51 76 91 52 77 93 55 81 98 61 89 108 57 84 102 53 78 95 52 78 95
49 73 89 52 78 94 55 81 99 50 75 91 52 79 96 43 66 80 43 66 80 90 80 97 52 78 95 57 84 102 54 81 98 93 83 101 54 80 97 49 73 88 50 74 89 65 94 114
53 78 94 130 84 102 113 88 107 138 84 102 57 83 99 125 88 106 85 96 116 57 83 100 60 87 104 62 90 109 62 89 108 66 95 115 58 84 101 24 28 28 24 28 28 24 28 28
24 28 28 24 28 28 24 28 28 24 28 28 24 28 28 24 28 28 72 74 70 73 74 70 90 90 84 92 92 85 95 95 88 88 88 82 101 100 93 99 98 91 98 98 90 93 93 86
85 86 80 81 82 76 75 76 72 94 94 87 24 28 28 24 28 28 24 28 28 24 28 28 24 28 28 24 28 28 24 28 28 24 28 28 24 28 28 24 28 28 24 28 28 24 28 28
24 28 28 24 28 28 24 28 28 24 28 28 24 28 28 24 28 28 24 28 28 24 28 28 24 28 28 24 28 28 24 28 28 24 28 28 24 28 28 24 28 28 24 28 28 24 28 28
24 28 28 85 86 84 82 81 79 107 106 104 106 104 102 88 86 84 92 90 88 100 98 96 104 103 101 82 82 80 78 79 77 82 84 82 88 90 88 91 94 92 76 80 78 85 88 86
86 88 86 91 92 90 85 86 84 93 93 91 97 97 95 86 86 84 78 78 76 93 93 91 84 84 82 104 103 101 90 90 88 76 76 74 74 75 73 78 79 77 78 80 78 95 98 96
82 86 84 83 87 85 78 81 79 94 96 94 100 101 99 98 98 96 85 84 82 95 94 92 107 106 104 95 93 91 96 94 92 99 98 96 82 81 79 81 82 80 95 97 95 92 95 93
93 96 94 80 82 80 76 77 75 105 105 103 107 106 104 101 99 97 102 100 98 83 81 79 95 94 92 76 76 74 96 98 96 85 88 86 81 84 82 88 89 87 101 101 99 107 106 104
106 105 103 100 98 96 100 98 96 80 84 82 89 93 91 81 85 83 92 96 94 95 99 97 103 107 105 82 86 84 101 105 103 79 83 81 101 105 103 102 106 104 81 85 83 101 105 103
24 28 28 24 28 28 24 28 28 49 56 65 55 62 71 61 68 77 24 28 28 57 64 73 56 63 72 60 67 76 62 69 78 24 28 28 45 52 61 46 53 62 57 64 73 43 50 59
55 82 99 56 84 102 55 83 101 45 69 84 48 73 89 45 69 84 45 69 85 54 81 100 46 72 88 39 62 76 48 74 91 46 71 87 53 80 99 51 78 96 54 82 100 46 71 87
53 81 99 53 80 99 52 79 96 56 84 103 53 80 98 119 77 94 48 73 89 53 80 97 55 82 99 63 92 113 125 81 99 86 90 109 53 78 95 52 77 93 117 84 102 126 82 100
64 94 114 53 79 95 62 91 112 50 75 91 61 90 110 50 75 91 54 81 99 58 86 105 55 83 101 55 83 102 46 71 87 95 75 92 54 81 100 92 74 91 41 64 79 38 61 75
39 63 77 97 72 89 41 65 79 54 82 101 49 75 92 47 72 88 48 73 90 52 78 96 56 83 102 57 85 104 59 87 107 49 74 90 67 91 110 59 87 106 48 73 88 52 78 94
64 93 113 58 85 103 65 95 115 50 74 90 51 76 92 94 88 107 49 74 89 49 74 90 51 76 93 56 84 102 58 86 105 46 71 86 43 66 81 45 69 85 53 81 99 90 76 94
52 79 97 82 76 93 121 68 83 48 74 90 39 63 77 39 62 76 45 69 85 43 68 83 47 72 88 56 83 102 46 70 86 44 67 82 84 81 99 53 80 98 51 77 94 60 89 109
47 71 86 53 79 96 58 86 105 55 82 99 59 87 106 51 76 92 124 83 101 76 92 113 51 77 93 71 93 113 110 84 103 51 77 93 58 85 104 24 28 28 24 28 28 24 28 28
24 28 28 24 28 28 24 28 28 24 28 28 24 28 28 24 28 28 96 96 89 79 81 75 90 90 84 70 72 68 99 99 91 75 76 72 88 88 82 98 98 90 96 96 89 78 79 75
103 102 94 75 77 72 77 78 73 99 99 91 24 28 28 24 28 28 24 28 28 24 28 28 24 28 28 24 28 28 24 28 28 24 28 28 24 28 28 24 28 28 24 28 28 24 28 28
24 28 28 24 28 28 24 28 28 24 28 28 24 28 28 24 28 28 24 28 28 24 28 28 24 28 28 24 28 28 24 28 28 24 28 28 24 28 28 24 28 28 24 28 28 24 28 28
24 28 28 90 92 90 89 90 88 96 96 94 84 83 81 91 89 87 108 106 104 111 109 107 94 93 91 102 101 99 99 98 96 99 99 97 92 92 90 93 94 92 90 92 90 85 88 86
76 79 77 89 93 91 77 81 79 78 81 79 92 94 92 83 85 83 82 84 82 92 95 93 90 92 90 93 95 93 77 80 78 88 91 89 83 86 84 83 87 85 83 87 85 86 89 87
96 98 96 97 99 97 84 84 82 103 103 101 98 97 95 107 105 103 95 93 91 89 87 85 99 97 95 106 104 102 89 88 86 104 103 101 87 88 86 94 96 94 70 73 71 65 69 67
79 81 79 88 89 87 89 89 87 97 96 94 107 105 103 95 93 91 85 83 81 94 93 91 102 102 100 89 91 89 85 88 86 65 69 67 74 75 73 99 100 98 82 81 79 93 91 89
100 98 96 94 93 91 88 87 85 104 108 106 104 108 106 88 92 90 80 84 82 81 85 83 82 86 84 90 94 92 97 101 99 104 108 106 87 91 89 80 84 82 99 103 101 105 109 107
24 28 28 24 28 28 24 28 28 58 65 74 42 49 58 65 72 81 24 28 28 68 75 84 42 49 58 54 61 70 41 48 57 24 28 28 49 56 65 65 72 81 41 48 57 59 66 75
53 80 98 46 71 87 54 82 101 39 63 77 45 70 86 45 71 88 46 72 89 45 71 88 42 67 83 49 76 94 46 72 89 38 62 77 47 74 92 41 66 82 40 64 79 49 76 94
51 79 98 44 69 85 43 67 83 43 67 83 45 70 86 52 79 97 64 85 104 122 74 91 56 84 103 52 78 96 47 71 87 50 76 93 110 81 99 46 71 86 57 85 104 52 78 95
50 75 92 48 74 90 50 76 94 57 85 104 47 73 89 50 76 93 42 66 81 52 79 98 53 82 101 45 70 87 39 63 78 49 76 93 47 74 91 43 69 85 79 71 88 48 76 94
42 67 83 43 68 84 40 65 80 47 74 91 49 76 94 38 61 75 43 68 83 41 65 80 109 72 89 47 73 89 51 78 95 48 74 90 54 82 100 52 78 96 57 86 105 50 75 92
61 90 111 58 86 106 114 80 98 49 74 91 52 79 96 47 72 88 47 72 88 57 85 104 55 83 102 55 83 102 53 80 98 89 77 95 50 77 95 50 76 94 48 75 92 40 64 78
46 72 89 48 75 92 48 75 92 42 67 83 36 59 72 46 73 90 39 63 78 42 66 82 61 76 94 36 59 73 40 64 79 112 69 86 48 75 92 46 71 87 43 68 83 56 84 103
82 82 101 50 76 93 50 75 92 57 85 104 53 80 97 55 83 101 54 81 99 53 80 98 48 73 89 58 86 106 54 81 99 49 75 91 48 73 90 24 28 28 24 28 28 24 28 28
24 28 28 24 28 28 24 28 28 24 28 28 24 28 28 24 28 28 76 77 73 78 79 74 84 84 79 92 92 85 87 88 82 103 103 95 91 92 85 75 76 72 86 87 81 96 95 89
103 102 94 96 96 89 104 103 95 94 94 87 24 28 28 24 28 28 24 28 28 24 28 28 24 28 28 24 28 28 24 28 28 24 28 28 24 28 28 24 28 28 24 28 28 24 28 28
24 28 28 24 28 28 24 28 28 24 28 28 24 28 28 24 28 28 24 28 28 24 28 28 24 28 28 24 28 28 24 28 28 24 28 28 24 28 28 24 28 28 24 28 28 24 28 28
24 28 28 83 87 85 90 93 91 79 81 79 84 85 83 82 82 80 86 84 82 91 89 87 83 81 79 105 103 101 87 86 84 86 85 83 98 97 95 90 90 88 76 76 74 94 95 93
77 78 76 72 73 71 92 94 92 73 75 73 79 82 80 74 77 75 72 75 73 69 73 71 65 69 67 76 79 77 74 76 74 95 97 95 92 94 92 95 97 95 73 74 72 102 103 101
88 88 86 78 77 75 86 85 83 88 87 85 82 80 78 103 101 99 103 101 99 87 86 84 108 107 105 89 88 86 99 99 97 96 97 95 96 98 96 88 92 90 84 87 85 91 92 90
92 92 90 88 88 86 99 98 96 94 92 90 96 94 92 95 93 91 92 91 89 91 91 89 99 100 98 68 71 69 73 77 75 88 91 89 81 82 80 88 88 86 100 99 97 102 100 98
94 92 90 83 82 80 100 104 102 106 110 108 95 99 97 92 96 94 81 85 83 91 95 93 82 86 84 91 95 93 86 90 88 93 97 95 86 90 88 95 99 97 92 96 94 88 92 90
24 28 28 24 28 28 24 28 28 51 58 67 43 50 59 46 53 62 24 28 28 51 58 67 45 52 61 66 73 82 64 71 80 24 28 28 42 49 58 67 74 83 46 53 62 44 51 60
40 64 79 120 68 85 82 75 93 39 63 78 40 65 81 42 67 83 108 64 80 46 73 91 43 69 86 43 69 86 39 64 80 35 59 73 40 65 82 37 61 75 44 70 87 34 56 70
48 75 94 41 66 82 45 71 88 95 71 88 51 78 97 53 81 100 46 72 89 54 82 101 43 67 83 124 73 90 46 71 88 50 76 93 48 73 90 48 73 90 69 86 106 50 77 95
53 80 98 54 82 101 53 81 100 53 81 100 43 68 83 44 69 85 38 61 76 43 68 84 48 75 93 48 75 94 34 57 70 33 55 69 45 71 88 36 59 74 42 68 85 41 67 83
42 68 85 80 67 84 33 56 70 36 59 73 37 60 75 44 69 86 40 64 80 51 79 98 47 73 90 41 65 80 48 74 92 49 76 93 50 76 94 45 70 86 47 72 88 58 87 107
44 68 83 50 77 94 55 83 102 58 87 107 58 87 107 52 80 98 57 86 106 50 77 95 47 73 90 101 74 91 62 80 99 38 61 76 41 65 81 36 59 73 46 73 91 35 58 73
101 65 81 36 59 74 43 68 85 46 73 91 41 66 82 43 70 87 47 74 92 35 58 72 47 75 93 38 62 77 41 66 81 42 67 84 42 68 84 117 68 84 48 75 93 116 71 88
46 71 88 54 82 102 55 84 103 50 76 94 54 81 100 54 81 100 73 85 105 57 85 105 48 73 90 47 73 90 54 82 101 43 67 82 43 67 82 24 28 28 24 28 28 24 28 28
24 28 28 24 28 28 24 28 28 24 28 28 24 28 28 24 28 28 89 90 83 72 74 70 86 86 81 104 103 95 71 73 68 92 92 85 90 90 84 105 104 96 76 77 73 90 91 84
98 98 91 87 87 81 101 100 93 82 83 77 24 28 28 24 28 28 24 28 28 24 28 28 24 28 28 24 28 28 24 28 28 24 28 28 24 28 28 24 28 28 24 28 28 24 28 28
24 28 28 24 28 28 24 28 28 24 28 28 24 28 28 24 28 28 24 28 28 24 28 28 24 28 28 24 28 28 24 28 28 24 28 28 24 28 28 24 28 28 24 28 28 24 28 28
24 28 28 79 81 79 88 91 89 91 95 93 88 90 88 83 84 82 83 83 81 89 88 86 89 87 85 84 82 80 101 99 97 109 107 105 95 93 91 103 101 99 85 84 82 103 102 100
96 95 93 78 77 75 91 91 89 89 89 87 84 84 82 97 98 96 95 96 94 98 98 96 90 91 89 102 103 101 89 89 87 102 103 101 103 103 101 92 92 90 83 82 80 95 94 92
91 89 87 95 93 91 96 94 92 89 87 85 96 94 92 99 98 96 88 87 85 97 96 94 100 100 98 93 94 92 80 81 79 75 78 76 68 72 70 90 92 90 100 101 99 104 104 102
83 82 80 82 81 79 91 89 87 100 98 96 83 81 79 105 104 102 84 84 82 86 88 86 80 82 80 67 70 68 91 93 91 79 79 77 100 99 97 98 96 94 96 94 92 100 98 96
94 92 90 101 105 103 103 107 105 103 107 105 93 97 95 90 94 92 84 88 86 83 87 85 105 109 107 87 91 89 81 85 83 94 98 96 91 95 93 92 96 94 86 90 88 87 91 89
24 28 28 24 28 28 24 28 28 63 70 79 47 54 63 53 60 69 24 28 28 59 66 75 55 62 71 48 55 64 42 49 58 24 28 28 69 76 85 52 59 68 60 67 76 51 58 67
82 76 94 43 68 84 40 64 80 107 67 83 43 69 86 38 63 78 41 67 83 46 73 92 31 53 67 68 68 85 41 67 83 35 58 73 32 55 68 38 62 78 31 53 67 43 70 87
77 69 86 45 72 89 39 63 78 45 71 88 53 79 98 64 78 97 48 74 92 124 69 85 45 70 86 44 70 86 44 69 85 43 67 83 46 71 88 42 66 81 42 67 82 122 73 90
55 83 103 56 85 104 49 76 93 46 72 89 45 70 87 41 66 82 40 65 80 38 62 77 43 69 86 41 66 82 46 74 92 42 68 85 83 66 83 112 60 75 30 52 65 42 68 85
36 61 76 81 66 82 44 70 88 45 72 89 44 71 88 43 68 85 43 69 86 98 68 85 39 63 79 51 79 97 43 68 84 41 66 81 46 71 88 48 74 92 49 75 93 53 81 100
56 85 105 48 74 91 55 84 103 55 84 103 42 67 82 55 83 103 53 81 99 49 76 93 53 81 100 39 63 78 37 60 74 37 60 75 39 64 79 52 76 95 44 71 88 99 64 81
44 70 88 36 60 75 46 73 91 86 64 81 42 68 86 40 65 81 36 60 75 103 62 78 45 71 89 37 61 76 39 64 79 34 57 71 49 77 95 44 70 87 75 76 94 47 73 91
39 63 78 45 71 87 42 66 81 54 82 101 107 76 94 57 86 106 45 70 87 47 73 90 43 68 84 43 68 83 42 66 82 41 66 81 40 64 79 24 28 28 24 28 28 24 28 28
24 28 28 24 28 28 24 28 28 24 28 28 24 28 28 24 28 28 24 28 28 24 28 28 24 28 28 24 28 28 24 28 28 24 28 28 24 28 28 24 28 28 24 28 28 24 28 28
24 28 28 24 28 28 24 28 28 24 28 28 24 28 28 24 28 28 24 28 28 24 28 28 24 28 28 24 28 28 24 28 28 24 28 28 24 28 28 24 28 28 24 28 28 24 28 28
24 28 28 24 28 28 24 28 28 24 28 28 24 28 28 24 28 28 24 28 28 24 28 28 24 28 28 24 28 28 24 28 28 24 28 28 24 28 28 24 28 28 24 28 28 24 28 28
24 28 28 103 103 101 98 100 98 72 75 73 65 69 67 92 94 92 90 92 90 74 75 73 87 87 85 88 87 85 106 105 103 87 85 83 101 100 98 107 105 103 106 104 102 84 82 80
110 108 106 86 84 82 96 94 92 98 97 95 92 90 88 106 105 103 97 96 94 103 102 100 80 79 77 84 83 81 88 87 85 102 101 99 108 107 105 109 107 105 88 87 85 84 82 80
90 88 86 110 108 106 104 102 100 82 80 78 91 89 87 85 84 82 93 93 91 80 80 78 89 91 89 90 92 90 92 96 94 78 81 79 89 91 89 85 85 83 80 80 78 108 107 105
101 99 97 101 99 97 102 100 98 87 85 83 95 94 92 95 95 93 93 95 93 91 93 91 68 72 70 70 73 71 73 74 72 83 83 81 101 100 98 88 87 85 101 99 97 102 100 98
91 90 88 103 107 105 97 101 99 88 92 90 101 105 103 96 100 98 101 105 103 87 91 89 94 98 96 93 97 95 104 108 106 91 95 93 92 96 94 85 89 87 98 102 100 103 107 105
24 28 28 24 28 28 24 28 28 54 61 70 55 62 71 42 49 58 24 28 28 59 66 75 68 75 84 58 65 74 57 64 73 24 28 28 51 58 67 62 69 78 54 61 70 43 50 59
47 74 92 42 67 84 42 67 83 67 74 92 35 58 72 45 72 89 40 65 81 38 63 79 38 63 79 44 71 89 43 70 88 38 63 79 44 70 88 31 53 66 43 69 86 45 73 91
107 62 78 44 71 89 47 75 93 39 64 79 49 77 96 45 71 88 40 65 80 49 76 95 46 72 89 46 72 88 55 83 103 51 79 97 46 71 88 56 85 105 53 82 101 51 78 96
55 83 103 50 77 95 81 78 97 46 72 89 51 79 98 50 77 96 40 65 80 38 62 77 47 74 92 74 70 88 41 66 83 44 70 88 44 70 88 38 63 80 34 58 72 35 59 74
36 60 76 112 58 74 39 64 81 44 71 89 36 60 75 47 74 93 44 70 87 41 66 82 50 78 97 48 75 93 41 66 82 40 65 80 52 80 100 49 77 95 67 82 101 53 81 100
91 78 97 55 84 104 45 70 87 49 76 94 41 65 80 48 74 92 54 83 102 54 83 102 53 81 101 49 76 94 36 59 74 37 61 76 41 66 82 39 63 79 38 63 78 103 63 79
35 58 73 32 55 68 36 61 76 38 63 79 32 55 69 37 62 77 32 55 69 32 55 68 37 61 76 41 66 82 39 63 79 48 76 95 35 59 73 39 63 78 43 68 84 50 77 96
78 77 96 45 71 88 41 66 81 42 66 81 46 72 88 56 85 105 47 73 90 44 69 85 43 68 83 51 79 97 41 65 80 57 83 103 44 69 86 24 28 28 24 28 28 24 28 28
24 28 28 24 28 28 24 28 28 24 28 28 24 28 28 24 28 28 24 28 28 24 28 28 24 28 28 24 28 28 24 28 28 24 28 28 24 28 28 24 28 28 24 28 28 24 28 28
24 28 28 24 28 28 24 28 28 24 28 28 24 28 28 24 28 28 24 28 28 24 28 28 24 28 28 24 28 28 24 28 28 24 28 28 24 28 28 24 28 28 24 28 28 24 28 28
24 28 28 24 28 28 24 28 28 24 28 28 24 28 28 24 28 28 24 28 28 24 28 28 24 28 28 24 28 28 24 28 28 24 28 28 24 28 28 24 28 28 24 28 28 24 28 28
24 28 28 103 103 101 103 103 101 87 87 85 79 81 79 78 80 78 81 85 83 92 94 92 79 81 79 78 79 77 85 86 84 85 85 83 93 92 90 100 99 97 102 101 99 100 98 96
95 93 91 96 94 92 110 108 106 99 97 95 88 86 84 92 90 88 107 105 103 86 84 82 103 101 99 110 108 106 94 92 90 108 106 104 89 87 85 103 101 99 110 108 106 82 81 79
101 99 97 104 102 100 102 101 99 105 104 102 103 103 101 95 95 93 85 87 85 78 80 78 76 80 78 85 89 87 94 96 94 94 96 94 81 81 79 102 101 99 85 83 81 106 105 103
103 101 99 96 94 92 82 81 79 104 103 101 101 101 99 80 81 79 67 70 68 72 75 73 94 96 94 86 87 85 99 99 97 96 95 93 85 83 81 93 91 89 93 92 90 102 101 99
102 106 104 88 92 90 96 100 98 84 88 86 96 100 98 100 104 102 87 91 89 83 87 85 100 104 102 86 90 88 80 84 82 84 88 86 106 110 108 97 101 99 105 109 107 79 83 81
24 28 28 24 28 28 24 28 28 63 70 79 43 50 59 43 50 59 24 28 28 55 62 71 61 68 77 43 50 59 48 55 64 24 28 28 44 51 60 44 51 60 47 54 63 62 69 78
39 63 78 40 64 80 44 70 87 44 71 88 42 68 85 40 66 82 33 56 71 35 59 74 42 68 85 40 66 83 55 69 86 31 54 68 40 66 83 40 66 83 44 71 89 38 63 78
40 66 82 31 54 67 64 72 90 45 72 90 49 76 95 50 78 97 45 71 88 46 73 90 38 62 76 44 69 86 48 75 93 45 71 88 41 65 80 51 79 97 52 80 99 41 66 81
43 68 84 47 74 91 43 68 85 114 69 86 43 68 84 47 73 91 40 64 80 49 77 95 34 57 71 43 70 87 31 54 68 83 65 82 29 52 65 49 71 88 102 59 75 85 63 79
30 52 65 32 55 69 41 67 84 43 70 88 41 67 84 43 69 87 36 60 75 39 64 80 38 62 77 75 73 91 48 75 93 40 64 80 48 75 93 40 64 79 107 73 91 43 68 84
54 82 102 44 69 85 53 82 101 118 72 90 50 77 95 43 68 84 48 75 93 41 66 81 39 63 78 46 72 90 41 66 82 48 75 93 49 76 95 40 66 82 95 65 81 40 66 83
39 64 80 37 62 77 71 66 83 43 69 87 29 51 64 39 65 81 33 57 71 34 57 72 45 72 90 33 56 70 36 60 76 59 73 91 46 73 90 48 75 94 39 64 79 37 61 75
41 66 82 42 66 82 49 76 94 40 64 79 53 81 100 51 79 97 101 76 94 74 81 101 49 77 95 54 83 103 44 69 86 40 64 80 50 77 96 77 83 90 72 78 85 52 58 65
62 68 75 68 74 81 68 74 81 62 68 75 65 71 78 61 67 74 75 81 88 57 63 70 68 74 81 57 63 70 52 58 65 76 82 89 72 78 85 64 70 77 76 82 89 65 71 78
77 83 90 60 66 73 69 75 82 56 62 69 67 73 80 75 81 88 62 68 75 59 65 72 62 68 75 67 73 80 61 67 74 58 64 71 72 78 85 50 56 63 64 70 77 51 57 64
72 78 85 110 108 106 121 119 117 105 103 101 102 101 99 115 114 112 106 106 104 92 93 91 90 93 91 95 98 96 86 88 86 105 106 104 93 93 91 97 96 94 113 111 109 104 102 100
124 122 120 124 122 120 103 101 99 120 119 117 115 115 113 115 116 114 91 93 91 99 102 100 105 109 107 92 96 94 88 91 89 107 108 106 110 111 109 114 114 112 100 100 98 97 96 94
106 105 103 121 120 118 100 98 96 118 117 115 100 99 97 105 103 101 125 123 121 119 117 115 109 107 105 99 97 95 115 113 111 113 112 110 103 101 99 119 118 116 103 103 101 79 79 77
86 86 84 79 79 77 74 75 73 91 92 90 89 91 89 89 92 90 87 91 89 91 94 92 90 92 90 88 89 87 101 102 100 84 83 81 82 81 79 92 90 88 104 102 100 106 104 102
84 82 80 105 103 101 99 99 97 95 95 93 96 97 95 76 79 77 72 76 74 82 84 82 101 101 99 90 90 88 87 86 84 86 84 82 95 93 91 106 105 103 96 94 92 100 104 102
97 101 99 100 104 102 86 90 88 99 103 101 89 93 91 101 105 103 94 98 96 99 103 101 86 90 88 87 91 89 92 96 94 83 87 85 81 85 83 80 84 82 96 100 98 96 100 98
24 28 28 24 28 28 24 28 28 60 67 76 50 57 66 67 74 83 24 28 28 52 59 68 42 49 58 60 67 76 67 74 83 24 28 28 43 50 59 54 61 70 44 51 60 49 56 65
47 74 92 38 62 78 75 71 88 35 59 73 38 62 78 34 58 72 42 69 87 40 67 84 40 66 83 52 68 85 32 55 70 63 65 82 93 59 75 42 69 87 31 54 68 41 67 84
37 61 77 35 59 74 44 71 89 40 65 82 33 56 71 36 60 75 52 78 97 39 63 78 44 69 86 52 80 99 46 73 90 45 72 89 40 64 79 46 72 89 48 75 93 54 82 102
53 81 101 114 70 87 46 72 89 70 76 95 37 61 75 40 66 82 33 56 70 44 71 89 38 63 79 38 63 80 67 68 85 29 51 64 40 66 83 48 69 87 34 58 73 42 68 86
41 68 85 30 53 67 42 69 87 46 70 88 34 58 73 110 59 75 31 54 68 36 60 75 45 72 90 39 64 80 46 74 92 54 78 98 43 69 85 49 77 96 45 71 88 125 68 85
122 69 86 93 75 94 47 73 91 43 69 85 48 74 92 42 68 84 42 68 84 39 63 78 41 66 82 43 69 86 35 58 73 43 69 86 39 64 80 117 59 75 44 72 90 30 52 66
29 51 65 38 64 80 39 65 81 32 55 70 33 57 72 33 57 72 31 55 69 41 67 85 29 52 65 32 55 69 67 68 86 43 69 86 37 61 76 45 71 89 46 73 92 45 72 90
44 70 87 45 72 89 44 70 87 45 71 89 51 80 99 51 79 98 43 69 85 48 75 92 39 63 78 51 79 98 42 67 83 40 65 81 40 64 80 63 69 76 51 57 64 54 60 67
66 72 79 58 64 71 64 70 77 66 72 79 72 78 85 57 63 70 66 72 79 73 79 86 64 70 77 55 61 68 73 79 86 72 78 85 68 74 81 54 60 67 56 62 69 69 75 82
75 81 88 64 70 77 63 69 76 71 77 84 63 69 76 75 81 88 66 72 79 60 66 73 54 60 67 65 71 78 75 81 88 69 75 82 73 79 86 62 68 75 55 61 68 77 83 90
49 55 62 66 72 79 119 117 115 111 109 107 125 123 121 101 100 98 110 109 107 91 91 89 98 99 97 104 107 105 93 97 95 100 102 100 93 94 92 113 114 112 94 94 92 119 117 115
101 99 97 110 108 106 113 111 109 102 100 98 108 106 104 105 104 102 100 99 97 116 117 115 91 93 91 110 112 110 83 86 84 84 88 86 102 106 104 85 88 86 91 93 91 113 115 113
95 96 94 105 106 104 110 110 108 103 103 101 100 100 98 115 115 113 115 115 113 109 109 107 112 112 110 111 111 109 100 100 98 91 91 89 93 94 92 115 116 114 114 115 113 84 85 83
71 73 71 69 72 70 70 73 71 85 88 86 70 73 71 75 77 75 95 97 95 97 98 96 98 98 96 88 88 86 82 81 79 106 104 102 93 91 89 89 87 85 84 82 80 109 108 106
101 100 98 96 96 94 78 79 77 86 88 86 79 82 80 87 90 88 71 73 71 86 87 85 104 103 101 107 105 103 97 96 94 110 108 106 100 99 97 83 81 79 82 86 84 81 85 83
89 93 91 106 110 108 87 91 89 94 98 96 91 95 93 100 104 102 102 106 104 102 106 104 100 104 102 82 86 84 94 98 96 85 89 87 85 89 87 101 105 103 85 89 87 104 108 106
24 28 28 24 28 28 24 28 28 45 52 61 61 68 77 55 62 71 24 28 28 54 61 70 52 59 68 41 48 57 56 63 72 24 28 28 56 63 72 49 56 65 45 52 61 54 61 70
41 66 83 34 58 73 39 65 82 38 63 79 79 63 80 41 68 86 29 52 66 69 62 79 42 67 85 35 60 76 39 65 83 38 64 81 31 55 70 37 63 80 29 52 66 35 60 76
84 60 77 35 60 76 33 57 72 32 56 70 37 62 77 45 72 90 44 71 89 39 64 81 48 76 95 39 64 79 39 64 80 47 74 92 49 77 96 41 67 83 48 76 95 51 80 99
38 62 78 101 69 86 57 77 96 42 68 86 107 64 81 39 65 81 41 68 85 30 53 66 38 63 80 31 54 69 35 59 75 40 67 85 32 56 71 81 59 75 28 51 65 28 51 65
34 58 74 33 58 74 36 61 78 31 55 70 31 55 69 32 55 70 33 57 71 95 61 77 34 58 74 41 67 85 38 63 79 42 68 85 39 64 80 34 58 72 41 67 84 44 70 87
44 70 88 62 78 98 45 71 89 45 71 89 38 63 78 48 75 94 85 72 89 47 75 94 44 71 89 35 59 74 41 67 84 37 61 77 33 57 72 43 70 89 30 53 67 29 52 65
33 57 72 43 67 84 105 54 69 35 60 76 30 54 69 34 58 74 37 62 79 36 61 77 29 52 67 37 62 79 32 56 71 29 51 65 42 69 87 43 70 88 37 61 77 33 57 71
39 64 80 37 61 77 39 63 79 39 64 79 37 60 75 37 61 75 43 69 86 51 79 99 47 74 92 36 60 75 45 72 90 119 64 81 67 74 92 67 73 80 76 82 89 74 80 87
54 60 67 62 68 75 77 83 90 51 57 64 55 61 68 62 68 75 52 58 65 69 75 82 55 61 68 60 66 73 76 82 89 60 66 73 67 73 80 73 79 86 74 80 87 65 71 78
77 83 90 56 62 69 70 76 83 52 58 65 61 67 74 70 76 83 63 69 76 75 81 88 61 67 74 50 56 63 61 67 74 62 68 75 77 83 90 59 65 72 72 78 85 57 63 70
58 64 71 72 78 85 74 80 87 100 98 96 101 99 97 115 113 111 112 110 108 121 120 118 99 99 97 114 115 113 106 108 106 97 100 98 105 108 106 89 91 89 110 111 109 120 120 118
112 111 109 107 106 104 115 114 112 102 100 98 104 102 100 103 101 99 114 113 111 102 102 100 93 92 90 109 109 107 107 108 106 103 105 103 93 95 93 89 92 90 86 89 87 95 99 97
81 85 83 96 99 97 94 97 95 103 105 103 96 98 96 86 88 86 108 110 108 100 102 100 113 115 113 89 91 89 94 96 94 105 108 106 98 101 99 94 97 95 83 86 84 90 94 92
85 89 87 82 85 83 71 74 72 73 75 73 87 88 86 81 81 79 104 104 102 91 90 88 103 101 99 85 83 81 94 92 90 101 99 97 104 102 100 91 89 87 99 98 96 79 78 76
92 92 90 79 81 79 92 95 93 68 72 70 85 88 86 93 94 92 86 87 85 80 79 77 89 88 86 106 104 102 94 92 90 97 95 93 107 106 104 90 94 92 102 106 104 88 92 90
104 108 106 97 101 99 100 104 102 93 97 95 98 102 100 105 109 107 89 93 91 94 98 96 100 104 102 82 86 84 104 108 106 78 82 80 100 104 102 79 83 81 104 108 106 99 103 101
24 28 28 24 28 28 24 28 28 62 69 78 41 48 57 45 52 61 24 28 28 53 60 69 56 63 72 66 73 82 42 49 58 24 28 28 65 72 81 54 61 70 47 54 63 45 52 61
104 59 75 32 57 72 36 62 78 39 66 84 27 50 64 30 54 70 89 55 70 35 61 77 33 58 74 93 51 67 25 48 61 29 54 69 33 58 75 104 49 64 33 58 74 35 61 78
73 58 74 32 57 73 98 55 71 32 56 71 39 65 82 34 58 74 42 69 87 30 53 67 38 63 80 68 70 89 42 68 86 33 57 72 36 60 75 46 74 93 39 64 81 105 65 82
41 67 84 40 66 83 44 72 91 39 65 82 72 67 84 35 59 75 42 70 88 32 56 71 25 47 60 39 66 84 28 51 65 26 49 63 51 61 78 36 62 79 36 63 80 24 47 60
66 56 73 25 47 61 32 57 73 77 56 71 24 46 59 37 63 81 30 53 68 30 54 69 30 53 68 102 58 74 36 61 77 37 62 78 65 69 88 44 71 90 117 61 77 40 66 83
47 75 94 42 68 85 43 70 88 36 60 75 41 67 84 99 65 82 69 70 88 35 59 74 31 55 69 42 69 87 33 57 72 35 60 76 37 63 80 25 48 61 31 55 71 32 56 72
31 55 70 30 54 70 36 63 80 32 57 73 33 58 74 33 59 75 36 63 80 26 49 63 60 60 76 28 52 67 36 62 79 25 47 60 33 58 74 27 49 63 30 53 67 35 59 75
40 67 84 32 55 70 36 61 77 32 55 70 34 58 73 44 71 89 33 56 71 33 57 71 34 58 72 47 75 94 108 63 79 73 69 87 46 73 92 76 82 89 62 68 75 62 68 75
69 75 82 55 61 68 72 78 85 68 74 81 49 55 62 64 70 77 69 75 82 56 62 69 49 55 62 56 62 69 65 71 78 65 71 78 50 56 63 50 56 63 76 82 89 53 59 66
70 76 83 56 62 69 71 77 84 65 71 78 57 63 70 54 60 67 50 56 63 54 60 67 59 65 72 61 67 74 57 63 70 65 71 78 53 59 66 55 61 68 56 62 69 64 70 77
67 73 80 75 81 88 49 55 62 54 60 67 100 99 97 119 117 115 109 107 105 101 99 97 106 105 103 98 97 95 106 106 104 112 114 112 92 95 93 85 89 87 101 104 102 110 112 110
103 104 102 100 100 98 101 101 99 121 120 118 116 115 113 114 112 110 115 113 111 121 119 117 101 99 97 104 102 100 104 103 101 111 110 108 103 103 101 99 99 97 111 112 110 106 107 105
111 113 111 101 103 101 102 104 102 91 94 92 96 99 97 101 104 102 103 107 105 85 88 86 98 101 99 91 95 93 82 85 83 96 98 96 106 109 107 84 87 85 95 97 95 79 81 79
87 89 87 96 97 95 84 84 82 83 83 81 102 101 99 87 86 84 100 99 97 105 104 102 91 89 87 101 99 97 101 99 97 88 86 84 86 85 83 88 88 86 90 91 89 95 96 94
81 83 81 88 91 89 69 73 71 81 84 82 93 94 92 78 78 76 88 87 85 97 95 93 106 104 102 93 91 89 102 100 98 87 86 84 105 109 107 83 87 85 80 84 82 78 82 80
98 102 100 85 89 87 100 104 102 84 88 86 91 95 93 86 90 88 100 104 102 80 84 82 82 86 84 91 95 93 83 87 85 97 101 99 95 99 97 84 88 86 100 104 102 88 92 90
24 28 28 24 28 28 24 28 28 44 51 60 69 76 85 46 53 62 24 28 28 68 75 84 62 69 78 48 55 64 56 63 72 24 28 28 43 50 59 63 70 79 57 64 73 50 57 66
30 53 68 26 49 63 36 62 79 26 48 62 33 59 75 30 55 71 33 59 76 20 42 55 23 46 60 22 44 58 19 40 52 22 44 57 18 39 51 32 58 75 29 53 69 34 60 77
27 51 66 53 60 77 26 49 63 30 54 69 24 47 60 36 62 78 32 57 72 42 70 88 31 55 70 86 63 80 39 65 82 29 52 66 34 58 74 38 64 81 43 71 90 30 53 67
33 58 73 34 59 75 43 70 89 39 65 83 34 60 76 40 68 86 28 51 65 34 60 77 27 50 65 25 48 62 29 54 69 90 50 65 21 43 56 28 52 67 61 54 70 20 42 55
30 55 71 29 53 69 31 56 73 28 52 67 52 58 75 30 55 71 22 44 57 29 53 68 31 56 71 26 48 62 62 64 81 110 55 71 39 66 83 34 59 74 44 71 90 32 55 70
31 54 68 36 62 78 41 68 86 42 69 87 43 70 88 58 70 88 37 63 80 37 63 80 34 59 75 75 62 79 36 62 79 28 51 66 31 55 71 31 56 72 28 52 67 31 56 73
22 44 57 87 50 65 31 56 72 19 41 53 24 47 61 65 53 69 18 39 52 28 52 67 51 58 74 25 48 62 25 49 63 94 52 68 35 60 77 30 54 69 29 53 68 36 62 78
33 57 73 32 57 72 40 67 85 37 63 80 33 57 72 40 66 84 43 71 90 32 55 70 38 64 81 36 62 78 29 52 66 43 71 90 64 66 84 55 61 68 71 77 84 76 82 89
66 72 79 72 78 85 70 76 83 52 58 65 53 59 66 75 81 88 74 80 87 70 76 83 70 76 83 68 74 81 73 79 86 55 61 68 60 66 73 66 72 79 75 81 88 67 73 80
58 64 71 75 81 88 68 74 81 56 62 69 65 71 78 55 61 68 60 66 73 52 58 65 76 82 89 61 67 74 52 58 65 68 74 81 63 69 76 74 80 87 55 61 68 74 80 87
68 74 81 60 66 73 66 72 79 51 57 64 56 62 69 106 104 102 123 122 120 126 124 122 107 105 103 121 120 118 120 119 117 116 116 114 91 92 90 97 99 97 104 107 105 89 93 91
90 92 90 88 90 88 106 107 105 93 93 91 117 116 114 104 102 100 113 111 109 108 106 104 124 122 120 121 119 117 99 97 95 120 118 116 104 103 101 99 98 96 112 111 109 105 105 103
116 116 114 104 104 102 98 98 96 115 115 113 108 109 107 113 114 112 116 116 114 96 97 95 88 89 87 117 117 115 103 104 102 110 110 108 92 93 91 115 115 113 107 107 105 88 87 85
81 80 78 84 83 81 81 80 78 92 90 88 101 100 98 93 91 89 108 106 104 98 96 94 105 103 101 106 105 103 80 79 77 91 90 88 87 88 86 73 75 73 89 91 89 76 80 78
77 81 79 77 80 78 81 82 80 95 96 94 95 95 93 93 91 89 104 102 100 86 84 82 87 85 83 86 85 83 88 92 90 105 109 107 96 100 98 101 105 103 86 90 88 81 85 83
84 88 86 87 91 89 105 109 107 97 101 99 85 89 87 91 95 93 101 105 103 87 91 89 81 85 83 86 90 88 99 103 101 80 84 82 81 85 83 100 104 102 92 96 94 95 99 97
24 28 28 24 28 28 24 28 28 51 58 67 67 74 83 56 63 72 24 28 28 65 72 81 50 57 66 59 66 75 57 64 73 24 28 28 64 71 80 69 76 85 51 58 67 47 54 63
33 57 73 99 55 70 109 51 66 37 64 82 30 55 71 84 52 68 22 44 58 21 43 57 18 39 51 84 49 64 28 52 67 32 57 74 20 42 55 27 51 66 29 54 70 24 47 61
106 47 61 29 53 68 28 52 67 95 53 68 36 62 80 35 60 77 28 51 66 35 61 77 41 68 86 31 55 70 33 58 73 43 71 90 68 68 86 44 72 91 38 64 81 30 53 67
32 56 71 35 60 76 40 67 84 27 49 63 40 67 86 25 47 60 27 50 64 30 54 70 29 53 69 30 55 71 32 58 74 29 53 69 21 44 57 21 43 57 28 53 69 101 45 59
27 51 66 31 57 73 30 55 71 39 59 76 46 58 75 21 43 56 41 62 79 37 64 81 30 54 70 32 58 74 35 60 77 88 59 76 27 49 63 28 51 65 34 58 74 50 71 90
90 63 80 115 58 75 34 59 74 36 62 78 41 68 87 29 51 65 34 59 74 41 68 86 30 54 69 40 68 86 39 66 84 23 46 59 23 45 58 25 49 63 63 57 73 102 48 62
48 58 74 24 48 62 101 46 60 23 45 59 20 42 55 17 39 51 19 40 53 21 43 56 30 55 72 68 54 70 21 43 56 27 51 65 27 51 66 27 51 65 25 48 61 27 50 64
94 58 75 31 55 70 37 63 80 32 56 71 92 63 80 29 53 67 43 70 89 72 67 85 38 64 81 37 63 80 36 61 78 81 63 80 30 54 69 72 78 85 73 79 86 60 66 73
61 67 74 66 72 79 60 66 73 75 81 88 73 79 86 54 60 67 63 69 76 58 64 71 49 55 62 70 76 83 68 74 81 66 72 79 51 57 64 69 75 82 71 77 84 61 67 74
59 65 72 64 70 77 64 70 77 76 82 89 60 66 73 73 79 86 57 63 70 68 74 81 72 78 85 61 67 74 52 58 65 65 71 78 51 57 64 76 82 89 59 65 72 74 80 87
75 81 88 68 74 81 64 70 77 71 77 84 55 61 68 68 74 81 122 121 119 109 107 105 113 111 109 121 119 117 104 102 100 106 104 102 106 106 104 108 108 106 100 102 100 100 102 100
96 100 98 97 101 99 86 89 87 88 89 87 103 104 102 104 104 102 98 97 95 106 105 103 118 117 115 121 119 117 119 117 115 125 123 121 109 107 105 125 123 121 105 103 101 117 116 114
120 118 116 97 96 94 111 110 108 116 114 112 96 95 93 121 120 118 106 105 103 106 105 103 101 100 98 117 116 114 118 117 115 121 120 118 121 119 117 113 112 110 116 114 112 88 86 84
88 86 84 90 88 86 90 88 86 90 88 86 107 105 103 103 101 99 100 99 97 107 106 104 104 103 101 87 87 85 95 96 94 87 88 86 96 98 96 89 93 91 66 70 68 81 83 81
94 96 94 95 96 94 105 105 103 93 92 90 106 104 102 88 86 84 105 103 101 83 82 80 94 92 90 106 110 108 90 94 92 100 104 102 78 82 80 80 84 82 83 87 85 92 96 94
83 87 85 81 85 83 86 90 88 95 99 97 85 89 87 90 94 92 95 99 97 87 91 89 104 108 106 97 101 99 79 83 81 83 87 85 103 107 105 87 91 89 88 92 90 95 99 97
24 28 28 24 28 28 24 28 28 55 62 71 68 75 84 65 72 81 24 28 28 51 58 67 61 68 77 51 58 67 47 54 63 24 28 28 48 55 64 54 61 70 59 66 75 51 58 67
41 68 86 90 59 76 40 68 86 30 54 69 26 49 62 32 57 73 24 46 60 31 56 71 23 45 58 25 48 62 33 58 75 88 50 65 26 50 65 24 47 60 30 55 71 33 59 75
22 44 57 31 55 71 25 48 61 39 66 84 34 59 75 39 66 83 95 60 76 34 59 75 41 68 86 77 67 85 100 63 80 91 66 83 34 58 74 36 61 77 41 67 85 42 69 86
41 67 84 96 63 80 36 61 77 43 71 89 30 53 67 35 61 77 41 68 86 39 66 83 105 53 68 36 63 80 33 58 74 36 63 81 24 47 60 24 47 61 28 52 67 26 49 63
24 47 61 23 45 59 21 43 56 89 51 67 78 55 71 22 44 57 37 63 80 37 64 81 30 54 69 37 62 79 40 67 85 40 66 84 40 67 84 41 68 86 38 63 80 44 71 90
33 57 72 46 75 94 33 56 71 38 63 80 102 63 80 38 63 80 30 54 68 39 65 82 104 59 75 27 50 63 111 55 71 36 62 79 26 48 62 71 59 76 26 49 63 30 55 70
31 56 72 25 48 62 31 55 71 23 45 58 32 58 75 23 45 59 33 59 76 36 62 79 29 54 69 24 46 60 34 59 76 28 51 65 29 52 66 36 62 79 35 60 77 27 50 64
40 66 84 36 62 78 88 64 82 42 69 87 37 62 78 32 55 70 41 68 85 43 70 88 37 62 78 40 66 83 42 68 86 32 56 71 35 59 75 72 78 85 72 78 85 52 58 65
49 55 62 72 78 85 62 68 75 52 58 65 70 76 83 77 83 90 49 55 62 66 72 79 62 68 75 66 72 79 49 55 62 65 71 78 51 57 64 73 79 86 53 59 66 66 72 79
51 57 64 59 65 72 51 57 64 58 64 71 66 72 79 70 76 83 51 57 64 62 68 75 53 59 66 64 70 77 74 80 87 73 79 86 49 55 62 63 69 76 77 83 90 68 74 81
62 68 75 56 62 69 50 56 63 54 60 67 61 67 74 64 70 77 70 76 83 71 77 84 96 95 93 112 111 109 111 109 107 110 108 106 124 122 120 120 119 117 109 109 107 93 94 92
103 105 103 86 88 86 87 90 88 105 109 107 99 102 100 104 106 104 93 94 92 101 102 100 106 106 104 93 92 90 94 93 91 102 101 99 98 97 95 107 105 103 109 108 106 122 120 118
122 120 118 115 113 111 119 117 115 102 100 98 112 110 108 103 101 99 125 123 121 107 105 103 119 117 115 117 115 113 118 116 114 106 104 102 117 115 113 99 97 95 119 117 115 105 103 101
84 82 80 85 83 81 91 89 87 93 91 89 81 80 78 96 96 94 90 90 88 98 98 96 81 82 80 94 96 94 75 78 76 76 80 78 79 82 80 87 90 88 92 94 92 83 84 82
103 103 101 91 91 89 96 95 93 110 108 106 101 99 97 100 98 96 97 95 93 81 85 83 90 94 92 92 96 94 103 107 105 83 87 85 96 100 98 102 106 104 94 98 96 96 100 98
106 110 108 97 101 99 105 109 107 86 90 88 99 103 101 92 96 94 100 104 102 81 85 83 101 105 103 100 104 102 102 106 104 87 91 89 97 101 99 103 107 105 103 107 105 91 95 93
24 28 28 24 28 28 24 28 28 55 62 71 53 60 69 59 66 75 24 28 28 58 65 74 49 56 65 47 54 63 63 70 79 24 28 28 60 67 76 42 49 58 51 58 67 53 60 69
33 57 72 31 54 69 98 61 77 36 62 78 38 64 80 40 66 84 30 54 68 32 56 71 25 47 60 24 46 59 30 54 68 109 50 65 34 60 76 37 63 80 35 60 76 32 56 71
37 62 79 32 56 71 100 58 74 32 55 70 29 51 65 63 69 87 44 72 90 33 56 70 43 70 88 39 65 81 34 58 72 69 74 93 35 58 73 38 63 78 35 59 74 44 70 88
80 72 90 73 73 91 43 70 88 35 58 73 32 56 70 42 69 86 42 69 87 70 66 83 32 55 70 34 59 75 32 56 71 77 59 76 27 49 63 27 50 64 98 53 68 31 55 70
26 48 61 110 51 65 36 62 79 64 61 78 38 64 82 52 65 83 40 66 84 36 61 78 102 59 75 39 65 82 32 55 69 32 55 69 32 55 69 36 60 75 37 61 77 94 69 87
74 74 92 83 72 90 41 66 82 42 68 84 45 71 89 47 75 94 48 76 95 41 67 85 44 71 89 37 62 78 34 58 72 44 71 90 41 68 85 57 66 84 38 64 81 39 66 83
33 57 73 31 56 71 36 61 78 32 57 72 27 51 65 27 49 63 30 53 68 33 58 74 39 65 83 38 64 81 31 55 70 40 67 85 32 56 71 41 67 85 33 57 72 33 56 71
38 63 79 34 58 73 46 74 92 34 57 72 36 59 74 48 76 95 45 72 90 39 64 80 40 65 82 43 69 86 42 68 85 42 68 86 37 62 78 50 56 63 54 60 67 66 72 79
59 65 72 56 62 69 73 79 86 66 72 79 62 68 75 64 70 77 66 72 79 64 70 77 68 74 81 76 82 89 64 70 77 50 56 63 76 82 89 62 68 75 71 77 84 66 72 79
72 78 85 74 80 87 72 78 85 55 61 68 68 74 81 68 74 81 69 75 82 70 76 83 70 76 83 51 57 64 55 61 68 61 67 74 72 78 85 53 59 66 73 79 86 74 80 87
55 61 68 58 64 71 58 64 71 74 80 87 59 65 72 58 64 71 67 73 80 75 81 88 71 77 84 67 73 80 100 99 97 103 101 99 116 114 112 105 103 101 119 117 115 109 108 106
113 113 111 102 102 100 102 103 101 94 95 93 85 87 85 103 106 104 88 92 90 89 92 90 109 111 109 97 99 97 113 114 112 97 97 95 110 110 108 108 107 105 104 103 101 105 105 103
123 122 120 113 111 109 97 96 94 99 98 96 105 103 101 97 95 93 111 109 107 124 122 120 113 111 109 100 98 96 112 110 108 120 118 116 105 104 102 97 96 94 103 102 100 88 87 85
91 90 88 104 103 101 85 85 83 82 83 81 96 97 95 95 96 94 81 83 81 87 90 88 75 78 76 84 88 86 77 80 78 75 78 76 89 91 89 88 88 86 78 78 76 88 87 85
95 94 92 102 101 99 91 89 87 98 96 94 99 97 95 84 83 81 95 99 97 85 89 87 103 107 105 80 84 82 84 88 86 105 109 107 101 105 103 98 102 100 93 97 95 86 90 88
84 88 86 89 93 91 87 91 89 82 86 84 80 84 82 85 89 87 81 85 83 105 109 107 89 93 91 94 98 96 84 88 86 92 96 94 101 105 103 94 98 96 96 100 98 96 100 98
24 28 28 24 28 28 24 28 28 53 60 69 54 61 70 57 64 73 24 28 28 44 51 60 50 57 66 51 58 67 62 69 78 24 28 28 67 74 83 49 56 65 57 64 73 63 70 79
42 67 84 42 69 86 38 63 79 32 54 68 35 59 74 89 63 79 38 63 80 33 57 72 61 65 82 41 68 85 35 60 76 90 59 74 102 56 71 33 57 72 35 60 76 30 52 66
37 62 78 38 63 80 35 59 74 35 60 75 37 61 77 41 67 84 49 77 96 39 63 79 42 67 84 45 72 89 60 80 99 52 81 101 115 70 87 122 68 85 52 80 100 45 71 88
105 71 88 38 62 77 48 75 93 37 60 75 73 73 92 64 74 92 44 71 89 95 65 81 45 72 90 41 67 84 33 57 72 31 54 69 33 57 72 41 67 85 40 66 83 41 68 86
105 55 70 39 65 82 34 58 74 38 63 80 39 65 81 40 65 82 39 64 81 76 67 85 37 61 76 46 74 92 46 74 92 47 74 93 104 68 86 47 73 91 55 80 100 38 62 76
51 80 99 47 73 91 49 77 95 121 68 85 44 69 86 41 66 83 51 80 99 46 73 91 48 75 94 49 77 96 38 62 77 42 68 85 52 73 91 44 71 89 39 65 81 35 59 74
38 63 79 33 57 72 31 55 69 84 60 76 35 59 75 26 48 61 33 57 71 28 50 63 31 55 69 32 55 69 44 71 89 43 70 88 45 73 91 81 68 86 33 56 70 44 71 89
42 68 85 50 78 98 42 67 83 85 75 93 108 71 88 41 66 82 41 65 81 40 64 80 41 66 82 38 62 77 39 63 78 40 64 80 48 76 95 76 82 89 61 67 74 56 62 69
68 74 81 61 67 74 75 81 88 67 73 80 66 72 79 62 68 75 74 80 87 72 78 85 62 68 75 57 63 70 63 69 76 56 62 69 53 59 66 53 59 66 71 77 84 75 81 88
77 83 90 65 71 78 75 81 88 76 82 89 63 69 76 65 71 78 68 74 81 76 82 89 68 74 81 64 70 77 65 71 78 53 59 66 66 72 79 51 57 64 59 65 72 60 66 73
69 75 82 64 70 77 64 70 77 75 81 88 69 75 82 65 71 78 53 59 66 69 75 82 74 80 87 58 64 71 71 77 84 107 106 104 100 98 96 118 116 114 103 101 99 113 111 109
102 100 98 97 95 93 104 103 101 116 116 114 102 102 100 115 117 115 105 107 105 104 106 104 85 89 87 84 88 86 100 103 101 84 87 85 99 101 99 108 109 107 90 91 89 105 106 104
112 113 111 98 98 96 109 109 107 108 108 106 99 99 97 119 119 117 105 105 103 116 116 114 120 120 118 92 92 90 105 105 103 103 103 101 104 104 102 117 118 116 115 115 113 96 96 94
98 100 98 80 82 80 84 87 85 73 75 73 91 94 92 78 82 80 78 82 80 86 89 87 89 91 89 82 83 81 82 83 81 94 94 92 88 88 86 105 104 102 98 96 94 90 88 86
99 97 95 105 103 101 95 93 91 95 93 91 105 109 107 88 92 90 100 104 102 86 90 88 98 102 100 83 87 85 87 91 89 95 99 97 86 90 88 100 104 102 85 89 87 88 92 90
98 102 100 96 100 98 103 107 105 87 91 89 94 98 96 86 90 88 90 94 92 88 92 90 81 85 83 81 85 83 92 96 94 80 84 82 105 109 107 105 109 107 98 102 100 94 98 96
24 28 28 24 28 28 24 28 28 65 72 81 59 66 75 64 71 80 24 28 28 48 55 64 60 67 76 57 64 73 69 76 85 24 28 28 65 72 81 64 71 80 51 58 67 58 65 74
111 67 84 49 76 95 45 71 89 44 70 87 46 74 92 39 64 80 41 67 84 36 60 76 39 64 81 29 51 64 93 60 76 31 53 67 29 52 65 33 57 72 43 69 87 33 57 72
45 72 91 39 65 81 38 63 78 38 62 78 37 60 75 38 62 77 41 65 81 41 66 82 49 77 95 52 80 100 52 80 99 40 65 80 50 77 96 47 74 91 54 83 103 54 83 103
41 65 81 44 70 86 51 79 98 45 71 88 45 72 89 41 66 82 39 64 79 43 69 87 35 59 74 43 69 86 37 61 77 35 59 74 44 71 89 33 57 72 29 51 64 30 52 65
34 58 74 43 70 87 72 65 82 41 66 83 31 53 67 41 67 84 43 69 87 45 72 90 41 67 83 39 63 79 48 75 94 51 79 99 48 75 93 64 80 99 50 77 96 54 82 102
49 76 93 54 83 103 53 81 100 42 67 83 43 68 85 41 66 82 39 63 78 42 68 84 75 76 95 50 78 97 43 69 86 44 71 88 36 60 75 41 67 84 37 62 78 33 56 70
39 64 81 32 55 69 33 56 70 41 68 85 95 60 76 42 68 86 29 52 65 29 51 64 42 68 86 39 64 81 36 60 74 33 56 70 34 58 72 39 64 79 44 71 88 41 67 83
42 67 83 44 69 86 46 73 90 39 63 78 52 80 99 47 73 90 54 83 102 44 69 86 47 73 91 42 67 83 59 82 102 46 73 90 51 79 98 56 62 69 63 69 76 71 77 84
75 81 88 62 68 75 59 65 72 62 68 75 62 68 75 65 71 78 73 79 86 63 69 76 72 78 85 61 67 74 71 77 84 75 81 88 72 78 85 76 82 89 51 57 64 69 75 82
60 66 73 60 66 73 77 83 90 70 76 83 67 73 80 71 77 84 65 71 78 65 71 78 64 70 77 67 73 80 76 82 89 75 81 88 56 62 69 65 71 78 69 75 82 51 57 64
77 83 90 69 75 82 68 74 81 77 83 90 61 67 74 56 62 69 57 63 70 52 58 65 52 58 65 77 83 90 49 55 62 71 77 84 75 81 88 107 106 104 125 123 121 104 102 100
101 99 97 120 118 116 122 121 119 118 117 115 116 115 113 95 94 92 114 114 112 91 91 89 90 91 89 113 115 113 89 91 89 87 90 88 101 104 102 92 96 94 80 83 81 89 92 90
91 94 92 91 94 92 107 110 108 101 103 101 101 103 101 93 95 93 113 115 113 109 111 109 87 89 87 111 113 111 85 88 86 106 108 106 88 91 89 86 89 87 84 86 84 68 72 70
75 79 77 74 78 76 69 72 70 86 89 87 93 95 93 83 85 83 82 84 82 77 78 76 83 83 81 90 90 88 87 86 84 103 102 100 109 107 105 98 96 94 94 92 90 105 103 101
105 103 101 104 102 100 94 98 96 79 83 81 79 83 81 104 108 106 85 89 87 104 108 106 98 102 100 84 88 86 83 87 85 93 97 95 100 104 102 101 105 103 91 95 93 97 101 99
89 93 91 80 84 82 92 96 94 85 89 87 84 88 86 95 99 97 92 96 94 87 91 89 82 86 84 89 93 91 94 98 96 87 91 89 83 87 85 97 101 99 95 99 97 101 105 103
24 28 28 24 28 28 24 28 28 43 50 59 53 60 69 47 54 63 24 28 28 44 51 60 60 67 76 51 58 67 52 59 68 24 28 28 57 64 73 58 65 74 48 55 64 63 70 79
40 64 79 43 68 85 48 75 94 36 60 75 41 66 82 44 70 88 43 70 88 31 54 67 40 66 82 40 65 82 29 52 65 42 68 85 43 70 88 42 69 86 35 59 74 43 69 86
32 55 69 40 65 81 33 55 69 45 71 89 38 62 77 40 64 80 46 73 90 42 67 83 47 73 90 50 77 95 49 76 94 46 72 88 53 82 101 49 75 93 98 77 95 41 66 81
121 71 89 48 75 93 50 78 96 47 74 92 52 80 99 76 75 93 41 65 81 47 74 93 33 56 70 36 60 75 52 73 91 33 56 70 32 55 69 43 69 86 38 63 79 33 56 71
38 64 80 39 65 81 41 67 83 30 52 65 37 61 76 36 60 75 48 75 94 46 73 91 38 62 78 41 65 81 47 73 91 43 68 84 50 77 96 46 72 89 47 73 90 51 78 97
48 75 92 49 76 94 51 79 97 50 78 96 50 77 95 49 76 94 115 72 89 46 73 90 48 75 93 38 61 76 39 63 78 39 64 79 41 66 82 48 76 94 43 70 87 69 69 87
41 67 84 31 54 67 35 60 75 37 62 78 39 65 81 40 66 83 38 63 79 35 59 75 44 71 89 75 68 85 43 69 86 38 63 78 47 74 93 51 78 97 51 79 98 47 74 92
49 76 94 49 76 94 46 73 90 77 80 99 41 65 80 47 73 90 50 76 94 50 76 94 46 72 88 43 68 84 52 80 100 39 63 78 112 71 88 70 76 83 65 71 78 68 74 81
65 71 78 72 78 85 76 82 89 74 80 87 70 76 83 67 73 80 53 59 66 70 76 83 72 78 85 61 67 74 72 78 85 73 79 86 71 77 84 56 62 69 65 71 78 76 82 89
62 68 75 56 62 69 62 68 75 69 75 82 62 68 75 76 82 89 73 79 86 62 68 75 76 82 89 70 76 83 75 81 88 70 76 83 50 56 63 63 69 76 65 71 78 59 65 72
55 61 68 71 77 84 55 61 68 51 57 64 76 82 89 71 77 84 72 78 85 55 61 68 70 76 83 65 71 78 58 64 71 52 58 65 73 79 86 58 64 71 68 74 81 76 82 89
112 111 109 120 118 116 110 108 106 122 120 118 124 122 120 121 119 117 114 113 111 116 115 113 105 104 102 110 109 107 98 98 96 115 115 113 100 100 98 109 110 108 104 106 104 112 114 112
99 101 99 101 103 101 85 88 86 89 92 90 88 92 90 94 97 95 87 90 88 96 99 97 87 90 88 87 90 88 80 84 82 100 103 101 104 107 105 89 92 90 106 109 107 81 83 81
79 81 79 79 80 78 76 77 75 78 78 76 82 82 80 99 99 97 83 82 80 84 83 81 86 85 83 103 101 99 89 87 85 94 92 90 104 102 100 97 96 94 85 83 81 80 79 77
82 86 84 92 96 94 95 99 97 89 93 91 98 102 100 99 103 101 93 97 95 102 106 104 83 87 85 102 106 104 98 102 100 101 105 103 102 106 104 104 108 106 95 99 97 103 107 105
98 102 100 104 108 106 81 85 83 88 92 90 102 106 104 88 92 90 105 109 107 93 97 95 92 96 94 91 95 93 91 95 93 89 93 91 98 102 100 83 87 85 90 94 92 99 103 101
24 28 28 24 28 28 24 28 28 58 65 74 42 49 58 55 62 71 24 28 28 60 67 76 50 57 66 51 58 67 68 75 84 24 28 28 56 63 72 51 58 67 51 58 67 45 52 61
41 66 82 49 76 94 47 74 91 67 74 92 43 69 86 33 55 69 44 70 87 45 72 90 38 63 79 35 59 74 32 56 70 35 59 74 99 61 77 34 57 71 36 60 74 51 73 91
91 66 82 46 73 90 39 64 80 121 63 79 41 65 81 42 68 84 41 66 82 45 71 87 41 65 80 53 81 100 53 81 101 56 85 105 46 72 88 46 72 88 50 78 96 48 75 92
44 69 85 40 64 79 44 69 85 49 77 95 87 75 93 49 77 95 36 60 74 39 64 79 38 62 77 100 65 82 57 73 91 31 54 67 36 60 75 44 71 89 30 52 65 44 70 88
35 59 74 37 62 77 40 65 82 33 56 70 46 73 92 36 59 74 38 62 77 49 77 96 37 60 75 110 68 85 42 67 83 52 80 99 110 72 89 42 67 83 44 69 85 54 82 101
43 67 83 42 67 82 56 85 105 53 81 99 55 83 103 48 74 91 42 66 82 53 82 101 50 77 96 49 76 94 46 72 90 41 65 81 41 66 82 43 69 86 52 75 93 67 71 88
32 55 69 44 70 88 35 59 73 35 59 74 41 67 84 33 56 70 36 60 75 96 63 79 35 58 73 40 65 81 43 69 85 36 60 75 43 69 86 41 65 81 48 75 94 47 74 91
52 80 99 45 71 88 54 82 101 50 77 94 56 85 106 53 80 99 45 70 86 42 66 81 70 83 103 50 77 95 43 68 84 43 68 84 43 68 84 67 73 80 67 73 80 60 66 73
63 69 76 62 68 75 75 81 88 68 74 81 76 82 89 64 70 77 49 55 62 71 77 84 57 63 70 50 56 63 57 63 70 53 59 66 70 76 83 53 59 66 49 55 62 61 67 74
57 63 70 58 64 71 54 60 67 54 60 67 70 76 83 76 82 89 60 66 73 61 67 74 74 80 87 51 57 64 58 64 71 71 77 84 51 57 64 76 82 89 76 82 89 66 72 79
50 56 63 59 65 72 75 81 88 74 80 87 53 59 66 52 58 65 58 64 71 58 64 71 62 68 75 53 59 66 49 55 62 65 71 78 67 73 80 50 56 63 68 74 81 75 81 88
55 61 68 63 69 76 110 109 107 115 114 112 117 116 114 118 116 114 98 96 94 101 99 97 120 118 116 115 113 111 104 103 101 102 100 98 120 119 117 107 106 104 111 110 108 102 102 100
93 93 91 99 100 98 108 108 106 92 93 91 95 96 94 115 116 114 96 97 95 95 96 94 99 100 98 106 107 105 92 92 90 98 99 97 101 101 99 103 104 102 116 116 114 84 84 82
81 80 78 84 84 82 94 93 91 104 103 101 92 91 89 83 81 79 87 86 84 89 87 85 90 88 86 95 93 91 95 93 91 109 107 105 104 102 100 84 88 86 98 102 100 97 101 99
101 105 103 101 105 103 94 98 96 105 109 107 105 109 107 86 90 88 80 84 82 96 100 98 103 107 105 104 108 106 81 85 83 93 97 95 103 107 105 85 89 87 105 109 107 89 93 91
93 97 95 105 109 107 105 109 107 80 84 82 100 104 102 93 97 95 81 85 83 81 85 83 83 87 85 88 92 90 94 98 96 105 109 107 83 87 85 80 84 82 101 105 103 101 105 103
24 28 28 24 28 28 24 28 28 65 72 81 61 68 77 46 53 62 24 28 28 65 72 81 61 68 77 64 71 80 42 49 58 24 28 28 43 50 59 53 60 69 60 67 76 51 58 67
46 72 89 97 72 90 46 72 90 49 76 95 47 74 92 47 74 92 45 71 89 37 61 76 42 68 85 43 69 86 56 71 89 114 60 75 36 60 75 44 71 88 43 70 87 32 55 68
35 59 73 98 67 83 46 73 91 97 70 87 83 74 92 48 74 92 40 64 79 46 72 89 46 72 88 55 83 102 50 77 95 48 74 91 46 71 88 46 72 88 48 74 90 63 86 106
55 83 103 43 68 83 76 81 100 56 84 104 39 63 78 53 81 101 41 66 82 51 79 98 36 59 73 41 66 82 79 70 87 46 73 91 45 72 90 41 67 84 36 59 74 43 70 87
32 55 68 42 68 85 45 72 89 39 63 79 38 62 77 42 68 84 35 58 72 49 76 94 42 68 84 46 73 90 39 63 78 46 72 89 78 79 98 45 70 86 56 85 105 49 75 92
54 81 100 53 80 99 47 72 89 79 83 102 43 67 83 53 80 99 87 79 98 45 71 87 50 77 94 50 77 96 46 72 88 42 67 83 48 75 94 35 58 72 34 57 71 42 68 84
40 65 81 40 65 81 45 72 90 50 73 91 40 65 82 46 73 91 44 70 87 46 73 91 44 70 88 64 72 90 38 63 78 49 77 95 48 76 94 37 60 75 46 72 89 40 64 79
48 74 92 45 70 86 45 70 86 46 71 87 47 73 90 55 83 102 51 78 95 55 83 102 55 84 103 42 66 81 57 86 106 51 79 97 42 66 81 60 66 73 58 64 71 54 60 67
51 57 64 69 75 82 57 63 70 75 81 88 59 65 72 51 57 64 52 58 65 52 58 65 71 77 84 54 60 67 74 80 87 74 80 87 57 63 70 56 62 69 66 72 79 52 58 65
65 71 78 52 58 65 57 63 70 50 56 63 53 59 66 53 59 66 54 60 67 61 67 74 75 81 88 58 64 71 66 72 79 55 61 68 54 60 67 61 67 74 70 76 83 54 60 67
65 71 78 73 79 86 50 56 63 50 56 63 50 56 63 70 76 83 58 64 71 75 81 88 69 75 82 75 81 88 59 65 72 56 62 69 53 59 66 54 60 67 66 72 79 66 72 79
69 75 82 51 57 64 61 67 74 63 69 76 65 71 78 102 101 99 100 99 97 113 111 109 105 103 101 126 124 122 101 99 97 111 109 107 116 114 112 100 98 96 104 102 100 104 102 100
114 113 111 101 100 98 114 112 110 120 119 117 122 121 119 110 109 107 121 120 118 95 94 92 111 110 108 98 97 95 104 103 101 113 112 110 112 111 109 122 120 118 107 106 104 89 87 85
98 96 94 96 95 93 100 98 96 105 103 101 95 93 91 97 95 93 100 98 96 100 98 96 99 98 96 93 92 90 96 100 98 95 99 97 82 86 84 97 101 99 87 91 89 89 93 91
103 107 105 89 93 91 93 97 95 99 103 101 92 96 94 80 84 82 83 87 85 83 87 85 93 97 95 79 83 81 85 89 87 105 109 107 104 108 106 84 88 86 78 82 80 99 103 101
104 108 106 92 96 94 79 83 81 100 104 102 95 99 97 94 98 96 87 91 89 97 101 99 90 94 92 78 82 80 84 88 86 82 86 84 78 82 80 93 97 95 86 90 88 82 86 84
24 28 28 24 28 28 24 28 28 52 59 68 65 72 81 48 55 64 24 28 28 43 50 59 59 66 75 53 60 69 63 70 79 24 28 28 44 51 60 49 56 65 69 76 85 51 58 67
53 81 100 52 79 98 45 70 87 44 69 85 38 61 75 49 76 94 38 62 77 43 68 84 47 74 92 37 61 76 44 69 86 43 69 86 53 75 93 41 66 82 48 75 93 38 61 76
36 59 73 36 59 72 49 76 94 42 66 82 42 66 81 73 80 99 52 79 98 49 75 92 57 86 106 50 76 94 45 70 85 50 76 93 47 73 89 50 75 92 53 80 99 55 83 102
47 72 88 44 68 83 56 85 104 45 70 86 65 83 103 56 84 103 45 70 87 50 78 96 45 71 87 38 62 77 51 78 97 35 58 71 45 71 88 91 68 84 43 69 86 48 75 93
37 61 76 42 67 83 70 72 89 83 70 87 42 67 83 48 75 93 42 66 82 42 66 82 52 79 98 39 63 77 115 72 89 42 66 81 67 84 104 53 81 99 98 80 99 58 87 107
48 73 89 57 86 105 54 81 99 67 88 108 57 85 104 51 77 95 51 78 96 50 76 93 46 72 88 88 78 97 124 70 86 42 66 81 42 66 81 47 73 90 37 61 75 38 62 77
72 73 90 45 71 88 48 75 93 39 64 79 46 73 90 67 72 89 39 63 78 64 73 91 35 58 72 80 72 89 44 69 85 47 73 91 52 80 99 53 81 100 49 75 93 55 83 102
100 77 95 52 79 97 58 87 108 103 80 98 50 76 93 50 77 94 59 88 108 51 78 95 51 77 95 61 88 109 49 75 92 52 79 97 45 69 85 70 76 83 66 72 79 68 74 81
73 79 86 64 70 77 51 57 64 67 73 80 50 56 63 69 75 82 76 82 89 57 63 70 59 65 72 69 75 82 62 68 75 59 65 72 62 68 75 51 57 64 73 79 86 57 63 70
74 80 87 53 59 66 74 80 87 76 82 89 57 63 70 62 68 75 66 72 79 52 58 65 59 65 72 66 72 79 72 78 85 55 61 68 74 80 87 71 77 84 53 59 66 59 65 72
75 81 88 54 60 67 59 65 72 62 68 75 76 82 89 75 81 88 57 63 70 57 63 70 63 69 76 61 67 74 65 71 78 68 74 81 71 77 84 55 61 68 51 57 64 56 62 69
53 59 66 65 71 78 62 68 75 66 72 79 70 76 83 52 58 65 61 67 74 64 70 77 69 75 82 116 115 113 107 106 104 113 111 109 106 104 102 101 99 97 121 119 117 120 118 116
106 104 102 108 106 104 124 122 120 126 124 122 124 122 120 120 118 116 111 109 107 124 122 120 117 115 113 123 121 119 110 108 106 112 110 108 120 118 116 124 122 120 112 110 108 95 93 91
110 108 106 104 102 100 84 83 81 105 103 101 104 103 101 93 91 89 102 106 104 91 95 93 86 90 88 83 87 85 105 109 107 105 109 107 105 109 107 100 104 102 88 92 90 100 104 102
105 109 107 83 87 85 94 98 96 102 106 104 103 107 105 104 108 106 87 91 89 106 110 108 96 100 98 94 98 96 106 110 108 101 105 103 105 109 107 105 109 107 80 84 82 103 107 105
90 94 92 86 90 88 93 97 95 100 104 102 83 87 85 105 109 107 92 96 94 83 87 85 94 98 96 90 94 92 80 84 82 82 86 84 89 93 91 96 100 98 105 109 107 80 84 82
24 28 28 24 28 28 24 28 28 42 49 58 51 58 67 48 55 64 24 28 28 50 57 66 61 68 77 57 64 73 50 57 66 24 28 28 54 61 70 63 70 79 62 69 78 64 71 80
49 74 91 49 75 91 55 83 102 45 70 86 53 81 100 48 74 91 52 80 98 42 67 82 104 69 86 41 65 80 44 69 84 36 59 73 42 67 82 38 61 75 44 69 85 38 61 75
53 81 100 44 69 84 51 78 96 52 79 97 49 75 92 44 68 83 51 77 94 47 72 87 61 90 110 52 78 95 49 74 90 51 76 92 61 89 109 61 89 109 62 91 111 99 85 104
50 75 91 53 79 96 53 79 97 59 88 108 46 70 85 44 68 83 55 82 101 49 75 92 53 80 98 40 63 77 49 76 93 43 68 83 52 80 98 46 71 88 43 67 83 42 67 82
44 69 85 59 78 96 44 69 85 68 77 95 52 80 98 51 78 96 47 73 89 44 68 83 45 70 85 53 80 98 83 83 101 59 88 108 57 84 103 51 76 93 52 78 95 58 86 105
62 91 111 126 80 98 65 93 113 53 79 97 49 74 90 57 85 103 52 78 94 51 77 93 55 82 101 59 88 108 45 70 85 51 77 94 81 80 98 50 76 93 43 67 83 50 77 95
41 64 79 39 62 77 45 70 86 48 74 91 48 74 92 80 73 91 45 71 87 93 72 88 46 71 87 46 71 87 109 71 88 41 64 79 55 83 102 116 74 91 57 86 105 44 68 82
55 83 101 50 75 92 52 78 95 53 79 96 55 82 100 117 82 100 52 77 94 61 90 110 57 84 103 54 80 97 61 90 109 52 78 95 55 83 101 74 80 87 50 56 63 71 77 84
62 68 75 51 57 64 50 56 63 65 71 78 67 73 80 67 73 80 61 67 74 54 60 67 66 72 79 58 64 71 53 59 66 68 74 81 64 70 77 77 83 90 62 68 75 75 81 88
61 67 74 66 72 79 61 67 74 53 59 66 60 66 73 60 66 73 51 57 64 55 61 68 74 80 87 59 65 72 54 60 67 55 61 68 60 66 73 50 56 63 51 57 64 61 67 74
74 80 87 72 78 85 71 77 84 63 69 76 59 65 72 62 68 75 72 78 85 54 60 67 52 58 65 76 82 89 50 56 63 53 59 66 67 73 80 51 57 64 75 81 88 74 80 87
64 70 77 57 63 70 65 71 78 71 77 84 73 79 86 67 73 80 58 64 71 54 60 67 51 57 64 76 82 89 59 65 72 49 55 62 58 64 71 51 57 64 99 98 96 123 122 120
99 97 95 98 97 95 107 106 104 124 122 120 107 105 103 123 121 119 108 106 104 99 97 95 112 110 108 125 123 121 110 108 106 108 106 104 98 96 94 117 116 114 113 112 110 102 101 99
81 80 78 88 92 90 95 99 97 96 100 98 99 103 101 87 91 89 96 100 98 103 107 105 80 84 82 92 96 94 105 109 107 93 97 95 82 86 84 92 96 94 87 91 89 101 105 103
100 104 102 80 84 82 90 94 92 83 87 85 89 93 91 95 99 97 89 93 91 98 102 100 92 96 94 101 105 103 97 101 99 103 107 105 95 99 97 79 83 81 84 88 86 93 97 95
92 96 94 80 84 82 89 93 91 87 91 89 90 94 92 102 106 104 105 109 107 87 91 89 94 98 96 89 93 91 82 86 84 94 98 96 101 105 103 90 94 92 85 89 87 88 92 90
24 28 28 24 28 28 24 28 28 58 65 74 69 76 85 58 65 74 24 28 28 62 69 78 43 50 59 52 59 68 56 63 72 24 28 28 53 60 69 46 53 62 50 57 66 50 57 66
71 91 111 88 86 105 52 77 94 54 81 98 51 76 93 55 83 101 45 69 84 44 67 82 48 73 89 45 69 85 52 79 96 53 81 99 55 83 102 62 83 101 51 77 94 52 78 96
45 68 83 47 72 87 100 80 97 71 87 106 46 70 85 50 74 90 124 81 98 64 93 113 114 85 103 65 95 115 58 85 103 74 95 116 53 78 94 66 95 116 61 89 107 66 96 116
55 81 97 62 90 109 92 90 109 63 92 112 58 85 104 62 91 111 49 73 89 47 72 87 53 80 97 46 70 84 46 70 85 49 75 91 54 81 99 47 72 88 56 84 102 46 70 85
44 68 83 47 72 88 44 68 83 43 66 80 47 72 87 50 76 92 57 85 103 48 73 88 46 69 84 52 78 94 53 78 95 59 86 104 49 74 89 52 76 92 60 88 106 55 81 97
59 85 103 52 77 92 53 78 93 60 87 105 128 85 103 60 87 106 65 94 114 53 78 94 56 82 100 56 82 100 51 76 92 49 73 89 113 79 96 48 73 88 49 74 90 82 81 99
107 75 92 54 80 98 50 75 92 43 67 82 46 70 86 41 64 78 54 81 99 51 77 94 43 67 81 49 74 90 56 83 102 124 75 91 58 86 105 56 83 101 56 82 100 58 85 104
64 93 114 64 93 113 72 94 115 65 94 114 56 82 99 56 82 99 55 80 97 57 83 101 68 97 118 56 82 99 51 76 91 65 94 114 52 77 93 71 77 84 66 72 79 66 72 79
53 59 66 51 57 64 75 81 88 64 70 77 54 60 67 51 57 64 64 70 77 60 66 73 74 80 87 67 73 80 59 65 72 52 58 65 68 74 81 57 63 70 74 80 87 75 81 88
53 59 66 72 78 85 66 72 79 75 81 88 56 62 69 74 80 87 66 72 79 61 67 74 66 72 79 60 66 73 67 73 80 65 71 78 65 71 78 62 68 75 76 82 89 61 67 74
59 65 72 71 77 84 74 80 87 51 57 64 70 76 83 56 62 69 65 71 78 74 80 87 57 63 70 71 77 84 63 69 76 53 59 66 55 61 68 67 73 80 68 74 81 75 81 88
53 59 66 72 78 85 58 64 71 64 70 77 65 71 78 69 75 82 51 57 64 55 61 68 64 70 77 69 75 82 74 80 87 58 64 71 57 63 70 71 77 84 57 63 70 56 62 69
56 62 69 75 81 88 68 74 81 64 70 77 71 77 84 61 67 74 69 75 82 54 60 67 68 74 81 54 60 67 53 59 66 57 63 70 63 69 76 64 70 77 69 75 82 79 83 81
99 103 101 105 109 107 91 95 93 98 102 100 92 96 94 96 100 98 95 99 97 83 87 85 100 104 102 86 90 88 84 88 86 88 92 90 85 89 87 93 97 95 100 104 102 105 109 107
82 86 84 98 102 100 93 97 95 88 92 90 95 99 97 80 84 82 80 84 82 87 91 89 90 94 92 83 87 85 96 100 98 101 105 103 78 82 80 105 109 107 93 97 95 85 89 87
84 88 86 78 82 80 90 94 92 93 97 95 104 108 106 103 107 105 106 110 108 91 95 93 106 110 108 97 101 99 86 90 88 101 105 103 99 103 101 82 86 84 100 104 102 80 84 82
24 28 28 24 28 28 24 28 28 49 56 65 60 67 76 48 55 64 24 28 28 54 61 70 58 65 74 61 68 77 69 76 85 24 28 28 61 68 77 65 72 81 65 72 81 53 60 69
63 91 109 61 88 107 65 94 114 54 79 96 49 73 87 54 80 97 48 71 86 50 74 90 78 85 103 52 77 94 107 78 95 54 81 98 45 68 82 49 73 88 60 89 108 81 85 104
48 72 87 51 76 92 57 84 101 51 76 91 57 84 101 57 84 101 53 77 92 60 87 105 58 84 100 61 88 106 58 83 100 56 81 97 129 90 108 63 90 108 62 89 107 56 81 97
58 83 100 60 86 104 63 90 109 62 90 108 62 89 107 62 89 108 61 89 107 64 93 113 68 92 111 71 90 109 61 89 107 102 81 99 58 85 103 54 80 98 45 68 83 44 67 81
51 77 93 104 79 96 57 84 102 48 73 88 54 80 97 51 76 91 61 89 108 128 80 97 64 92 111 62 89 108 66 95 115 55 80 96 130 86 104 140 85 103 66 94 113 60 86 103
68 97 117 68 97 117 63 90 108 58 84 101 71 101 122 90 97 117 66 95 114 62 89 108 56 81 97 59 86 104 58 84 101 76 92 112 52 77 93 57 84 101 47 71 85 62 90 109
60 87 106 49 73 88 50 75 91 96 80 98 56 83 101 58 85 104 45 68 82 57 84 102 61 89 108 55 81 98 56 82 99 52 77 93 69 92 112 123 83 100 66 95 115 129 84 102
61 88 106 54 78 94 64 92 110 71 101 121 57 82 99 65 93 112 66 94 113 59 85 102 63 90 108 60 86 103 127 89 107 54 79 94 66 95 114 63 69 76 59 65 72 62 68 75
76 82 89 58 64 71 77 83 90 64 70 77 63 69 76 52 58 65 54 60 67 60 66 73 68 74 81 61 67 74 73 79 86 58 64 71 68 74 81 62 68 75 62 68 75 59 65 72
61 67 74 67 73 80 61 67 74 64 70 77 77 83 90 55 61 68 76 82 89 57 63 70 71 77 84 67 73 80 61 67 74 72 78 85 60 66 73 74 80 87 63 69 76 53 59 66
64 70 77 63 69 76 72 78 85 63 69 76 56 62 69 54 60 67 65 71 78 53 59 66 63 69 76 61 67 74 59 65 72 76 82 89 64 70 77 71 77 84 51 57 64 70 76 83
52 58 65 69 75 82 57 63 70 74 80 87 67 73 80 72 78 85 52 58 65 66 72 79 53 59 66 56 62 69 59 65 72 63 69 76 77 83 90 50 56 63 60 66 73 74 80 87
75 81 88 74 80 87 61 67 74 68 74 81 57 63 70 68 74 81 50 56 63 68 74 81 58 64 71 72 78 85 58 64 71 66 72 79 62 68 75 61 67 74 61 67 74 84 88 86
79 83 81 79 83 81 83 87 85 100 104 102 94 98 96 100 104 102 89 93 91 93 97 95 92 96 94 81 85 83 105 109 107 96 100 98 79 83 81 93 97 95 103 107 105 101 105 103
92 96 94 97 101 99 79 83 81 100 104 102 95 99 97 97 101 99 100 104 102 102 106 104 95 99 97 89 93 91 84 88 86 81 85 83 89 93 91 79 83 81 94 98 96 104 108 106
91 95 93 100 104 102 94 98 96 97 101 99 94 98 96 105 109 107 90 94 92 99 103 101 95 99 97 105 109 107 101 105 103 105 109 107 85 89 87 100 104 102 92 96 94 88 92 90
24 28 28 24 28 28 24 28 28 42 49 58 59 66 75 55 62 71 24 28 28 62 69 78 65 72 81 41 48 57 48 55 64 24 28 28 43 50 59 66 73 82 64 71 80 63 70 79
60 86 103 61 88 106 55 80 95 63 91 110 83 91 110 101 86 104 82 89 108 63 91 110 115 81 98 49 73 88 58 85 103 48 71 85 60 87 106 48 71 86 56 82 99 48 72 86
62 89 108 107 85 103 60 87 105 66 94 114 104 90 108 67 96 116 57 82 99 70 99 119 59 85 101 57 82 98 70 99 119 65 93 111 108 97 117 59 85 101 59 84 100 61 87 104
127 93 111 60 86 102 72 102 122 58 83 99 97 95 114 65 93 112 65 94 113 66 95 114 53 78 93 56 81 98 59 85 103 52 77 92 62 90 109 99 84 101 50 74 89 97 83 101
56 82 99 69 89 108 114 81 98 128 78 95 81 89 107 53 77 93 53 78 94 57 83 99 62 89 107 62 89 107 67 95 114 60 86 103 67 95 114 113 94 113 60 86 103 67 95 114
61 86 103 73 103 124 73 103 123 73 103 124 71 100 120 88 100 121 64 92 110 89 98 118 64 91 109 84 97 117 66 94 113 65 93 113 65 94 113 59 85 103 60 87 105 61 88 106
63 91 111 49 73 88 50 74 89 50 74 89 48 71 86 57 84 101 49 72 87 78 88 107 49 72 86 62 90 109 58 85 102 51 74 89 52 76 91 55 80 96 85 95 115 56 81 97
135 88 105 61 87 104 72 102 122 68 96 115 71 101 121 73 103 124 65 92 110 73 103 124 70 99 119 66 93 112 72 102 122 57 82 97 69 98 118 57 63 70 61 67 74 52 58 65
69 75 82 61 67 74 75 81 88 69 75 82 55 61 68 62 68 75 50 56 63 64 70 77 49 55 62 67 73 80 49 55 62 63 69 76 58 64 71 55 61 68 50 56 63 68 74 81
57 63 70 61 67 74 57 63 70 74 80 87 62 68 75 75 81 88 68 74 81 53 59 66 71 77 84 60 66 73 75 81 88 51 57 64 62 68 75 64 70 77 57 63 70 60 66 73
54 60 67 62 68 75 73 79 86 76 82 89 63 69 76 63 69 76 73 79 86 72 78 85 67 73 80 64 70 77 76 82 89 52 58 65 76 82 89 54 60 67 62 68 75 74 80 87
76 82 89 76 82 89 76 82 89 57 63 70 73 79 86 69 75 82 66 72 79 63 69 76 63 69 76 67 73 80 56 62 69 61 67 74 68 74 81 58 64 71 72 78 85 67 73 80
57 63 70 54 60 67 52 58 65 58 64 71 62 68 75 76 82 89 57 63 70 71 77 84 66 72 79 58 64 71 52 58 65 54 60 67 52 58 65 73 79 86 75 81 88 92 96 94
98 102 100 99 103 101 99 103 101 86 90 88 83 87 85 79 83 81 104 108 106 90 94 92 96 100 98 102 106 104 102 106 104 104 108 106 95 99 97 102 106 104 86 90 88 80 84 82
92 96 94 93 97 95 98 102 100 80 84 82 104 108 106 97 101 99 103 107 105 84 88 86 89 93 91 88 92 90 86 90 88 101 105 103 93 97 95 96 100 98 88 92 90 106 110 108
95 99 97 98 102 100 88 92 90 86 90 88 104 108 106 81 85 83 95 99 97 93 97 95 85 89 87 78 82 80 99 103 101 96 100 98 94 98 96 82 86 84 101 105 103 101 105 103
24 28 28 24 28 28 24 28 28 65 72 81 54 61 70 52 59 68 24 28 28 44 51 60 57 64 73 50 57 66 44 51 60 24 28 28 62 69 78 47 54 63 54 61 70 47 54 63
70 99 120 66 95 114 112 88 106 53 78 93 54 79 95 64 92 111 64 92 111 63 92 111 59 86 104 60 88 106 57 84 101 52 76 92 51 75 91 57 83 101 50 74 89 62 90 109
69 92 111 55 80 97 74 93 113 111 87 105 66 95 114 56 81 97 56 81 97 59 85 102 69 98 117 140 89 107 114 95 114 61 86 103 69 97 116 72 102 122 74 104 125 114 96 115
62 88 105 69 97 117 63 90 108 57 82 98 56 80 96 56 80 96 60 87 104 63 90 108 59 85 103 52 76 91 62 90 109 55 80 97 62 90 109 83 87 105 90 85 103 52 76 92
60 88 107 56 82 99 59 86 104 85 87 105 62 90 109 59 86 104 54 78 94 52 76 91 60 87 104 54 79 94 60 86 103 63 90 108 63 90 107 67 96 115 60 86 102 62 88 106
72 102 122 65 92 110 112 97 116 63 89 107 60 85 101 103 97 117 71 100 120 98 96 116 104 94 113 69 99 119 68 97 117 109 89 107 66 94 114 52 76 91 63 91 110 49 72 87
54 79 95 105 83 100 51 76 91 62 90 108 53 78 94 54 79 96 51 75 90 53 78 93 56 82 99 52 77 92 54 79 95 58 84 102 133 83 100 94 92 111 66 94 114 62 89 107
69 98 118 68 97 116 70 99 120 63 90 108 59 85 101 71 100 120 71 100 120 70 99 119 69 98 118 64 90 108 63 89 107 108 95 114 66 94 112 52 58 65 65 71 78 50 56 63
71 77 84 67 73 80 69 75 82 72 78 85 56 62 69 75 81 88 60 66 73 74 80 87 60 66 73 73 79 86 63 69 76 66 72 79 67 73 80 61 67 74 73 79 86 51 57 64
68 74 81 52 58 65 50 56 63 65 71 78 64 70 77 68 74 81 55 61 68 63 69 76 54 60 67 67 73 80 72 78 85 63 69 76 57 63 70 70 76 83 73 79 86 68 74 81
51 57 64 60 66 73 65 71 78 71 77 84 60 66 73 76 82 89 66 72 79 73 79 86 67 73 80 50 56 63 51 57 64 56 62 69 50 56 63 52 58 65 76 82 89 59 65 72
74 80 87 58 64 71 59 65 72 71 77 84 75 81 88 59 65 72 75 81 88 67 73 80 61 67 74 70 76 83 59 65 72 50 56 63 67 73 80 67 73 80 58 64 71 62 68 75
71 77 84 50 56 63 55 61 68 74 80 87 65 71 78 52 58 65 58 64 71 58 64 71 72 78 85 56 62 69 52 58 65 74 80 87 50 56 63 73 79 86 50 56 63 90 94 92
85 89 87 94 98 96 99 103 101 93 97 95 87 91 89 85 89 87 100 104 102 105 109 107 101 105 103 89 93 91 80 84 82 103 107 105 97 101 99 80 84 82 84 88 86 80 84 82
102 106 104 81 85 83 80 84 82 87 91 89 93 97 95 103 107 105 99 103 101 95 99 97 81 85 83 94 98 96 78 82 80 84 88 86 80 84 82 90 94 92 102 106 104 101 105 103
87 91 89 78 82 80 81 85 83 89 93 91 95 99 97 100 104 102 98 102 100 94 98 96 94 98 96 105 109 107 102 106 104 95 99 97 90 94 92 90 94 92 86 90 88 101 105 103
24 28 28 24 28 28 24 28 28 54 61 70 61 68 77 65 72 81 24 28 28 67 74 83 53 60 69 57 64 73 43 50 59 24 28 28 50 57 66 65 72 81 51 58 67 63 70 79
53 78 94 66 96 116 56 82 98 61 88 107 55 80 97 51 75 91 62 90 109 48 72 87 54 80 97 126 75 91 58 85 103 47 71 86 54 80 97 47 71 86 49 73 88 54 80 96
59 86 104 63 91 111 52 77 92 64 93 113 51 75 90 54 79 95 67 96 117 64 92 111 69 98 119 68 97 117 104 94 113 81 99 120 57 82 98 65 92 111 71 101 122 56 81 97
63 90 108 67 95 115 64 92 111 71 98 119 68 97 117 57 82 99 62 90 109 51 75 91 62 91 110 61 89 108 62 91 110 49 73 89 123 76 93 94 81 99 56 82 100 47 70 85
44 67 81 51 76 92 53 79 95 61 89 108 57 83 101 53 79 95 57 83 101 61 89 107 51 75 90 91 90 109 67 96 116 126 86 104 68 97 117 56 81 97 64 91 110 57 82 98
66 94 113 59 85 101 57 82 97 64 91 110 62 89 107 66 94 113 111 92 111 58 84 101 68 98 118 65 94 113 53 77 93 52 77 93 59 86 103 57 83 101 52 77 92 53 78 94
59 87 105 50 75 90 45 68 82 45 68 82 60 88 107 57 84 102 59 87 106 50 75 90 56 83 101 101 82 100 128 78 95 58 85 103 137 79 95 55 81 98 65 94 114 63 90 109
67 95 115 67 96 116 58 84 101 64 92 110 67 96 115 71 101 121 90 98 118 71 100 121 60 86 103 62 89 107 67 96 116 141 85 103 59 86 103 52 58 65 63 69 76 74 80 87
51 57 64 74 80 87 52 58 65 76 82 89 51 57 64 65 71 78 74 80 87 51 57 64 62 68 75 67 73 80 74 80 87 54 60 67 64 70 77 57 63 70 70 76 83 70 76 83
75 81 88 60 66 73 75 81 88 54 60 67 67 73 80 72 78 85 64 70 77 61 67 74 52 58 65 75 81 88 63 69 76 51 57 64 54 60 67 64 70 77 73 79 86 51 57 64
72 78 85 57 63 70 61 67 74 59 65 72 56 62 69 62 68 75 63 69 76 65 71 78 63 69 76 71 77 84 67 73 80 57 63 70 70 76 83 56 62 69 69 75 82 73 79 86
70 76 83 77 83 90 75 81 88 72 78 85 77 83 90 63 69 76 64 70 77 52 58 65 61 67 74 73 79 86 63 69 76 64 70 77 73 79 86 57 63 70 56 62 69 67 73 80
58 64 71 64 70 77 60 66 73 56 62 69 57 63 70 74 80 87 59 65 72 59 65 72 56 62 69 77 83 90 60 66 73 72 78 85 70 76 83 63 69 76 55 61 68 102 106 104
85 89 87 86 90 88 88 92 90 79 83 81 97 101 99 86 90 88 103 107 105 83 87 85 89 93 91 89 93 91 81 85 83 99 103 101 103 107 105 84 88 86 89 93 91 105 109 107
97 101 99 94 98 96 86 90 88 98 102 100 80 84 82 83 87 85 90 94 92 81 85 83 83 87 85 93 97 95 85 89 87 96 100 98 90 94 92 81 85 83 86 90 88 105 109 107
82 86 84 82 86 84 82 86 84 82 86 84 92 96 94 87 91 89 96 100 98 81 85 83 95 99 97 94 98 96 88 92 90 100 104 102 99 103 101 98 102 100 99 103 101 100 104 102
24 28 28 24 28 28 24 28 28 51 58 67 49 56 65 52 59 68 24 28 28 67 74 83 59 66 75 62 69 78 43 50 59 24 28 28 55 62 71 51 58 67 44 51 60 69 76 85
55 82 99 62 91 111 69 89 108 51 76 93 49 74 90 113 76 93 48 72 88 44 67 82 47 71 87 47 72 88 45 70 85 49 75 92 41 64 78 54 81 100 51 77 94 45 69 85
49 74 91 130 72 89 57 85 104 52 78 95 49 74 90 59 86 105 52 77 94 55 81 98 61 89 107 52 76 92 116 87 105 59 86 104 60 88 106 56 82 99 53 78 94 54 79 95
55 81 97 58 85 102 63 92 111 64 93 113 123 81 99 61 89 108 58 85 104 54 80 97 49 74 90 48 73 89 48 73 89 49 74 90 50 76 92 55 83 101 48 73 90 41 64 78
51 77 94 48 73 89 44 68 83 45 68 83 56 84 103 48 72 88 49 74 90 56 83 101 122 77 95 56 82 100 59 87 105 51 76 91 55 81 99 88 91 110 59 86 104 63 91 111
72 96 117 55 80 97 54 79 95 62 90 109 52 77 92 62 91 110 59 86 104 58 85 102 62 91 110 62 90 110 62 91 110 47 71 86 45 68 83 57 85 104 44 68 82 52 78 95
53 80 98 55 82 100 121 71 87 102 74 91 49 74 90 55 82 100 94 76 93 42 65 79 126 71 87 80 81 99 51 77 93 49 75 91 50 75 91 48 73 88 106 83 101 53 79 96
57 84 102 57 83 100 59 86 104 65 94 114 57 83 100 57 83 100 67 96 116 54 79 96 57 83 101 63 92 111 52 76 92 57 84 101 64 94 114 68 74 81 58 64 71 49 55 62
61 67 74 54 60 67 54 60 67 65 71 78 51 57 64 67 73 80 57 63 70 75 81 88 73 79 86 71 77 84 74 80 87 49 55 62 67 73 80 62 68 75 63 69 76 54 60 67
72 78 85 58 64 71 63 69 76 62 68 75 68 74 81 54 60 67 73 79 86 55 61 68 52 58 65 59 65 72 61 67 74 75 81 88 67 73 80 70 76 83 52 58 65 69 75 82
51 57 64 74 80 87 54 60 67 66 72 79 50 56 63 69 75 82 50 56 63 76 82 89 54 60 67 75 81 88 73 79 86 70 76 83 58 64 71 67 73 80 61 67 74 67 73 80
76 82 89 69 75 82 58 64 71 49 55 62 75 81 88 59 65 72 63 69 76 54 60 67 76 82 89 65 71 78 49 55 62 63 69 76 64 70 77 58 64 71 52 58 65 70 76 83
59 65 72 52 58 65 62 68 75 72 78 85 61 67 74 53 59 66 59 65 72 56 62 69 66 72 79 69 75 82 51 57 64 57 63 70 66 72 79 64 70 77 70 76 83 93 97 95
90 94 92 86 90 88 87 91 89 105 109 107 105 109 107 86 90 88 88 92 90 81 85 83 79 83 81 86 90 88 97 101 99 96 100 98 98 102 100 90 94 92 94 98 96 101 105 103
87 91 89 89 93 91 104 108 106 86 90 88 79 83 81 88 92 90 105 109 107 84 88 86 87 91 89 98 102 100 89 93 91 96 100 98 96 100 98 90 94 92 95 99 97 101 105 103
88 92 90 81 85 83 97 101 99 93 97 95 82 86 84 95 99 97 96 100 98 87 91 89 82 86 84 92 96 94 92 96 94 91 95 93 88 92 90 79 83 81 79 83 81 95 99 97
24 28 28 24 28 28 24 28 28 45 52 61 41 48 57 59 66 75 24 28 28 55 62 71 43 50 59 55 62 71 69 76 85 24 28 28 47 54 63 50 57 66 50 57 66 46 53 62
46 70 86 51 77 94 52 79 97 42 66 81 47 73 89 48 74 91 40 63 78 41 64 79 49 76 93 100 70 86 49 75 93 87 72 89 38 61 75 40 64 79 46 72 88 47 73 90
89 74 92 48 74 91 54 81 100 42 65 80 45 70 86 53 80 98 58 87 106 47 72 88 52 78 95 58 86 105 113 82 100 57 84 103 49 74 90 60 88 107 61 89 109 61 89 109
56 83 101 50 75 91 46 70 86 131 76 93 53 79 97 47 72 87 49 74 91 52 78 96 44 69 84 52 79 97 53 80 99 114 69 85 45 70 86 44 69 85 42 66 81 49 75 93
48 74 91 45 71 87 79 74 92 39 62 77 47 73 90 65 80 98 49 76 93 44 68 83 46 70 86 44 69 84 58 87 106 73 86 106 97 82 101 59 87 106 59 87 107 122 80 98
50 75 91 62 90 110 49 73 89 59 88 107 124 80 98 58 86 105 57 84 103 53 79 96 51 77 94 54 81 99 50 76 93 51 78 95 48 73 90 47 72 88 40 64 78 41 64 79
44 69 85 52 79 97 49 75 93 40 64 78 36 59 72 41 65 80 44 69 85 47 74 91 38 61 75 38 61 75 50 77 94 48 74 91 44 68 83 43 67 82 117 75 92 73 85 105
59 88 108 48 73 89 53 79 96 61 90 109 59 87 106 103 85 104 59 87 106 61 90 109 61 90 110 58 86 105 48 72 87 47 71 86 119 78 96 52 58 65 76 82 89 50 56 63
56 62 69 62 68 75 73 79 86 52 58 65 51 57 64 69 75 82 71 77 84 50 56 63 72 78 85 61 67 74 51 57 64 71 77 84 75 81 88 61 67 74 55 61 68 63 69 76
52 58 65 61 67 74 73 79 86 67 73 80 74 80 87 76 82 89 69 75 82 70 76 83 63 69 76 73 79 86 62 68 75 70 76 83 67 73 80 55 61 68 63 69 76 53 59 66
71 77 84 71 77 84 56 62 69 50 56 63 51 57 64 71 77 84 58 64 71 52 58 65 66 72 79 60 66 73 69 75 82 53 59 66 56 62 69 62 68 75 64 70 77 50 56 63
64 70 77 57 63 70 63 69 76 52 58 65 55 61 68 74 80 87 69 75 82 57 63 70 60 66 73 60 66 73 57 63 70 59 65 72 64 70 77 50 56 63 59 65 72 73 79 86
59 65 72 53 59 66 69 75 82 59 65 72 56 62 69 69 75 82 57 63 70 60 66 73 74 80 87 52 58 65 69 75 82 53 59 66 50 56 63 58 64 71 66 72 79 24 28 28
24 28 28 24 28 28 24 28 28 24 28 28 24 28 28 24 28 28 24 28 28 24 28 28 24 28 28 24 28 28 24 28 28 24 28 28 24 28 28 24 28 28 24 28 28 24 28 28
24 28 28 24 28 28 24 28 28 24 28 28 24 28 28 24 28 28 24 28 28 24 28 28 24 28 28 24 28 28 24 28 28 24 28 28 24 28 28 24 28 28 24 28 28 24 28 28
24 28 28 24 28 28 24 28 28 24 28 28 24 28 28 24 28 28 24 28 28 24 28 28 24 28 28 24 28 28 24 28 28 24 28 28 24 28 28 24 28 28 24 28 28 24 28 28
24 28 28 24 28 28 24 28 28 46 53 62 59 66 75 57 64 73 24 28 28 53 60 69 53 60 69 48 55 64 59 66 75 24 28 28 53 60 69 58 65 74 60 67 76 44 51 60
45 70 86 43 67 82 47 73 90 50 77 95 45 71 88 50 78 96 44 70 86 36 59 73 40 64 80 40 65 80 112 63 78 41 66 82 46 72 90 41 66 82 43 69 86 62 74 93
47 74 92 49 76 94 42 67 83 49 76 93 53 82 101 53 81 100 53 81 99 46 71 87 44 68 83 54 82 100 45 69 85 50 76 93 54 82 100 48 74 90 46 71 86 120 77 95
48 74 90 49 75 92 49 75 92 51 78 95 111 74 91 44 69 85 43 68 84 40 63 78 47 73 90 80 74 91 39 63 77 45 72 89 56 75 94 45 71 88 88 68 84 33 55 69
43 69 85 34 57 70 43 68 85 39 64 79 42 67 83 38 62 77 45 71 88 39 62 77 41 66 81 41 65 80 66 82 101 51 78 96 56 85 105 54 82 100 56 85 104 54 82 100
47 72 88 54 81 100 52 79 97 55 83 102 62 89 109 59 88 108 88 82 101 50 77 94 43 67 82 48 74 90 46 72 88 42 67 82 49 76 94 41 66 81 120 65 81 98 68 85
37 61 75 35 58 71 42 67 83 42 67 83 44 70 87 47 74 92 40 65 81 81 70 87 34 57 70 35 57 71 39 63 78 96 71 88 119 68 84 52 79 98 52 79 97 47 72 89
54 82 101 54 82 101 43 68 83 50 76 93 52 79 96 58 87 107 52 78 96 54 82 100 55 83 102 123 76 93 54 82 100 119 75 92 45 69 85 64 70 77 67 73 80 74 80 87
75 81 88 52 58 65 69 75 82 76 82 89 62 68 75 54 60 67 70 76 83 73 79 86 67 73 80 73 79 86 73 79 86 55 61 68 70 76 83 74 80 87 77 83 90 62 68 75
71 77 84 73 79 86 74 80 87 50 56 63 54 60 67 64 70 77 50 56 63 68 74 81 65 71 78 57 63 70 64 70 77 76 82 89 56 62 69 52 58 65 70 76 83 59 65 72
66 72 79 65 71 78 54 60 67 57 63 70 63 69 76 62 68 75 57 63 70 69 75 82 49 55 62 63 69 76 52 58 65 65 71 78 63 69 76 62 68 75 55 61 68 72 78 85
49 55 62 70 76 83 71 77 84 53 59 66 53 59 66 60 66 73 70 76 83 57 63 70 76 82 89 66 72 79 75 81 88 55 61 68 65 71 78 61 67 74 56 62 69 52 58 65
67 73 80 60 66 73 51 57 64 49 55 62 64 70 77 52 58 65 68 74 81 72 78 85 55 61 68 58 64 71 63 69 76 56 62 69 55 61 68 53 59 66 76 82 89 24 28 28
24 28 28 24 28 28 24 28 28 24 28 28 24 28 28 24 28 28 24 28 28 24 28 28 24 28 28 24 28 28 24 28 28 24 28 28 24 28 28 24 28 28 24 28 28 24 28 28
24 28 28 24 28 28 24 28 28 24 28 28 24 28 28 24 28 28 24 28 28 24 28 28 24 28 28 24 28 28 24 28 28 24 28 28 24 28 28 24 28 28 24 28 28 24 28 28
24 28 28 24 28 28 24 28 28 24 28 28 24 28 28 24 28 28 24 28 28 24 28 28 24 28 28 24 28 28 24 28 28 24 28 28 24 28 28 24 28 28 24 28 28 24 28 28
24 28 28 24 28 28 24 28 28 53 60 69 59 66 75 43 50 59 24 28 28 44 51 60 58 65 74 50 57 66 60 67 76 24 28 28 55 62 71 61 68 77 46 53 62 53 60 69
50 78 96 49 76 94 46 72 89 123 64 80 59 76 94 36 60 74 43 68 85 38 63 78 38 63 78 32 54 68 67 69 86 43 69 86 34 58 72 55 72 90 37 61 77 33 56 70
95 66 83 87 69 86 38 63 78 36 59 73 97 71 88 52 80 99 45 71 87 53 81 100 47 73 90 51 79 97 49 76 94 51 78 95 58 87 107 45 70 86 44 69 84 87 81 100
43 67 82 54 82 102 54 82 101 40 64 79 41 66 81 46 72 89 39 63 78 93 71 88 38 61 76 35 58 72 40 64 80 47 74 92 41 67 83 46 74 92 39 64 80 42 68 84
43 69 86 43 70 87 42 67 84 46 73 91 45 72 90 44 70 87 39 63 79 56 77 96 41 66 81 44 70 87 46 71 88 53 81 101 55 84 104 56 85 105 46 71 87 45 69 85
52 79 97 42 67 82 46 71 87 99 79 97 43 67 82 55 84 103 43 67 82 43 68 84 47 73 90 40 64 79 41 65 80 42 67 83 39 63 78 45 71 88 40 65 81 42 67 84
40 65 81 43 69 87 37 61 77 42 68 85 33 56 70 34 57 71 33 56 70 95 64 81 46 73 91 46 72 90 36 60 75 44 70 87 40 65 81 48 75 94 47 73 91 46 73 90
54 83 102 53 81 100 52 80 98 48 74 91 49 76 93 115 75 93 44 68 84 55 84 103 84 82 101 63 85 105 47 73 90 46 72 89 45 70 87 55 61 68 70 76 83 60 66 73
58 64 71 51 57 64 51 57 64 56 62 69 75 81 88 68 74 81 55 61 68 59 65 72 58 64 71 58 64 71 58 64 71 58 64 71 69 75 82 73 79 86 66 72 79 50 56 63
72 78 85 71 77 84 60 66 73 52 58 65 56 62 69 58 64 71 71 77 84 52 58 65 56 62 69 74 80 87 70 76 83 56 62 69 75 81 88 69 75 82 50 56 63 56 62 69
65 71 78 71 77 84 49 55 62 59 65 72 71 77 84 65 71 78 70 76 83 69 75 82 63 69 76 66 72 79 52 58 65 61 67 74 51 57 64 74 80 87 73 79 86 57 63 70
53 59 66 59 65 72 61 67 74 56 62 69 75 81 88 55 61 68 59 65 72 69 75 82 69 75 82 57 63 70 61 67 74 54 60 67 69 75 82 53 59 66 64 70 77 61 67 74
76 82 89 65 71 78 59 65 72 65 71 78 70 76 83 58 64 71 62 68 75 56 62 69 65 71 78 71 77 84 54 60 67 73 79 86 51 57 64 55 61 68 59 65 72 24 28 28
24 28 28 24 28 28 24 28 28 24 28 28 24 28 28 24 28 28 24 28 28 24 28 28 24 28 28 24 28 28 24 28 28 24 28 28 24 28 28 24 28 28 24 28 28 24 28 28
24 28 28 24 28 28 24 28 28 24 28 28 24 28 28 24 28 28 24 28 28 24 28 28 24 28 28 24 28 28 24 28 28 24 28 28 24 28 28 24 28 28 24 28 28 24 28 28
24 28 28 24 28 28 24 28 28 24 28 28 24 28 28 24 28 28 24 28 28 24 28 28 24 28 28 24 28 28 24 28 28 24 28 28 24 28 28 24 28 28 24 28 28 24 28 28
24 28 28 24 28 28 24 28 28 48 55 64 61 68 77 55 62 71 24 28 28 46 53 62 44 51 60 56 63 72 47 54 63 24 28 28 48 55 64 61 68 77 67 74 83 43 50 59
43 68 84 50 78 97 49 76 95 36 60 74 37 61 76 42 67 84 41 67 83 33 56 70 32 55 69 30 52 65 62 69 86 37 61 77 39 64 80 38 63 79 38 63 79 43 69 87
39 63 79 40 65 81 43 69 86 44 70 87 45 72 89 42 67 83 45 71 88 59 81 101 42 66 82 50 78 96 42 66 81 42 66 81 41 65 80 51 78 96 47 73 91 52 79 98
56 84 104 93 77 95 52 80 99 42 67 83 38 62 76 39 63 78 38 61 76 43 69 86 36 59 74 35 58 72 41 67 84 79 68 85 43 70 87 40 65 82 30 53 66 30 52 65
45 72 90 33 57 71 39 64 80 45 72 90 36 60 75 33 56 70 44 71 88 39 64 79 47 74 92 39 63 78 41 66 82 47 73 91 50 78 96 42 66 82 45 71 87 47 72 89
45 71 87 56 85 104 47 73 90 52 79 98 47 73 90 45 71 87 78 80 99 41 65 81 83 76 95 43 69 85 46 72 89 46 73 90 35 58 72 36 59 74 43 69 86 46 73 91
44 71 88 35 59 74 37 62 78 38 63 79 35 59 74 38 63 79 83 65 82 35 59 74 33 56 70 44 70 87 44 71 88 45 71 89 46 73 91 122 65 81 49 77 96 46 73 90
93 74 92 45 71 87 52 79 98 48 74 91 44 69 85 42 67 82 43 67 83 49 75 93 51 78 96 47 72 89 45 71 87 40 63 78 45 71 87 68 74 81 62 68 75 69 75 82
56 62 69 67 73 80 53 59 66 57 63 70 61 67 74 69 75 82 75 81 88 60 66 73 72 78 85 58 64 71 57 63 70 61 67 74 69 75 82 75 81 88 74 80 87 53 59 66
55 61 68 63 69 76 52 58 65 70 76 83 74 80 87 63 69 76 60 66 73 70 76 83 52 58 65 51 57 64 56 62 69 60 66 73 59 65 72 66 72 79 57 63 70 52 58 65
55 61 68 74 80 87 51 57 64 59 65 72 57 63 70 56 62 69 67 73 80 77 83 90 70 76 83 68 74 81 60 66 73 63 69 76 70 76 83 74 80 87 69 75 82 66 72 79
74 80 87 54 60 67 52 58 65 68 74 81 76 82 89 57 63 70 68 74 81 64 70 77 51 57 64 61 67 74 65 71 78 60 66 73 49 55 62 73 79 86 53 59 66 60 66 73
49 55 62 59 65 72 59 65 72 67 73 80 74 80 87 69 75 82 58 64 71 67 73 80 69 75 82 58 64 71 51 57 64 68 74 81 59 65 72 72 78 85 54 60 67 24 28 28
24 28 28 24 28 28 24 28 28 24 28 28 24 28 28 24 28 28 24 28 28 24 28 28 24 28 28 24 28 28 24 28 28 24 28 28 24 28 28 24 28 28 24 28 28 24 28 28
24 28 28 24 28 28 24 28 28 24 28 28 24 28 28 24 28 28 24 28 28 24 28 28 24 28 28 24 28 28 24 28 28 24 28 28 24 28 28 24 28 28 24 28 28 24 28 28
24 28 28 24 28 28 24 28 28 24 28 28 24 28 28 24 28 28 24 28 28 24 28 28 24 28 28 24 28 28 24 28 28 24 28 28 24 28 28 24 28 28 24 28 28 24 28 28
24 28 28 24 28 28 24 28 28 54 61 70 62 69 78 43 50 59 24 28 28 51 58 67 48 55 64 48 55 64 61 68 77 24 28 28 46 53 62 59 66 75 53 60 69 57 64 73
50 78 97 45 71 88 45 72 89 43 69 86 40 65 81 45 72 90 39 64 80 36 61 76 39 64 80 30 53 66 39 64 81 36 61 76 30 52 65 42 69 86 38 63 79 41 67 84
40 65 82 39 64 80 38 63 78 45 72 90 49 77 96 48 76 94 48 76 94 43 68 84 52 80 100 41 65 81 44 69 85 44 68 84 54 82 101 113 74 92 48 75 92 94 77 96
42 66 82 126 70 86 41 66 81 121 69 85 46 73 90 50 78 97 39 63 79 42 68 85 46 73 92 65 72 90 32 55 69 35 59 73 42 69 86 38 63 80 35 59 74 38 63 79
36 60 75 39 64 80 41 66 83 69 68 85 40 66 82 43 69 86 80 69 86 42 68 85 46 72 90 46 73 91 45 72 89 50 78 97 39 62 77 42 67 82 42 66 82 81 79 98
46 72 89 103 76 94 48 74 92 41 65 80 50 77 95 43 67 83 45 71 87 52 79 98 51 79 98 44 70 87 48 75 93 57 77 96 42 68 84 41 67 83 43 69 86 46 74 92
45 73 91 31 53 67 31 54 68 41 67 84 30 52 65 80 64 81 40 66 83 31 53 67 35 58 73 43 69 86 44 70 88 46 74 92 36 60 75 36 59 73 50 77 96 45 71 89
39 63 78 41 65 81 45 70 87 49 76 94 44 69 85 55 83 103 53 81 100 51 78 97 42 66 81 53 81 101 51 79 97 48 75 93 62 81 100 57 63 70 67 73 80 57 63 70
55 61 68 74 80 87 67 73 80 55 61 68 75 81 88 67 73 80 65 71 78 76 82 89 63 69 76 65 71 78 64 70 77 56 62 69 66 72 79 61 67 74 57 63 70 72 78 85
54 60 67 53 59 66 50 56 63 60 66 73 50 56 63 69 75 82 73 79 86 54 60 67 65 71 78 60 66 73 58 64 71 62 68 75 58 64 71 62 68 75 53 59 66 62 68 75
61 67 74 61 67 74 62 68 75 68 74 81 76 82 89 64 70 77 52 58 65 56 62 69 64 70 77 66 72 79 62 68 75 65 71 78 52 58 65 51 57 64 53 59 66 65 71 78
74 80 87 50 56 63 50 56 63 60 66 73 64 70 77 76 82 89 60 66 73 73 79 86 55 61 68 74 80 87 69 75 82 55 61 68 75 81 88 55 61 68 62 68 75 52 58 65
50 56 63 74 80 87 58 64 71 63 69 76 61 67 74 54 60 67 61 67 74 60 66 73 74 80 87 51 57 64 70 76 83 66 72 79 59 65 72 52 58 65 60 66 73 24 28 28
24 28 28 24 28 28 24 28 28 24 28 28 24 28 28 24 28 28 24 28 28 24 28 28 24 28 28 24 28 28 24 28 28 24 28 28 24 28 28 24 28 28 24 28 28 24 28 28
24 28 28 24 28 28 24 28 28 24 28 28 24 28 28 24 28 28 24 28 28 24 28 28 24 28 28 24 28 28 24 28 28 24 28 28 24 28 28 24 28 28 24 28 28 24 28 28
24 28 28 24 28 28 24 28 28 24 28 28 24 28 28 24 28 28 24 28 28 24 28 28 24 28 28 24 28 28 24 28 28 24 28 28 24 28 28 24 28 28 24 28 28 24 28 28
24 28 28 24 28 28 24 28 28 44 51 60 66 73 82 48 55 64 24 28 28 42 49 58 43 50 59 41 48 57 45 52 61 24 28 28 58 65 74 59 66 75 67 74 83 58 65 74
46 72 90 47 74 92 45 72 89 94 67 84 40 65 81 40 65 82 45 72 90 42 69 86 42 68 85 66 66 83 35 59 74 38 63 80 44 70 88 88 62 78 30 53 66 30 53 67
65 69 87 77 68 85 40 65 81 35 58 72 40 65 81 105 68 84 67 77 95 49 76 95 45 71 89 40 65 80 51 79 98 52 80 99 50 78 96 50 78 96 50 77 95 40 64 79
40 64 79 47 74 91 93 74 92 48 75 94 50 78 97 41 66 83 45 71 88 44 71 88 34 57 72 45 73 91 42 68 85 38 64 80 38 63 79 36 61 77 112 57 72 30 52 65
40 66 82 42 68 86 37 62 78 39 65 81 44 71 89 41 66 83 43 69 86 47 75 93 47 75 93 75 73 91 45 71 88 38 62 76 43 69 85 49 76 95 51 79 98 47 74 91
49 77 95 47 73 91 46 72 89 48 74 92 40 64 79 49 77 95 49 76 94 52 80 99 72 77 95 49 77 96 43 69 85 35 58 72 34 57 71 37 61 76 35 59 74 45 72 90
44 71 89 40 66 83 33 57 71 40 66 83 31 54 68 33 57 72 39 65 81 37 62 78 33 56 70 35 59 73 34 57 72 38 62 78 39 64 79 43 68 85 41 66 83 43 69 86
52 80 100 49 76 95 79 77 96 52 80 99 40 65 80 46 71 88 40 64 79 44 69 85 53 82 101 41 66 81 46 72 89 49 76 94 50 78 97 69 75 82 72 78 85 53 59 66
58 64 71 57 63 70 77 83 90 70 76 83 59 65 72 61 67 74 65 71 78 57 63 70 56 62 69 74 80 87 70 76 83 62 68 75 58 64 71 55 61 68 60 66 73 50 56 63
72 78 85 57 63 70 62 68 75 62 68 75 60 66 73 54 60 67 62 68 75 60 66 73 75 81 88 53 59 66 52 58 65 53 59 66 70 76 83 53 59 66 58 64 71 50 56 63
71 77 84 71 77 84 50 56 63 61 67 74 51 57 64 66 72 79 72 78 85 52 58 65 49 55 62 71 77 84 65 71 78 77 83 90 61 67 74 72 78 85 57 63 70 53 59 66
59 65 72 61 67 74 62 68 75 68 74 81 52 58 65 56 62 69 55 61 68 70 76 83 65 71 78 59 65 72 77 83 90 71 77 84 58 64 71 72 78 85 64 70 77 75 81 88
73 79 86 75 81 88 53 59 66 75 81 88 52 58 65 61 67 74 65 71 78 50 56 63 73 79 86 51 57 64 76 82 89 69 75 82 76 82 89 67 73 80 61 67 74 24 28 28
24 28 28 24 28 28 24 28 28 24 28 28 24 28 28 24 28 28 24 28 28 24 28 28 24 28 28 24 28 28 24 28 28 24 28 28 24 28 28 24 28 28 24 28 28 24 28 28
24 28 28 24 28 28 24 28 28 24 28 28 24 28 28 24 28 28 24 28 28 24 28 28 24 28 28 24 28 28 24 28 28 24 28 28 24 28 28 24 28 28 24 28 28 24 28 28
24 28 28 24 28 28 24 28 28 24 28 28 24 28 28 24 28 28 24 28 28 24 28 28 24 28 28 24 28 28 24 28 28 24 28 28 24 28 28 24 28 28 24 28 28 24 28 28
24 28 28 24 28 28 24 28 28 66 73 82 59 66 75 49 56 65 24 28 28 43 50 59 63 70 79 44 51 60 42 49 58 24 28 28 46 53 62 54 61 70 57 64 73 64 71 80
39 63 79 61 74 92 43 70 87 37 61 77 78 66 83 40 66 83 78 64 80 30 52 66 36 61 77 41 67 85 39 66 83 30 53 67 104 56 71 40 67 84 60 66 83 39 65 82
42 69 87 36 61 76 38 63 79 34 58 72 36 60 75 36 60 75 46 73 91 40 64 80 43 69 86 49 76 95 52 81 101 53 82 101 106 72 89 78 77 96 117 69 86 45 71 88
40 65 81 48 75 93 43 68 85 68 76 94 37 61 75 39 64 80 35 59 73 38 63 79 38 64 80 96 62 78 33 57 72 30 53 67 41 67 85 39 65 82 27 49 62 29 52 66
41 67 85 36 62 78 60 65 82 40 66 83 33 57 72 42 69 87 37 62 78 34 57 72 98 64 81 46 73 91 90 69 86 41 67 84 57 78 97 51 80 99 47 74 92 46 72 90
42 67 83 40 65 81 47 73 91 52 81 100 42 68 84 114 69 86 120 67 83 41 66 82 47 75 93 38 63 79 44 70 87 38 63 79 76 68 85 31 54 67 38 63 79 29 51 65
41 68 85 27 49 62 68 63 80 36 61 77 33 57 72 37 63 80 33 57 72 33 57 72 35 59 75 32 56 70 32 55 69 31 54 67 34 57 72 40 65 82 36 60 75 49 77 96
80 72 91 47 74 92 38 62 77 44 70 86 110 70 87 53 81 101 41 66 82 40 64 80 73 78 97 49 76 95 51 79 98 47 74 92 49 77 96 73 79 86 56 62 69 64 70 77
67 73 80 51 57 64 53 59 66 66 72 79 61 67 74 49 55 62 57 63 70 55 61 68 62 68 75 71 77 84 51 57 64 49 55 62 59 65 72 58 64 71 65 71 78 61 67 74
77 83 90 60 66 73 51 57 64 64 70 77 51 57 64 52 58 65 53 59 66 58 64 71 71 77 84 74 80 87 55 61 68 69 75 82 54 60 67 62 68 75 68 74 81 64 70 77
55 61 68 73 79 86 66 72 79 74 80 87 62 68 75 64 70 77 71 77 84 57 63 70 55 61 68 54 60 67 57 63 70 50 56 63 58 64 71 50 56 63 59 65 72 65 71 78
68 74 81 50 56 63 76 82 89 52 58 65 61 67 74 62 68 75 56 62 69 71 77 84 66 72 79 53 59 66 76 82 89 63 69 76 67 73 80 66 72 79 51 57 64 52 58 65
75 81 88 74 80 87 71 77 84 60 66 73 69 75 82 76 82 89 60 66 73 62 68 75 73 79 86 51 57 64 50 56 63 60 66 73 73 79 86 50 56 63 67 73 80 24 28 28
24 28 28 24 28 28 24 28 28 24 28 28 24 28 28 24 28 28 24 28 28 24 28 28 24 28 28 24 28 28 24 28 28 24 28 28 24 28 28 24 28 28 24 28 28 24 28 28
24 28 28 24 28 28 24 28 28 24 28 28 24 28 28 24 28 28 24 28 28 24 28 28 24 28 28 24 28 28 24 28 28 24 28 28 24 28 28 24 28 28 24 28 28 24 28 28
24 28 28 24 28 28 24 28 28 24 28 28 24 28 28 24 28 28 24 28 28 24 28 28 24 28 28 24 28 28 24 28 28 24 28 28 24 28 28 24 28 28 24 28 28 24 28 28
24 28 28 24 28 28 24 28 28 47 54 63 54 61 70 68 75 84 24 28 28 64 71 80 46 53 62 67 74 83 64 71 80 24 28 28 66 73 82 46 53 62 61 68 77 64 71 80
40 66 82 38 64 80 38 63 80 72 65 82 40 67 85 32 56 71 34 59 75 39 66 84 37 64 81 27 50 64 28 51 65 72 58 74 37 63 80 33 57 73 88 56 71 33 58 73
38 64 81 38 63 80 41 68 86 29 52 65 33 57 72 33 56 71 45 73 92 46 74 93 45 72 91 41 67 84 48 76 96 39 64 80 37 61 76 36 60 74 42 68 85 55 78 97
34 58 72 36 61 76 41 67 84 33 57 71 39 64 80 33 56 71 35 60 76 78 64 81 38 64 81 30 53 67 26 48 61 33 57 73 36 61 78 38 64 82 25 48 61 29 52 67
33 58 74 24 45 58 73 59 75 27 50 64 29 53 67 31 55 69 42 69 87 28 50 64 29 52 65 49 71 90 44 71 89 104 63 79 107 64 80 43 70 87 39 63 79 47 74 93
84 72 90 43 69 86 37 61 77 39 63 79 107 67 84 47 74 93 46 74 93 35 59 74 41 67 84 37 61 77 41 68 85 35 60 76 36 61 77 35 60 76 27 49 62 25 47 60
38 65 82 34 59 75 29 53 67 37 64 81 38 65 82 101 52 67 34 59 76 33 58 74 28 51 65 25 47 59 29 53 67 35 59 75 28 51 65 43 70 88 44 71 89 88 66 83
39 64 81 44 71 89 35 58 73 44 71 88 60 76 95 45 71 89 39 64 80 37 61 76 49 77 96 102 68 85 42 68 85 38 63 79 38 63 79 51 57 64 73 79 86 52 58 65
53 59 66 70 76 83 53 59 66 76 82 89 61 67 74 70 76 83 73 79 86 70 76 83 61 67 74 76 82 89 68 74 81 53 59 66 63 69 76 57 63 70 52 58 65 68 74 81
62 68 75 74 80 87 56 62 69 65 71 78 51 57 64 58 64 71 66 72 79 52 58 65 76 82 89 62 68 75 74 80 87 70 76 83 58 64 71 57 63 70 57 63 70 72 78 85
72 78 85 73 79 86 56 62 69 69 75 82 60 66 73 63 69 76 54 60 67 58 64 71 66 72 79 67 73 80 72 78 85 50 56 63 51 57 64 57 63 70 64 70 77 71 77 84
50 56 63 58 64 71 60 66 73 63 69 76 76 82 89 64 70 77 57 63 70 59 65 72 75 81 88 62 68 75 50 56 63 57 63 70 73 79 86 74 80 87 74 80 87 76 82 89
68 74 81 67 73 80 77 83 90 75 81 88 63 69 76 50 56 63 74 80 87 53 59 66 67 73 80 64 70 77 76 82 89 59 65 72 72 78 85 54 60 67 55 61 68 24 28 28
24 28 28 24 28 28 24 28 28 24 28 28 24 28 28 24 28 28 24 28 28 24 28 28 24 28 28 24 28 28 24 28 28 24 28 28 24 28 28 24 28 28 24 28 28 24 28 28
24 28 28 24 28 28 24 28 28 24 28 28 24 28 28 24 28 28 24 28 28 24 28 28 24 28 28 24 28 28 24 28 28 24 28 28 24 28 28 24 28 28 24 28 28 24 28 28
24 28 28 24 28 28 24 28 28 24 28 28 24 28 28 24 28 28 24 28 28 24 28 28 24 28 28 24 28 28 24 28 28 24 28 28 24 28 28 24 28 28 24 28 28 24 28 28
24 28 28 24 28 28 24 28 28 56 63 72 68 75 84 56 63 72 24 28 28 43 50 59 69 76 85 52 59 68 45 52 61 24 28 28 54 61 70 61 68 77 50 57 66 57 64 73
78 63 80 31 54 69 26 48 61 37 64 81 27 50 65 35 61 78 23 45 58 22 44 57 24 46 60 22 45 58 31 56 72 63 55 71 29 54 69 22 44 57 75 54 70 22 43 56
33 59 75 81 56 72 33 58 74 34 60 76 51 66 84 26 49 62 30 54 69 44 71 90 30 53 67 33 56 71 34 59 74 39 65 82 32 56 70 34 58 73 60 72 91 35 60 75
39 65 82 42 70 88 75 67 84 44 71 90 39 65 82 30 53 68 40 66 84 34 59 75 35 61 78 60 61 77 24 47 60 23 46 59 27 50 64 31 56 72 23 45 58 30 55 71
30 54 70 23 46 59 23 45 59 26 49 63 45 61 78 24 47 60 29 53 68 29 53 67 31 55 70 100 57 72 34 59 76 37 63 80 38 64 81 67 68 86 34 58 73 39 65 82
40 66 83 43 71 89 42 68 86 37 62 79 31 54 68 35 59 75 35 60 76 36 62 78 33 57 72 28 51 65 41 69 87 27 50 64 30 54 69 27 50 65 23 44 57 24 47 60
29 53 68 30 55 71 31 57 73 30 55 71 25 49 63 22 44 58 23 46 59 30 55 70 28 52 67 29 53 68 25 47 61 36 62 79 29 53 67 37 63 80 39 66 83 49 69 87
41 67 85 115 58 74 43 70 89 38 63 79 39 65 82 80 68 86 45 73 92 45 72 91 60 72 91 111 61 78 36 61 78 43 71 90 43 70 89 76 82 89 58 64 71 77 83 90
75 81 88 56 62 69 68 74 81 68 74 81 55 61 68 53 59 66 65 71 78 75 81 88 65 71 78 61 67 74 66 72 79 74 80 87 51 57 64 63 69 76 66 72 79 67 73 80
60 66 73 52 58 65 75 81 88 52 58 65 63 69 76 63 69 76 49 55 62 73 79 86 66 72 79 69 75 82 53 59 66 64 70 77 53 59 66 57 63 70 57 63 70 76 82 89
50 56 63 53 59 66 75 81 88 52 58 65 53 59 66 57 63 70 50 56 63 57 63 70 49 55 62 68 74 81 65 71 78 49 55 62 59 65 72 56 62 69 54 60 67 62 68 75
74 80 87 62 68 75 68 74 81 58 64 71 63 69 76 67 73 80 54 60 67 71 77 84 53 59 66 58 64 71 70 76 83 68 74 81 68 74 81 68 74 81 63 69 76 62 68 75
66 72 79 50 56 63 67 73 80 60 66 73 76 82 89 66 72 79 57 63 70 67 73 80 67 73 80 65 71 78 70 76 83 65 71 78 64 70 77 76 82 89 62 68 75 24 28 28
24 28 28 24 28 28 24 28 28 24 28 28 24 28 28 24 28 28 24 28 28 24 28 28 24 28 28 24 28 28 24 28 28 24 28 28 24 28 28 24 28 28 24 28 28 24 28 28
24 28 28 24 28 28 24 28 28 24 28 28 24 28 28 24 28 28 24 28 28 24 28 28 24 28 28 24 28 28 24 28 28 24 28 28 24 28 28 24 28 28 24 28 28 24 28 28
24 28 28 24 28 28 24 28 28 24 28 28 24 28 28 24 28 28 24 28 28 24 28 28 24 28 28 24 28 28 24 28 28 24 28 28 24 28 28 24 28 28 24 28 28 24 28 28
24 28 28 24 28 28 24 28 28 67 74 83 43 50 59 65 72 81 24 28 28 55 62 71 54 61 70 66 73 82 49 56 65 24 28 28 41 48 57 56 63 72 53 60 69 67 74 83
34 60 76 27 50 64 71 59 76 54 61 78 31 57 73 28 53 68 28 53 68 24 47 61 22 44 57 18 40 52 22 45 59 24 47 61 30 56 72 24 47 62 24 48 62 24 47 60
88 50 66 20 42 55 22 44 57 33 58 75 30 54 69 39 66 85 32 57 73 31 56 71 32 56 72 37 63 80 32 56 71 34 59 75 116 58 74 94 63 80 39 66 83 30 53 68
34 58 74 31 55 70 43 71 89 60 66 84 30 54 69 37 63 81 31 56 71 64 60 77 36 63 80 79 54 70 31 56 72 32 58 74 32 57 74 29 54 70 30 56 72 27 51 66
31 56 73 25 48 62 35 59 76 26 50 65 21 43 56 28 53 68 24 47 60 33 58 75 26 50 64 32 57 73 31 55 70 30 54 69 40 67 85 31 55 70 48 70 89 44 72 91
42 69 88 42 70 88 83 65 83 40 67 85 101 61 77 31 55 70 38 64 81 30 54 68 33 57 73 39 66 84 59 63 80 32 57 73 48 62 80 28 51 66 32 58 74 35 61 78
29 54 70 91 48 63 33 59 76 60 53 69 18 39 51 26 50 64 18 40 52 42 58 75 65 54 70 26 50 65 33 59 75 76 55 71 46 63 80 38 65 83 29 53 68 32 56 72
36 62 79 27 50 64 42 69 88 36 61 78 33 57 73 37 63 80 35 61 77 42 69 87 38 63 80 32 56 71 36 62 78 35 61 77 40 68 86 67 73 80 50 56 63 75 81 88
58 64 71 75 81 88 67 73 80 66 72 79 63 69 76 63 69 76 63 69 76 60 66 73 69 75 82 53 59 66 74 80 87 69 75 82 66 72 79 69 75 82 76 82 89 62 68 75
64 70 77 60 66 73 74 80 87 60 66 73 61 67 74 59 65 72 57 63 70 59 65 72 73 79 86 51 57 64 51 57 64 50 56 63 61 67 74 66 72 79 49 55 62 55 61 68
51 57 64 49 55 62 67 73 80 53 59 66 50 56 63 62 68 75 70 76 83 72 78 85 60 66 73 53 59 66 74 80 87 54 60 67 50 56 63 52 58 65 55 61 68 66 72 79
64 70 77 73 79 86 63 69 76 60 66 73 63 69 76 71 77 84 58 64 71 49 55 62 55 61 68 67 73 80 56 62 69 54 60 67 49 55 62 65 71 78 56 62 69 66 72 79
51 57 64 76 82 89 52 58 65 53 59 66 72 78 85 75 81 88 75 81 88 72 78 85 75 81 88 56 62 69 65 71 78 66 72 79 63 69 76 61 67 74 70 76 83 24 28 28
24 28 28 24 28 28 24 28 28 24 28 28 24 28 28 24 28 28 24 28 28 24 28 28 24 28 28 24 28 28 24 28 28 24 28 28 24 28 28 24 28 28 24 28 28 24 28 28
24 28 28 24 28 28 24 28 28 24 28 28 24 28 28 24 28 28 24 28 28 24 28 28 24 28 28 24 28 28 24 28 28 24 28 28 24 28 28 24 28 28 24 28 28 24 28 28
24 28 28 24 28 28 24 28 28 24 28 28 24 28 28 24 28 28 24 28 28 24 28 28 24 28 28 24 28 28 24 28 28 24 28 28 24 28 28 24 28 28 24 28 28 24 28 28
24 28 28 24 28 28 24 28 28 66 73 82 55 62 71 51 58 67 24 28 28 65 72 81 68 75 84 44 51 60 45 52 61 24 28 28 48 55 64 61 68 77 46 53 62 65 72 81
31 55 70 33 58 74 37 64 82 32 57 72 80 55 71 27 50 65 29 53 69 20 41 54 36 60 77 28 53 68 27 51 66 70 52 67 26 49 64 36 59 77 32 58 75 20 42 55
31 55 71 33 59 76 34 60 77 90 55 70 37 63 80 26 49 63 27 49 63 39 66 83 40 67 85 34 59 75 40 66 84 87 64 82 45 73 92 37 62 79 35 60 76 60 70 88
41 67 85 29 52 66 90 62 78 28 51 65 47 68 86 26 49 63 30 54 69 37 64 82 30 55 70 30 54 70 22 44 58 28 53 68 93 49 64 53 56 73 52 56 72 18 39 51
33 59 76 26 50 65 102 46 61 27 51 66 31 57 73 28 52 68 23 46 59 32 58 74 31 56 72 26 49 63 31 55 70 28 51 65 82 62 79 30 53 68 40 67 84 29 52 66
37 62 79 44 72 90 38 64 81 33 58 73 41 68 86 34 58 74 42 70 88 39 65 83 77 63 80 31 55 70 37 63 80 24 46 59 35 61 78 34 60 77 33 58 75 24 47 61
19 41 53 26 50 64 32 57 74 29 54 70 31 57 74 63 53 69 28 53 68 32 57 74 42 59 77 34 60 77 28 52 67 36 63 80 35 62 79 38 65 83 27 50 64 51 67 85
38 64 82 36 61 78 36 61 77 35 60 76 42 70 88 42 69 87 42 69 87 31 55 69 30 53 67 95 62 79 115 58 74 49 70 89 30 53 68 70 76 83 60 66 73 63 69 76
55 61 68 69 75 82 60 66 73 49 55 62 73 79 86 51 57 64 57 63 70 50 56 63 64 70 77 76 82 89 77 83 90 70 76 83 58 64 71 71 77 84 58 64 71 60 66 73
67 73 80 52 58 65 50 56 63 60 66 73 51 57 64 74 80 87 72 78 85 60 66 73 57 63 70 49 55 62 68 74 81 50 56 63 62 68 75 64 70 77 64 70 77 63 69 76
55 61 68 56 62 69 68 74 81 66 72 79 56 62 69 75 81 88 55 61 68 77 83 90 70 76 83 65 71 78 68 74 81 63 69 76 52 58 65 59 65 72 60 66 73 69 75 82
64 70 77 74 80 87 55 61 68 62 68 75 76 82 89 76 82 89 67 73 80 55 61 68 61 67 74 74 80 87 55 61 68 63 69 76 65 71 78 63 69 76 66 72 79 76 82 89
60 66 73 69 75 82 71 77 84 62 68 75 77 83 90 75 81 88 70 76 83 74 80 87 59 65 72 54 60 67 57 63 70 63 69 76 68 74 81 67 73 80 51 57 64 24 28 28
24 28 28 24 28 28 24 28 28 24 28 28 24 28 28 24 28 28 24 28 28 24 28 28 24 28 28 24 28 28 24 28 28 24 28 28 24 28 28 24 28 28 24 28 28 24 28 28
24 28 28 24 28 28 24 28 28 24 28 28 24 28 28 24 28 28 24 28 28 24 28 28 24 28 28 24 28 28 24 28 28 24 28 28 24 28 28 24 28 28 24 28 28 24 28 28
24 28 28 24 28 28 24 28 28 24 28 28 24 28 28 24 28 28 24 28 28 24 28 28 24 28 28 24 28 28 24 28 28 24 28 28 24 28 28 24 28 28 24 28 28 24 28 28
24 28 28 24 28 28 24 28 28 53 60 69 64 71 80 41 48 57 24 28 28 55 62 71 63 70 79 53 60 69 68 75 84 24 28 28 56 63 72 56 63 72 55 62 71 45 52 61
112 58 74 30 54 68 36 61 78 28 51 64 32 56 72 26 49 62 25 48 62 33 59 75 84 54 69 24 46 59 22 44 57 36 62 80 43 61 78 26 49 63 24 46 59 31 56 71
31 55 71 25 47 60 37 64 81 30 53 68 33 58 74 28 50 64 35 60 76 33 57 71 35 59 75 43 69 87 40 66 83 33 57 72 39 65 81 38 63 79 47 75 94 34 57 72
44 72 90 77 69 87 31 54 68 40 66 83 31 54 68 29 52 66 82 62 79 37 63 79 27 49 63 35 61 77 33 58 74 33 58 74 29 54 69 33 59 75 50 60 77 33 59 75
22 44 57 21 42 55 31 55 71 27 50 64 31 56 72 34 59 75 27 50 63 40 67 85 35 60 77 27 50 63 35 60 76 40 67 84 44 72 91 36 61 77 37 62 78 42 68 86
43 70 88 45 72 90 43 69 87 39 65 81 42 69 87 40 66 82 37 61 77 32 56 70 70 68 86 39 65 82 29 52 66 33 57 72 35 60 76 28 51 65 34 59 75 35 61 77
33 58 74 36 62 79 23 45 58 27 50 65 78 54 70 23 45 58 22 43 56 54 60 77 30 54 69 37 64 81 26 48 62 75 60 76 36 61 78 40 67 85 39 66 83 36 61 77
36 61 77 37 62 78 33 56 71 35 59 74 33 57 71 45 72 91 92 68 85 43 70 88 37 61 77 35 59 75 65 72 90 32 55 70 37 62 79 64 70 77 70 76 83 60 66 73
57 63 70 52 58 65 69 75 82 56 62 69 62 68 75 64 70 77 74 80 87 64 70 77 56 62 69 57 63 70 71 77 84 62 68 75 67 73 80 64 70 77 71 77 84 69 75 82
62 68 75 67 73 80 72 78 85 64 70 77 51 57 64 66 72 79 64 70 77 59 65 72 56 62 69 72 78 85 56 62 69 67 73 80 49 55 62 49 55 62 59 65 72 75 81 88
73 79 86 76 82 89 66 72 79 65 71 78 56 62 69 62 68 75 58 64 71 54 60 67 75 81 88 72 78 85 66 72 79 60 66 73 50 56 63 67 73 80 70 76 83 66 72 79
52 58 65 66 72 79 63 69 76 62 68 75 70 76 83 71 77 84 64 70 77 66 72 79 49 55 62 51 57 64 67 73 80 54 60 67 51 57 64 54 60 67 70 76 83 66 72 79
51 57 64 55 61 68 75 81 88 54 60 67 52 58 65 67 73 80 75 81 88 69 75 82 71 77 84 65 71 78 70 76 83 76 82 89 61 67 74 56 62 69 76 82 89 24 28 28
24 28 28 24 28 28 24 28 28 24 28 28 24 28 28 24 28 28 24 28 28 24 28 28 24 28 28 24 28 28 24 28 28 24 28 28 24 28 28 24 28 28 24 28 28 24 28 28
24 28 28 24 28 28 24 28 28 24 28 28 24 28 28 24 28 28 24 28 28 24 28 28 24 28 28 24 28 28 24 28 28 24 28 28 24 28 28 24 28 28 24 28 28 24 28 28
24 28 28 24 28 28 24 28 28 24 28 28 24 28 28 24 28 28 24 28 28 24 28 28 24 28 28 24 28 28 24 28 28 24 28 28 24 28 28 24 28 28 24 28 28 24 28 28
24 28 28 24 28 28 24 28 28 45 52 61 68 75 84 52 59 68 24 28 28 68 75 84 63 70 79 53 60 69 53 60 69 24 28 28 54 61 70 56 63 72 45 52 61 68 75 84
40 66 82 44 71 89 102 62 78 31 54 68 37 63 79 28 50 63 36 62 78 35 60 76 34 59 74 37 63 80 25 47 59 39 66 84 107 53 68 38 64 81 31 55 70 98 56 72
64 64 81 43 70 88 41 68 86 39 64 81 39 65 81 46 73 92 42 69 86 43 70 87 43 69 86 40 65 81 42 68 85 46 73 91 46 72 90 51 79 98 47 74 92 38 62 78
44 70 88 37 61 76 46 73 92 42 68 84 42 68 85 39 64 81 91 65 82 31 54 67 39 65 82 34 58 73 36 62 78 34 59 75 32 56 71 28 50 64 38 64 81 26 48 62
27 49 63 25 47 60 31 54 69 36 61 77 34 58 74 33 58 73 33 57 72 31 55 69 34 58 73 31 54 68 34 58 73 44 70 88 69 73 92 42 68 85 50 79 98 42 68 85
40 64 80 68 77 96 44 70 87 124 66 82 40 65 82 44 71 88 35 59 73 36 60 75 44 71 89 41 67 83 46 74 92 34 58 73 41 68 85 29 51 65 40 67 84 31 55 69
33 58 73 96 56 71 39 66 83 28 51 65 41 66 84 33 57 73 34 59 75 33 57 72 81 60 76 38 65 82 42 69 88 34 58 73 36 61 77 40 66 83 46 74 93 42 69 86
41 67 83 48 76 95 40 65 81 37 61 76 38 62 77 44 70 88 38 63 78 38 62 78 47 74 92 44 70 88 48 75 94 57 77 96 36 60 75 54 60 67 57 63 70 68 74 81
67 73 80 68 74 81 67 73 80 61 67 74 67 73 80 73 79 86 71 77 84 53 59 66 51 57 64 57 63 70 60 66 73 68 74 81 75 81 88 65 71 78 71 77 84 63 69 76
60 66 73 65 71 78 50 56 63 59 65 72 57 63 70 58 64 71 55 61 68 53 59 66 65 71 78 57 63 70 58 64 71 76 82 89 60 66 73 53 59 66 57 63 70 60 66 73
65 71 78 71 77 84 70 76 83 61 67 74 52 58 65 68 74 81 73 79 86 55 61 68 72 78 85 72 78 85 69 75 82 54 60 67 55 61 68 60 66 73 63 69 76 62 68 75
50 56 63 51 57 64 50 56 63 77 83 90 59 65 72 52 58 65 67 73 80 66 72 79 74 80 87 63 69 76 72 78 85 62 68 75 77 83 90 51 57 64 63 69 76 60 66 73
51 57 64 51 57 64 71 77 84 73 79 86 53 59 66 52 58 65 53 59 66 51 57 64 55 61 68 75 81 88 54 60 67 61 67 74 65 71 78 56 62 69 63 69 76 24 28 28
24 28 28 24 28 28 24 28 28 24 28 28 24 28 28 24 28 28 24 28 28 24 28 28 24 28 28 24 28 28 24 28 28 24 28 28 24 28 28 24 28 28 24 28 28 24 28 28
24 28 28 24 28 28 24 28 28 24 28 28 24 28 28 24 28 28 24 28 28 24 28 28 24 28 28 24 28 28 24 28 28 24 28 28 24 28 28 24 28 28 24 28 28 24 28 28
24 28 28 24 28 28 24 28 28 24 28 28 24 28 28 24 28 28 24 28 28 24 28 28 24 28 28 24 28 28 24 28 28 24 28 28 24 28 28 24 28 28 24 28 28 24 28 28
24 28 28 24 28 28 24 28 28 51 58 67 57 64 73 51 58 67 24 28 28 69 76 85 62 69 78 55 62 71 53 60 69 24 28 28 69 76 85 41 48 57 62 69 78 57 64 73
65 75 94 39 64 80 33 57 71 41 67 84 112 60 76 43 69 87 38 63 79 70 65 83 42 69 87 34 58 73 32 56 71 29 52 66 31 55 69 38 64 81 37 62 78 30 52 66
34 58 73 42 69 86 54 72 90 42 68 86 68 72 90 45 71 89 42 68 85 50 78 96 38 62 77 37 61 75 39 62 77 53 81 101 47 73 91 43 69 85 45 71 88 55 83 103
103 73 90 41 65 81 38 62 77 98 71 88 38 62 77 35 58 73 34 58 72 35 58 73 35 59 74 43 70 88 39 65 81 43 70 88 33 57 72 39 65 82 27 49 62 36 60 76
33 57 72 89 60 76 32 56 70 40 66 83 32 55 70 85 64 81 38 64 80 39 64 80 41 67 84 38 62 77 48 75 94 37 61 76 47 74 92 40 64 80 49 76 95 44 69 85
42 67 83 49 76 94 50 77 96 46 72 90 48 74 92 52 80 99 111 70 87 38 62 76 42 67 83 48 76 95 37 60 75 43 69 86 34 57 72 45 72 90 73 67 84 32 55 70
70 66 83 30 53 67 30 52 66 32 56 70 35 59 75 31 54 68 41 68 85 33 57 72 39 65 82 44 71 90 31 54 68 84 66 83 36 59 74 42 68 85 45 72 90 38 62 77
39 63 78 43 69 86 41 66 81 50 77 96 46 73 90 43 68 84 43 68 85 46 72 89 89 76 94 85 76 95 41 65 81 48 75 93 41 66 83 69 75 82 69 75 82 70 76 83
62 68 75 60 66 73 69 75 82 75 81 88 58 64 71 52 58 65 64 70 77 50 56 63 68 74 81 55 61 68 53 59 66 61 67 74 55 61 68 70 76 83 67 73 80 53 59 66
55 61 68 56 62 69 74 80 87 65 71 78 54 60 67 65 71 78 72 78 85 77 83 90 55 61 68 60 66 73 59 65 72 76 82 89 70 76 83 71 77 84 49 55 62 57 63 70
56 62 69 61 67 74 69 75 82 66 72 79 64 70 77 63 69 76 55 61 68 49 55 62 56 62 69 66 72 79 62 68 75 63 69 76 70 76 83 52 58 65 52 58 65 63 69 76
66 72 79 56 62 69 68 74 81 52 58 65 55 61 68 76 82 89 75 81 88 52 58 65 52 58 65 57 63 70 53 59 66 71 77 84 68 74 81 77 83 90 53 59 66 68 74 81
57 63 70 61 67 74 72 78 85 76 82 89 64 70 77 63 69 76 52 58 65 64 70 77 67 73 80 66 72 79 67 73 80 53 59 66 55 61 68 61 67 74 71 77 84 24 28 28
24 28 28 24 28 28 24 28 28 24 28 28 24 28 28 24 28 28 24 28 28 24 28 28 24 28 28 24 28 28 24 28 28 24 28 28 24 28 28 24 28 28 24 28 28 24 28 28
24 28 28 24 28 28 24 28 28 24 28 28 24 28 28 24 28 28 24 28 28 24 28 28 24 28 28 24 28 28 24 28 28 24 28 28 24 28 28 24 28 28 24 28 28 24 28 28
24 28 28 24 28 28 24 28 28 24 28 28 24 28 28 24 28 28 24 28 28 24 28 28 24 28 28 24 28 28 24 28 28 24 28 28 24 28 28 24 28 28 24 28 28 24 28 28
24 28 28 24 28 28 24 28 28 51 58 67 68 75 84 56 63 72 24 28 28 49 56 65 47 54 63 68 75 84 45 52 61 24 28 28 48 55 64 67 74 83 68 75 84 48 55 64
43 69 85 42 67 84 36 59 74 47 75 93 40 65 81 43 69 87 36 61 76 41 68 85 32 56 70 29 52 65 40 66 83 41 67 84 37 62 78 29 52 65 36 60 76 43 70 88
80 67 84 46 73 91 41 67 83 45 71 89 46 73 91 43 69 86 120 67 83 46 73 90 48 74 92 42 67 82 43 68 83 49 76 94 53 82 101 54 83 102 46 72 89 46 72 90
47 74 91 50 77 96 51 78 97 48 75 93 47 74 91 39 63 78 41 66 82 35 58 72 44 71 88 38 62 78 38 63 78 38 63 79 37 62 78 29 51 64 42 69 86 31 54 67
43 70 88 29 51 64 31 54 67 34 58 73 34 58 73 44 70 88 42 68 85 41 66 82 37 60 75 36 60 74 38 62 77 41 66 82 52 80 99 50 77 95 42 66 82 49 75 93
52 80 99 111 74 91 50 77 95 42 66 82 51 79 97 71 81 100 39 63 78 40 65 80 48 75 93 38 62 76 73 74 93 48 76 95 36 59 74 41 66 82 42 68 85 79 67 84
78 66 83 33 56 70 31 53 67 34 58 73 38 63 79 30 52 66 71 66 83 40 66 83 31 54 68 40 65 81 46 73 92 38 62 78 37 61 76 46 72 90 44 70 88 45 72 89
62 79 99 52 80 100 50 78 96 51 79 98 48 75 93 48 74 91 124 71 88 49 76 94 51 78 97 42 66 82 54 83 102 49 77 95 51 79 98 61 67 74 57 63 70 66 72 79
76 82 89 69 75 82 54 60 67 59 65 72 61 67 74 70 76 83 56 62 69 62 68 75 76 82 89 70 76 83 72 78 85 50 56 63 54 60 67 75 81 88 74 80 87 57 63 70
57 63 70 76 82 89 55 61 68 66 72 79 76 82 89 53 59 66 65 71 78 58 64 71 59 65 72 50 56 63 65 71 78 62 68 75 69 75 82 67 73 80 61 67 74 59 65 72
71 77 84 71 77 84 58 64 71 53 59 66 67 73 80 66 72 79 52 58 65 76 82 89 69 75 82 53 59 66 52 58 65 68 74 81 70 76 83 65 71 78 75 81 88 77 83 90
50 56 63 73 79 86 73 79 86 61 67 74 67 73 80 61 67 74 73 79 86 59 65 72 62 68 75 54 60 67 62 68 75 56 62 69 70 76 83 67 73 80 63 69 76 49 55 62
70 76 83 73 79 86 75 81 88 53 59 66 56 62 69 61 67 74 62 68 75 59 65 72 55 61 68 71 77 84 58 64 71 55 61 68 64 70 77 62 68 75 69 75 82 24 28 28
24 28 28 24 28 28 24 28 28 24 28 28 24 28 28 24 28 28 24 28 28 24 28 28 24 28 28 24 28 28 24 28 28 24 28 28 24 28 28 24 28 28 24 28 28 24 28 28
24 28 28 24 28 28 24 28 28 24 28 28 24 28 28 24 28 28 24 28 28 24 28 28 24 28 28 24 28 28 24 28 28 24 28 28 24 28 28 24 28 28 24 28 28 24 28 28
24 28 28 24 28 28 24 28 28 24 28 28 24 28 28 24 28 28 24 28 28 24 28 28 24 28 28 24 28 28 24 28 28 24 28 28 24 28 28 24 28 28 24 28 28 24 28 28
24 28 28 24 28 28 24 28 28 62 69 78 65 72 81 57 64 73 24 28 28 45 52 61 49 56 65 55 62 71 54 61 70 24 28 28 43 50 59 63 70 79 56 63 72 60 67 76
42 67 83 47 74 92 42 68 84 36 59 74 113 63 79 47 75 93 42 68 85 38 63 79 44 71 88 44 71 89 32 55 69 31 54 67 37 62 78 42 69 86 93 63 79 32 55 69
32 54 68 43 69 86 45 71 89 46 73 91 36 59 74 48 75 93 49 77 95 124 68 84 112 71 89 46 72 89 42 66 81 46 72 88 61 85 105 45 70 86 70 83 102 45 70 86
54 83 102 49 76 94 40 64 80 41 65 81 47 73 91 42 67 83 37 60 75 47 74 92 47 74 92 34 58 72 38 62 77 57 71 89 87 65 81 44 70 88 91 63 79 41 66 83
97 61 77 32 55 69 33 56 70 34 57 72 41 66 83 42 68 85 38 63 79 34 57 72 36 59 74 44 69 86 48 75 92 51 79 98 50 77 96 53 81 100 40 64 79 53 82 101
53 81 100 43 67 83 42 66 82 113 74 92 52 80 99 52 79 98 78 79 98 53 82 101 80 77 95 48 75 93 44 70 86 35 59 73 38 62 77 42 67 84 47 74 93 45 72 90
39 65 81 33 56 70 41 67 84 34 57 72 37 62 78 31 53 66 67 68 85 34 58 72 42 68 86 32 54 68 44 70 88 107 64 81 34 57 71 41 66 82 50 77 96 90 73 91
100 72 90 40 64 79 41 66 81 53 81 100 54 82 101 73 82 102 52 80 98 42 67 82 48 74 92 48 74 91 45 70 87 47 73 91 49 76 95 65 71 78 74 80 87 54 60 67
50 56 63 68 74 81 52 58 65 62 68 75 50 56 63 75 81 88 66 72 79 73 79 86 63 69 76 61 67 74 55 61 68 54 60 67 63 69 76 64 70 77 51 57 64 50 56 63
74 80 87 58 64 71 50 56 63 59 65 72 63 69 76 68 74 81 59 65 72 50 56 63 61 67 74 67 73 80 76 82 89 73 79 86 57 63 70 53 59 66 53 59 66 60 66 73
60 66 73 66 72 79 50 56 63 62 68 75 69 75 82 56 62 69 63 69 76 55 61 68 54 60 67 65 71 78 71 77 84 58 64 71 51 57 64 66 72 79 50 56 63 66 72 79
65 71 78 60 66 73 51 57 64 52 58 65 63 69 76 62 68 75 76 82 89 61 67 74 55 61 68 54 60 67 59 65 72 64 70 77 54 60 67 73 79 86 68 74 81 54 60 67
63 69 76 55 61 68 70 76 83 49 55 62 67 73 80 76 82 89 71 77 84 60 66 73 63 69 76 53 59 66 57 63 70 52 58 65 56 62 69 67 73 80 76 82 89 24 28 28
24 28 28 24 28 28 24 28 28 24 28 28 24 28 28 24 28 28 24 28 28 24 28 28 24 28 28 24 28 28 24 28 28 24 28 28 24 28 28 24 28 28 24 28 28 24 28 28
24 28 28 24 28 28 24 28 28 24 28 28 24 28 28 24 28 28 24 28 28 24 28 28 24 28 28 24 28 28 24 28 28 24 28 28 24 28 28 24 28 28 24 28 28 24 28 28
24 28 28 24 28 28 24 28 28 24 28 28 24 28 28 24 28 28 24 28 28 24 28 28 24 28 28 24 28 28 24 28 28 24 28 28 24 28 28 24 28 28 24 28 28 24 28 28
24 28 28 24 28 28 24 28 28 65 72 81 61 68 77 64 71 80 24 28 28 63 70 79 41 48 57 54 61 70 67 74 83 24 28 28 57 64 73 66 73 82 66 73 82 57 64 73
44 69 85 46 72 90 36 59 73 57 77 95 45 72 89 47 74 93 43 69 86 42 68 85 34 57 71 32 55 69 82 65 82 42 68 85 31 53 66 36 60 75 42 67 84 35 58 73
38 63 78 47 75 93 38 62 77 113 65 82 36 59 74 39 63 78 47 73 91 99 74 92 55 83 103 44 70 86 51 79 97 72 83 102 43 68 84 53 81 99 42 67 82 79 82 101
47 73 90 49 75 93 41 65 80 51 79 98 53 81 100 108 70 87 40 64 80 45 71 88 40 64 80 37 61 76 36 60 75 37 62 77 31 53 67 45 72 90 30 53 66 34 57 72
45 72 90 75 67 84 41 67 83 45 71 89 34 57 71 38 62 77 40 65 81 39 64 79 39 64 79 44 70 87 39 62 77 40 64 79 125 69 86 51 78 97 50 76 94 125 72 89
77 82 101 47 73 89 54 82 101 54 82 101 46 71 88 69 83 102 124 71 88 51 79 97 50 78 96 46 72 89 42 67 83 41 66 81 41 66 82 42 68 85 35 58 72 34 57 71
32 55 68 34 57 71 31 54 68 40 66 83 37 61 77 74 67 84 44 71 89 37 61 77 33 56 70 46 74 92 42 67 83 42 67 84 39 63 79 43 69 86 46 72 89 85 75 93
53 82 101 89 77 95 42 66 82 53 81 100 53 80 99 54 82 102 54 82 101 43 68 83 51 78 96 43 68 83 50 77 94 41 65 80 43 68 83 75 81 88 73 79 86 58 64 71
53 59 66 64 70 77 69 75 82 62 68 75 66 72 79 75 81 88 73 79 86 49 55 62 73 79 86 62 68 75 63 69 76 62 68 75 74 80 87 69 75 82 73 79 86 63 69 76
76 82 89 69 75 82 59 65 72 71 77 84 71 77 84 66 72 79 72 78 85 69 75 82 57 63 70 75 81 88 58 64 71 65 71 78 51 57 64 52 58 65 77 83 90 75 81 88
51 57 64 73 79 86 70 76 83 62 68 75 56 62 69 50 56 63 65 71 78 77 83 90 50 56 63 55 61 68 64 70 77 58 64 71 68 74 81 70 76 83 67 73 80 58 64 71
66 72 79 50 56 63 73 79 86 51 57 64 66 72 79 67 73 80 70 76 83 52 58 65 72 78 85 67 73 80 66 72 79 67 73 80 67 73 80 75 81 88 50 56 63 75 81 88
66 72 79 66 72 79 58 64 71 75 81 88 61 67 74 67 73 80 50 56 63 52 58 65 61 67 74 64 70 77 63 69 76 75 81 88 63 69 76 57 63 70 58 64 71 24 28 28
24 28 28 24 28 28 24 28 28 24 28 28 24 28 28 24 28 28 24 28 28 24 28 28 24 28 28 24 28 28 24 28 28 24 28 28 24 28 28 24 28 28 24 28 28 24 28 28
24 28 28 24 28 28 24 28 28 24 28 28 24 28 28 24 28 28 24 28 28 24 28 28 24 28 28 24 28 28 24 28 28 24 28 28 24 28 28 24 28 28 24 28 28 24 28 28
24 28 28 24 28 28 24 28 28 24 28 28 24 28 28 24 28 28 24 28 28 24 28 28 24 28 28 24 28 28 24 28 28 24 28 28 24 28 28 24 28 28 24 28 28 24 28 28
24 28 28 24 28 28 24 28 28 66 73 82 44 51 60 65 72 81 24 28 28 56 63 72 62 69 78 69 76 85 62 69 78 24 28 28 58 65 74 61 68 77 60 67 76 50 57 66
48 74 91 51 78 96 51 79 97 45 71 89 41 65 81 117 64 80 39 64 79 36 60 74 45 71 89 39 64 80 46 73 91 39 63 79 54 73 91 43 69 85 37 61 76 120 61 76
78 71 88 35 58 71 42 67 83 42 67 84 49 76 94 53 82 101 52 80 99 98 76 94 46 72 88 51 79 97 48 74 90 50 76 94 43 68 83 50 77 94 68 86 106 125 74 91
114 76 94 45 71 87 53 80 99 51 78 97 100 75 92 42 66 81 46 72 88 64 78 96 51 79 98 45 71 88 40 64 80 42 68 84 41 66 82 35 58 72 51 73 92 43 69 86
42 68 84 34 57 71 44 71 88 48 75 94 35 58 73 40 65 80 37 61 75 44 70 86 40 64 79 43 68 84 52 80 98 46 72 89 51 79 97 83 81 99 55 83 102 52 79 98
54 82 101 120 76 93 57 85 105 56 85 104 50 76 94 53 80 98 54 81 100 47 73 90 47 73 90 116 71 88 41 65 81 49 76 94 39 63 78 42 67 83 87 70 87 45 72 89
44 71 88 44 70 87 38 63 78 42 67 84 92 65 81 32 54 67 35 59 73 109 62 78 45 72 89 53 75 94 48 76 94 44 70 86 43 69 85 48 75 93 42 66 82 84 77 95
47 73 89 117 73 90 53 81 99 43 67 82 43 68 83 56 85 104 54 81 100 113 77 95 54 81 100 44 69 84 44 68 84 52 79 98 43 68 83 60 66 73 64 70 77 53 59 66
69 75 82 49 55 62 49 55 62 68 74 81 52 58 65 69 75 82 50 56 63 63 69 76 67 73 80 63 69 76 53 59 66 56 62 69 73 79 86 74 80 87 74 80 87 73 79 86
51 57 64 68 74 81 54 60 67 71 77 84 60 66 73 67 73 80 58 64 71 75 81 88 65 71 78 51 57 64 55 61 68 56 62 69 58 64 71 73 79 86 68 74 81 52 58 65
71 77 84 56 62 69 61 67 74 71 77 84 74 80 87 61 67 74 53 59 66 71 77 84 64 70 77 71 77 84 55 61 68 58 64 71 50 56 63 70 76 83 60 66 73 75 81 88
75 81 88 68 74 81 60 66 73 72 78 85 55 61 68 58 64 71 71 77 84 66 72 79 53 59 66 56 62 69 64 70 77 74 80 87 50 56 63 57 63 70 68 74 81 61 67 74
51 57 64 75 81 88 69 75 82 63 69 76 63 69 76 53 59 66 71 77 84 56 62 69 70 76 83 58 64 71 59 65 72 73 79 86 51 57 64 72 78 85 63 69 76 24 28 28
24 28 28 24 28 28 24 28 28 24 28 28 24 28 28 24 28 28 24 28 28 24 28 28 24 28 28 24 28 28 24 28 28 24 28 28 24 28 28 24 28 28 24 28 28 24 28 28
24 28 28 24 28 28 24 28 28 24 28 28 24 28 28 24 28 28 24 28 28 24 28 28 24 28 28 24 28 28 24 28 28 24 28 28 24 28 28 24 28 28 24 28 28 24 28 28
24 28 28 24 28 28 24 28 28 24 28 28 24 28 28 24 28 28 24 28 28 24 28 28 24 28 28 24 28 28 24 28 28 24 28 28 24 28 28 24 28 28 24 28 28 24 28 28
24 28 28 24 28 28 24 28 28 57 64 73 58 65 74 42 49 58 24 28 28 46 53 62 66 73 82 53 60 69 60 67 76 24 28 28 46 53 62 66 73 82 61 68 77 58 65 74
53 80 98 64 83 102 103 74 91 41 65 79 52 80 98 52 79 98 40 64 79 37 61 75 35 58 72 80 71 88 46 72 89 37 61 75 48 75 93 45 71 88 46 73 90 42 67 82
50 78 96 51 79 98 51 78 96 45 71 87 44 69 85 48 74 90 43 67 81 53 80 98 59 88 108 49 74 91 49 74 91 57 86 105 53 79 97 51 78 95 49 74 90 47 72 88
47 72 88 48 73 89 54 81 100 88 82 100 97 78 97 50 76 93 46 71 88 41 65 80 53 81 100 38 61 75 39 63 77 45 70 87 36 58 72 85 70 87 36 59 73 60 75 92
34 56 70 49 77 95 43 68 84 45 71 88 111 67 83 44 70 86 43 68 84 51 79 97 42 66 81 92 77 95 50 77 95 46 71 87 51 77 94 44 68 83 52 78 95 51 77 95
60 89 109 57 85 104 56 84 103 60 88 108 55 83 101 47 71 87 50 76 93 49 75 91 56 84 103 47 72 89 43 68 83 45 70 86 53 80 99 41 65 80 44 70 86 49 75 93
36 59 72 38 61 76 39 63 78 36 60 74 40 65 80 108 65 81 63 74 92 117 64 80 35 58 72 40 64 79 49 76 94 41 65 80 45 70 86 54 83 102 56 84 104 55 82 101
49 75 92 50 77 94 52 79 97 54 82 100 46 70 86 58 86 106 52 79 96 58 86 105 47 72 87 130 76 93 54 81 99 52 79 97 52 78 96 69 75 82 58 64 71 64 70 77
76 82 89 64 70 77 69 75 82 57 63 70 71 77 84 75 81 88 71 77 84 59 65 72 55 61 68 70 76 83 50 56 63 73 79 86 74 80 87 58 64 71 51 57 64 56 62 69
69 75 82 68 74 81 49 55 62 66 72 79 59 65 72 76 82 89 57 63 70 53 59 66 72 78 85 67 73 80 71 77 84 74 80 87 66 72 79 62 68 75 74 80 87 58 64 71
77 83 90 52 58 65 71 77 84 75 81 88 71 77 84 56 62 69 76 82 89 75 81 88 60 66 73 51 57 64 62 68 75 54 60 67 54 60 67 59 65 72 50 56 63 59 65 72
58 64 71 77 83 90 69 75 82 66 72 79 74 80 87 77 83 90 66 72 79 52 58 65 64 70 77 51 57 64 57 63 70 59 65 72 77 83 90 62 68 75 55 61 68 54 60 67
64 70 77 67 73 80 66 72 79 71 77 84 57 63 70 71 77 84 56 62 69 61 67 74 70 76 83 66 72 79 59 65 72 61 67 74 66 72 79 66 72 79 72 78 85 24 28 28
24 28 28 24 28 28 24 28 28 24 28 28 24 28 28 24 28 28 24 28 28 24 28 28 24 28 28 24 28 28 24 28 28 24 28 28 24 28 28 24 28 28 24 28 28 24 28 28
24 28 28 24 28 28 24 28 28 24 28 28 24 28 28 24 28 28 24 28 28 24 28 28 24 28 28 24 28 28 24 28 28 24 28 28 24 28 28 24 28 28 24 28 28 24 28 28
24 28 28 24 28 28 24 28 28 24 28 28 24 28 28 24 28 28 24 28 28 24 28 28 24 28 28 24 28 28 24 28 28 24 28 28 24 28 28 24 28 28 24 28 28 24 28 28
24 28 28 24 28 28 24 28 28 58 65 74 64 71 80 52 59 68 24 28 28 69 76 85 52 59 68 50 57 66 52 59 68 24 28 28 49 56 65 60 67 76 66 73 82 50 57 66
50 75 92 50 75 92 45 69 85 48 73 89 47 72 89 43 66 81 43 67 82 99 73 90 97 73 90 52 79 97 50 76 94 50 77 95 42 65 80 46 71 87 42 66 81 101 73 90
51 77 94 49 75 91 45 70 85 58 86 105 50 76 92 59 87 106 50 76 92 52 78 95 52 78 94 74 91 111 50 75 91 53 79 96 50 75 91 56 82 100 65 94 115 54 80 97
51 76 92 57 84 102 59 87 106 54 81 98 55 83 101 52 78 95 57 84 103 48 73 88 49 75 91 47 71 87 55 83 102 50 77 94 48 73 90 44 69 84 50 77 94 47 73 89
49 75 93 43 67 82 122 68 83 46 71 87 41 65 79 40 63 77 50 76 92 46 70 85 49 74 91 52 79 96 58 86 105 56 84 102 56 83 101 103 84 103 58 86 105 57 84 102
65 94 115 54 80 97 55 81 99 62 91 110 51 76 92 63 92 112 56 82 100 61 89 109 128 78 95 49 74 89 84 84 103 44 68 83 48 73 89 45 69 84 56 84 103 40 63 77
41 65 79 49 75 92 91 74 91 52 80 98 40 64 78 51 78 96 106 70 87 39 61 75 113 70 87 40 63 76 44 69 84 44 69 84 56 84 103 51 77 94 51 77 94 130 76 93
58 85 104 50 75 91 60 88 107 64 93 113 51 76 92 53 79 95 54 79 96 63 92 111 87 90 110 55 82 99 60 88 107 54 80 97 57 84 102 67 73 80 53 59 66 58 64 71
55 61 68 73 79 86 59 65 72 70 76 83 77 83 90 54 60 67 64 70 77 75 81 88 58 64 71 54 60 67 71 77 84 71 77 84 51 57 64 69 75 82 70 76 83 68 74 81
73 79 86 67 73 80 65 71 78 64 70 77 75 81 88 68 74 81 55 61 68 64 70 77 53 59 66 63 69 76 53 59 66 67 73 80 73 79 86 56 62 69 71 77 84 61 67 74
67 73 80 56 62 69 50 56 63 63 69 76 63 69 76 59 65 72 76 82 89 68 74 81 61 67 74 74 80 87 69 75 82 56 62 69 53 59 66 67 73 80 58 64 71 52 58 65
50 56 63 70 76 83 65 71 78 54 60 67 59 65 72 63 69 76 66 72 79 53 59 66 75 81 88 51 57 64 60 66 73 75 81 88 54 60 67 75 81 88 52 58 65 58 64 71
72 78 85 67 73 80 71 77 84 71 77 84 70 76 83 54 60 67 72 78 85 65 71 78 52 58 65 77 83 90 54 60 67 59 65 72 67 73 80 59 65 72 60 66 73 24 28 28
24 28 28 24 28 28 24 28 28 24 28 28 24 28 28 24 28 28 24 28 28 24 28 28 24 28 28 24 28 28 24 28 28 24 28 28 24 28 28 24 28 28 24 28 28 24 28 28
24 28 28 24 28 28 24 28 28 24 28 28 24 28 28 24 28 28 24 28 28 24 28 28 24 28 28 24 28 28 24 28 28 24 28 28 24 28 28 24 28 28 24 28 28 24 28 28
24 28 28 24 28 28 24 28 28 24 28 28 24 28 28 24 28 28 24 28 28 24 28 28 24 28 28 24 28 28 24 28 28 24 28 28 24 28 28 24 28 28 24 28 28 24 28 28
24 28 28 24 28 28 24 28 28 61 68 77 66 73 82 42 49 58 24 28 28 61 68 77 43 50 59 43 50 59 56 63 72 24 28 28 64 71 80 55 62 71 61 68 77 41 48 57
55 80 97 60 87 106 103 84 102 61 90 109 57 84 102 57 84 103 45 69 83 55 83 101 55 82 100 56 83 101 52 77 94 52 78 95 45 68 83 57 85 104 68 84 103 59 87 106
90 82 100 50 75 90 52 77 94 57 84 101 58 85 104 99 86 105 63 92 112 117 85 103 74 95 115 120 87 105 54 79 95 61 88 106 65 93 113 66 95 115 60 87 104 68 97 117
66 95 114 62 89 108 61 89 108 55 80 96 64 92 112 58 85 102 50 74 89 60 88 107 55 81 99 52 78 95 59 88 107 51 77 94 50 76 92 49 74 90 123 72 88 44 68 82
54 81 99 51 76 93 50 76 92 48 72 88 49 74 89 117 77 94 55 81 99 56 83 101 54 80 97 53 78 95 99 87 105 57 83 100 63 91 110 58 84 102 53 78 94 54 79 95
62 89 108 58 85 102 67 96 116 57 83 100 63 91 110 64 92 111 54 79 95 55 81 97 124 84 102 106 86 105 123 81 99 59 86 104 55 81 98 59 87 106 60 88 107 47 71 86
101 78 96 57 84 103 47 72 87 56 84 102 43 66 80 53 79 96 57 85 104 43 67 81 45 69 83 56 84 102 59 88 107 70 88 107 57 84 101 51 76 92 55 81 98 65 94 114
68 95 115 64 93 113 59 85 103 61 89 107 62 89 107 56 82 98 69 99 120 68 97 118 68 97 118 67 96 116 68 97 118 65 94 114 57 83 101 57 63 70 55 61 68 76 82 89
54 60 67 55 61 68 64 70 77 76 82 89 67 73 80 51 57 64 65 71 78 72 78 85 75 81 88 64 70 77 68 74 81 64 70 77 70 76 83 66 72 79 60 66 73 65 71 78
56 62 69 73 79 86 64 70 77 68 74 81 65 71 78 69 75 82 57 63 70 72 78 85 67 73 80 53 59 66 53 59 66 70 76 83 70 76 83 60 66 73 68 74 81 75 81 88
50 56 63 69 75 82 59 65 72 51 57 64 71 77 84 49 55 62 67 73 80 76 82 89 75 81 88 51 57 64 58 64 71 52 58 65 74 80 87 75 81 88 62 68 75 60 66 73
71 77 84 75 81 88 71 77 84 65 71 78 76 82 89 67 73 80 64 70 77 60 66 73 66 72 79 75 81 88 74 80 87 76 82 89 76 82 89 71 77 84 54 60 67 69 75 82
66 72 79 70 76 83 67 73 80 70 76 83 66 72 79 73 79 86 57 63 70 52 58 65 73 79 86 64 70 77 58 64 71 60 66 73 61 67 74 74 80 87 72 78 85 24 28 28
24 28 28 24 28 28 24 28 28 24 28 28 24 28 28 24 28 28 24 28 28 24 28 28 24 28 28 24 28 28 24 28 28 24 28 28 24 28 28 24 28 28 24 28 28 24 28 28
24 28 28 24 28 28 24 28 28 24 28 28 24 28 28 24 28 28 24 28 28 24 28 28 24 28 28 24 28 28 24 28 28 24 28 28 24 28 28 24 28 28 24 28 28 24 28 28
24 28 28 24 28 28 24 28 28 24 28 28 24 28 28 24 28 28 24 28 28 24 28 28 24 28 28 24 28 28 24 28 28 24 28 28 24 28 28 24 28 28 24 28 28 24 28 28
24 28 28 24 28 28 24 28 28 65 72 81 64 71 80 61 68 77 24 28 28 47 54 63 68 75 84 57 64 73 43 50 59 24 28 28 56 63 72 68 75 84 47 54 63 56 63 72
54 79 95 60 87 105 56 82 98 52 77 92 58 85 102 57 83 100 61 89 108 50 75 90 49 73 87 56 83 101 61 88 107 48 71 86 46 69 83 58 85 103 63 90 109 53 78 95
49 73 87 60 87 105 58 85 103 61 88 107 56 81 97 57 83 100 87 95 114 63 91 109 62 89 107 63 91 109 57 82 98 69 97 117 72 102 122 63 89 107 67 95 114 58 84 100
61 87 104 58 84 100 71 101 121 66 94 114 61 88 106 61 88 106 89 92 111 59 86 104 57 82 99 58 84 101 57 84 101 52 77 93 47 70 84 58 85 103 57 84 102 71 87 106
54 80 97 47 70 85 55 80 97 59 86 105 54 80 96 55 80 97 68 92 112 60 88 106 55 80 96 54 78 94 67 95 115 99 93 112 56 80 96 64 92 110 63 89 107 62 88 106
72 102 123 59 85 101 68 97 117 111 95 114 110 95 114 68 96 115 58 84 100 136 87 105 62 89 106 56 81 97 56 82 98 56 82 98 62 89 108 60 87 105 53 78 94 59 86 103
57 83 100 59 87 105 47 71 85 55 81 99 48 72 87 60 87 106 54 80 97 110 80 97 57 83 101 49 73 88 52 77 93 57 83 100 52 77 92 63 90 109 58 84 101 54 78 94
59 85 102 58 84 100 69 98 119 57 82 98 72 101 122 67 95 114 65 93 111 64 91 109 70 99 119 66 95 114 129 90 108 66 94 113 58 83 99 60 66 73 52 58 65 60 66 73
77 83 90 66 72 79 76 82 89 58 64 71 68 74 81 69 75 82 66 72 79 72 78 85 56 62 69 77 83 90 70 76 83 75 81 88 54 60 67 75 81 88 76 82 89 64 70 77
71 77 84 76 82 89 62 68 75 75 81 88 71 77 84 56 62 69 76 82 89 68 74 81 52 58 65 68 74 81 65 71 78 66 72 79 76 82 89 71 77 84 71 77 84 56 62 69
73 79 86 75 81 88 59 65 72 49 55 62 70 76 83 74 80 87 61 67 74 71 77 84 60 66 73 52 58 65 72 78 85 76 82 89 58 64 71 54 60 67 53 59 66 58 64 71
64 70 77 75 81 88 60 66 73 63 69 76 62 68 75 65 71 78 71 77 84 73 79 86 64 70 77 59 65 72 71 77 84 56 62 69 67 73 80 74 80 87 71 77 84 71 77 84
76 82 89 55 61 68 74 80 87 62 68 75 67 73 80 62 68 75 66 72 79 63 69 76 64 70 77 63 69 76 58 64 71 64 70 77 73 79 86 65 71 78 55 61 68 24 28 28
24 28 28 24 28 28 24 28 28 24 28 28 24 28 28 24 28 28 24 28 28 24 28 28 24 28 28 24 28 28 24 28 28 24 28 28 24 28 28 24 28 28 24 28 28 24 28 28
24 28 28 24 28 28 24 28 28 24 28 28 24 28 28 24 28 28 24 28 28 24 28 28 24 28 28 24 28 28 24 28 28 24 28 28 24 28 28 24 28 28 24 28 28 24 28 28
24 28 28 24 28 28 24 28 28 24 28 28 24 28 28 24 28 28 24 28 28 24 28 28 24 28 28 24 28 28 24 28 28 24 28 28 24 28 28 24 28 28 24 28 28 24 28 28
24 28 28 24 28 28 24 28 28 51 58 67 62 69 78 49 56 65 24 28 28 63 70 79 56 63 72 51 58 67 54 61 70 24 28 28 61 68 77 67 74 83 51 58 67 44 51 60
67 96 115 61 88 105 66 95 114 54 78 94 66 95 114 56 82 98 52 77 92 53 78 94 53 78 94 59 85 103 59 87 105 51 75 90 49 73 88 50 75 90 59 85 103 53 78 93
51 75 90 55 80 96 65 94 113 58 84 101 58 84 101 57 82 99 56 81 97 64 92 110 61 87 104 65 92 111 82 102 123 72 101 121 60 85 101 68 96 115 60 85 102 65 92 110
69 97 117 120 94 113 71 101 121 62 88 106 58 83 99 57 82 98 65 93 111 58 83 100 56 81 97 60 86 104 59 86 103 49 72 87 56 82 99 52 76 92 51 75 90 120 79 96
62 90 109 49 72 87 95 85 103 61 89 107 61 89 107 53 78 94 61 89 107 63 91 109 109 89 107 58 84 101 58 84 100 57 82 98 64 91 109 69 98 118 94 99 119 84 102 122
66 93 111 60 86 102 66 93 111 141 91 109 82 103 123 89 100 121 65 93 111 63 90 108 57 82 98 55 80 95 59 85 102 59 85 103 67 96 116 66 94 114 53 77 93 57 82 99
57 83 100 77 89 107 63 91 110 52 77 93 133 76 92 60 87 105 63 91 110 54 79 95 51 75 90 56 81 98 56 82 98 61 87 105 92 91 110 61 88 106 54 78 94 62 88 106
62 88 106 70 99 119 65 93 111 60 86 102 62 88 105 137 92 110 74 104 124 61 87 103 64 91 109 71 100 120 66 94 112 63 90 108 61 87 105 57 63 70 70 76 83 54 60 67
60 66 73 73 79 86 50 56 63 68 74 81 73 79 86 71 77 84 55 61 68 67 73 80 58 64 71 61 67 74 59 65 72 74 80 87 72 78 85 61 67 74 68 74 81 76 82 89
66 72 79 76 82 89 70 76 83 71 77 84 54 60 67 74 80 87 63 69 76 62 68 75 65 71 78 63 69 76 65 71 78 51 57 64 65 71 78 60 66 73 58 64 71 73 79 86
61 67 74 58 64 71 53 59 66 52 58 65 51 57 64 50 56 63 49 55 62 57 63 70 54 60 67 71 77 84 49 55 62 57 63 70 57 63 70 77 83 90 69 75 82 53 59 66
65 71 78 54 60 67 76 82 89 60 66 73 52 58 65 69 75 82 67 73 80 52 58 65 69 75 82 70 76 83 64 70 77 68 74 81 72 78 85 51 57 64 69 75 82 65 71 78
65 71 78 71 77 84 76 82 89 64 70 77 65 71 78 58 64 71 70 76 83 74 80 87 58 64 71 51 57 64 57 63 70 75 81 88 69 75 82 58 64 71 61 67 74 24 28 28
24 28 28 24 28 28 24 28 28 24 28 28 24 28 28 24 28 28 24 28 28 24 28 28 24 28 28 24 28 28 24 28 28 24 28 28 24 28 28 24 28 28 24 28 28 24 28 28
24 28 28 24 28 28 24 28 28 24 28 28 24 28 28 24 28 28 24 28 28 24 28 28 24 28 28 24 28 28 24 28 28 24 28 28 24 28 28 24 28 28 24 28 28 24 28 28
24 28 28 24 28 28 24 28 28 24 28 28 24 28 28 24 28 28 24 28 28 24 28 28 24 28 28 24 28 28 24 28 28 24 28 28 24 28 28 24 28 28 24 28 28 24 28 28
24 28 28 24 28 28 24 28 28 42 49 58 67 74 83 69 76 85 24 28 28 63 70 79 54 61 70 68 75 84 49 56 65 24 28 28 47 54 63 45 52 61 60 67 76 53 60 69
124 88 106 59 85 102 54 78 94 66 94 114 118 83 101 53 78 93 91 86 105 61 88 107 48 72 87 61 89 108 49 73 87 85 85 103 59 87 105 59 86 105 62 90 110 59 86 104
92 86 105 64 93 113 65 93 113 62 89 108 62 89 107 64 92 111 60 87 104 63 91 109 70 99 119 71 100 121 72 102 123 139 90 108 69 97 116 71 101 121 63 90 108 93 99 119
68 97 116 59 85 101 70 99 119 65 92 111 59 86 103 90 94 113 66 95 115 136 82 99 55 80 96 56 82 98 66 92 111 75 89 108 128 78 94 126 77 94 61 89 108 48 72 86
61 89 108 48 71 86 132 76 92 58 85 103 59 85 103 58 85 103 65 93 113 61 89 107 58 83 100 58 84 101 67 96 115 62 90 108 65 92 111 71 101 122 66 94 113 70 99 119
62 89 106 61 87 104 68 96 115 72 102 122 67 95 114 65 92 111 84 99 120 58 83 99 56 81 97 120 89 107 66 94 113 60 86 104 51 75 89 54 79 95 56 81 98 70 91 110
58 85 103 49 73 88 50 74 89 51 76 92 58 85 103 51 75 91 47 70 85 61 89 108 50 73 88 56 82 98 60 88 106 64 93 112 72 94 113 60 86 104 65 93 113 59 86 103
62 89 107 118 91 110 67 96 115 59 84 101 66 94 113 61 87 104 73 103 124 69 98 118 70 99 119 62 89 106 66 94 112 58 84 100 69 98 118 50 56 63 59 65 72 68 74 81
55 61 68 63 69 76 54 60 67 50 56 63 53 59 66 64 70 77 69 75 82 68 74 81 65 71 78 67 73 80 66 72 79 67 73 80 53 59 66 66 72 79 68 74 81 70 76 83
62 68 75 70 76 83 52 58 65 75 81 88 63 69 76 65 71 78 49 55 62 63 69 76 68 74 81 75 81 88 71 77 84 72 78 85 57 63 70 59 65 72 60 66 73 61 67 74
64 70 77 72 78 85 74 80 87 68 74 81 71 77 84 54 60 67 51 57 64 64 70 77 75 81 88 53 59 66 64 70 77 58 64 71 56 62 69 59 65 72 56 62 69 72 78 85
59 65 72 55 61 68 54 60 67 56 62 69 57 63 70 53 59 66 61 67 74 56 62 69 58 64 71 54 60 67 64 70 77 53 59 66 75 81 88 61 67 74 71 77 84 76 82 89
71 77 84 50 56 63 55 61 68 64 70 77 70 76 83 57 63 70 62 68 75 64 70 77 59 65 72 76 82 89 50 56 63 71 77 84 68 74 81 70 76 83 54 60 67 24 28 28
24 28 28 24 28 28 24 28 28 24 28 28 24 28 28 24 28 28 24 28 28 24 28 28 24 28 28 24 28 28 24 28 28 24 28 28 24 28 28 24 28 28 24 28 28 24 28 28
24 28 28 24 28 28 24 28 28 24 28 28 24 28 28 24 28 28 24 28 28 24 28 28 24 28 28 24 28 28 24 28 28 24 28 28 24 28 28 24 28 28 24 28 28 24 28 28
24 28 28 24 28 28 24 28 28 24 28 28 24 28 28 24 28 28 24 28 28 24 28 28 24 28 28 24 28 28 24 28 28 24 28 28 24 28 28 24 28 28 24 28 28 24 28 28
24 28 28 24 28 28 24 28 28 64 71 80 55 62 71 65 72 81 24 28 28 60 67 76 45 52 61 55 62 71 48 55 64 24 28 28 41 48 57 58 65 74 59 66 75 48 55 64
132 82 99 53 78 95 50 74 89 61 90 109 91 85 103 46 69 84 54 81 98 45 69 83 55 81 99 57 84 103 57 85 104 49 73 89 54 81 99 44 67 81 51 76 92 64 87 106
49 74 89 55 81 98 49 73 88 50 74 89 74 91 110 59 87 105 102 88 107 60 88 106 58 84 101 66 95 115 62 90 108 69 98 118 69 99 119 64 91 110 66 95 115 58 83 100
65 93 112 57 83 99 107 90 109 53 77 93 65 93 113 52 77 92 61 89 107 52 77 93 55 81 98 52 77 93 48 72 87 45 68 83 59 86 105 52 78 94 118 74 91 47 72 87
50 75 92 55 81 99 52 77 94 58 86 105 49 74 90 50 74 90 49 73 88 99 84 102 58 85 103 118 83 100 60 88 106 128 83 101 62 89 108 55 81 97 55 80 96 61 88 106
64 92 110 108 92 112 65 93 112 68 97 117 60 86 104 62 89 107 66 95 115 62 89 108 52 76 92 66 95 115 135 80 97 62 90 110 52 77 92 48 72 86 60 88 107 56 83 101
49 74 90 54 81 98 112 76 92 58 86 105 43 66 80 50 75 91 110 76 93 58 86 104 50 75 91 48 72 87 54 81 98 59 86 104 54 80 97 60 88 106 88 89 109 55 81 97
66 95 115 61 89 107 60 86 104 59 85 102 58 84 100 65 94 113 69 98 119 61 88 106 66 95 115 60 87 104 59 85 102 60 86 104 54 79 95 75 81 88 68 74 81 51 57 64
68 74 81 66 72 79 73 79 86 66 72 79 55 61 68 73 79 86 58 64 71 58 64 71 66 72 79 59 65 72 61 67 74 71 77 84 64 70 77 67 73 80 65 71 78 53 59 66
65 71 78 49 55 62 55 61 68 62 68 75 63 69 76 75 81 88 63 69 76 76 82 89 76 82 89 64 70 77 66 72 79 75 81 88 63 69 76 75 81 88 59 65 72 51 57 64
57 63 70 69 75 82 69 75 82 64 70 77 54 60 67 50 56 63 69 75 82 51 57 64 52 58 65 49 55 62 71 77 84 75 81 88 73 79 86 59 65 72 59 65 72 77 83 90
63 69 76 51 57 64 71 77 84 66 72 79 53 59 66 57 63 70 63 69 76 72 78 85 75 81 88 73 79 86 61 67 74 51 57 64 57 63 70 58 64 71 51 57 64 54 60 67
50 56 63 56 62 69 53 59 66 51 57 64 70 76 83 75 81 88 70 76 83 55 61 68 59 65 72 53 59 66 74 80 87 72 78 85 60 66 73 70 76 83 63 69 76 24 28 28
24 28 28 24 28 28 24 28 28 24 28 28 24 28 28 24 28 28 24 28 28 24 28 28 24 28 28 24 28 28 24 28 28 24 28 28 24 28 28 24 28 28 24 28 28 24 28 28
24 28 28 24 28 28 24 28 28 24 28 28 24 28 28 24 28 28 24 28 28 24 28 28 24 28 28 24 28 28 24 28 28 24 28 28 24 28 28 24 28 28 24 28 28 24 28 28
24 28 28 24 28 28 24 28 28 24 28 28 24 28 28 24 28 28 24 28 28 24 28 28 24 28 28 24 28 28 24 28 28 24 28 28 24 28 28 24 28 28 24 28 28 24 28 28
24 28 28 24 28 28 24 28 28 60 67 76 57 64 73 60 67 76 24 28 28 64 71 80 62 69 78 68 75 84 59 66 75 24 28 28 43 50 59 41 48 57 58 65 74 43 50 59
60 88 107 45 69 84 66 87 106 56 84 102 55 82 101 53 80 97 46 70 86 51 78 95 49 75 92 41 65 79 40 63 77 43 67 82 45 70 86 46 71 87 48 73 90 53 80 98
56 84 103 48 73 89 50 76 93 46 70 85 49 75 91 58 86 104 61 89 109 49 74 89 49 73 88 66 93 114 53 79 96 56 83 100 59 86 105 63 92 112 111 86 105 62 90 109
54 80 97 115 84 102 60 87 106 63 92 112 53 79 96 56 83 101 51 76 93 59 87 107 50 76 93 46 70 85 53 80 98 45 70 86 51 77 95 45 70 86 52 79 97 50 77 94
53 81 99 63 80 98 51 77 95 53 80 99 48 73 89 56 84 103 47 71 87 107 77 94 49 74 90 58 86 105 109 81 98 55 82 100 61 89 109 62 91 111 58 85 103 56 83 101
64 93 113 52 77 93 65 94 114 54 80 97 60 88 107 51 76 92 55 81 98 117 82 100 62 91 111 63 91 111 61 90 109 58 86 105 54 81 99 82 81 100 55 83 102 113 73 89
52 78 96 44 69 84 48 73 90 49 75 92 43 67 82 51 78 95 43 67 82 47 72 89 44 69 84 42 66 80 55 83 101 45 69 84 57 85 103 51 77 94 55 82 100 46 70 85
56 83 101 55 81 99 62 91 110 65 94 115 65 95 115 65 94 115 110 87 106 86 91 111 95 89 109 56 83 101 56 82 99 58 86 104 56 83 101 73 79 86 61 67 74 58 64 71
56 62 69 60 66 73 68 74 81 53 59 66 61 67 74 68 74 81 52 58 65 68 74 81 60 66 73 74 80 87 52 58 65 76 82 89 64 70 77 65 71 78 66 72 79 75 81 88
62 68 75 51 57 64 55 61 68 72 78 85 57 63 70 63 69 76 55 61 68 62 68 75 61 67 74 64 70 77 73 79 86 60 66 73 64 70 77 76 82 89 69 75 82 66 72 79
68 74 81 74 80 87 49 55 62 76 82 89 67 73 80 61 67 74 52 58 65 67 73 80 74 80 87 55 61 68 57 63 70 74 80 87 51 57 64 62 68 75 64 70 77 76 82 89
59 65 72 50 56 63 58 64 71 61 67 74 71 77 84 62 68 75 54 60 67 73 79 86 70 76 83 63 69 76 73 79 86 62 68 75 53 59 66 50 56 63 61 67 74 62 68 75
56 62 69 51 57 64 56 62 69 77 83 90 63 69 76 73 79 86 51 57 64 57 63 70 68 74 81 74 80 87 60 66 73 63 69 76 57 63 70 57 63 70 73 79 86 24 28 28
24 28 28 24 28 28 24 28 28 24 28 28 24 28 28 24 28 28 24 28 28 24 28 28 24 28 28 24 28 28 24 28 28 24 28 28 24 28 28 24 28 28 24 28 28 24 28 28
24 28 28 24 28 28 24 28 28 24 28 28 24 28 28 24 28 28 24 28 28 24 28 28 24 28 28 24 28 28 24 28 28 24 28 28 24 28 28 24 28 28 24 28 28 24 28 28
24 28 28 24 28 28 24 28 28 24 28 28 24 28 28 24 28 28 24 28 28 24 28 28 24 28 28 24 28 28 24 28 28 24 28 28 24 28 28 24 28 28 24 28 28 24 28 28
24 28 28 24 28 28 24 28 28 65 72 81 61 68 77 47 54 63 24 28 28 47 54 63 67 74 83 47 54 63 68 75 84 24 28 28 41 48 57 69 76 85 60 67 76 58 65 74
53 80 98 42 66 80 45 70 86 47 73 90 48 74 91 52 79 98 41 65 80 62 77 95 51 78 97 45 71 88 47 73 91 49 76 94 39 63 78 90 70 87 51 78 97 38 61 76
42 67 82 43 67 83 51 79 97 51 78 96 83 79 97 44 68 83 129 72 89 54 81 99 53 80 98 49 74 91 49 74 90 56 84 102 57 85 104 49 74 90 53 80 97 57 85 103
131 77 94 51 78 95 55 82 100 53 80 97 54 81 100 54 82 100 95 77 95 46 71 87 43 67 82 49 76 94 41 65 79 38 61 75 55 78 96 40 64 79 42 66 82 38 61 75
48 74 92 86 70 87 36 59 73 37 60 75 39 63 77 70 77 95 42 67 82 41 64 79 42 66 80 42 65 80 44 69 84 50 77 94 50 76 93 49 74 90 53 80 98 49 74 91
69 90 110 47 72 88 60 89 109 99 84 103 96 84 103 50 76 92 48 73 90 55 82 101 45 69 84 51 78 95 46 71 87 51 77 95 119 70 87 46 72 89 39 62 76 41 65 81
39 63 78 70 74 92 45 70 87 35 57 71 37 60 74 46 72 89 91 70 86 40 64 79 45 71 87 51 78 96 46 72 89 50 76 94 48 74 91 51 78 96 53 81 99 49 75 92
50 76 93 58 86 105 46 71 86 49 74 90 47 71 87 107 82 100 51 76 93 60 89 108 55 82 101 60 89 109 55 83 101 57 85 104 44 68 83 54 60 67 71 77 84 51 57 64
54 60 67 65 71 78 70 76 83 55 61 68 49 55 62 67 73 80 53 59 66 71 77 84 59 65 72 60 66 73 63 69 76 68 74 81 59 65 72 62 68 75 71 77 84 59 65 72
64 70 77 75 81 88 70 76 83 60 66 73 71 77 84 73 79 86 51 57 64 69 75 82 67 73 80 76 82 89 58 64 71 73 79 86 75 81 88 72 78 85 57 63 70 49 55 62
52 58 65 73 79 86 60 66 73 53 59 66 56 62 69 72 78 85 51 57 64 55 61 68 67 73 80 61 67 74 60 66 73 76 82 89 76 82 89 77 83 90 60 66 73 51 57 64
63 69 76 75 81 88 76 82 89 58 64 71 56 62 69 65 71 78 63 69 76 59 65 72 53 59 66 72 78 85 62 68 75 69 75 82 73 79 86 68 74 81 51 57 64 63 69 76
64 70 77 75 81 88 56 62 69 59 65 72 57 63 70 71 77 84 71 77 84 73 79 86 63 69 76 51 57 64 63 69 76 68 74 81 62 68 75 57 63 70 68 74 81 24 28 28
24 28 28 24 28 28 24 28 28 24 28 28 24 28 28 24 28 28 24 28 28 24 28 28 24 28 28 24 28 28 24 28 28 24 28 28 24 28 28 24 28 28 24 28 28 24 28 28
24 28 28 24 28 28 24 28 28 24 28 28 24 28 28 24 28 28 24 28 28 24 28 28 24 28 28 24 28 28 24 28 28 24 28 28 24 28 28 24 28 28 24 28 28 24 28 28
24 28 28 24 28 28 24 28 28 24 28 28 24 28 28 24 28 28 24 28 28 24 28 28 24 28 28 24 28 28 24 28 28 24 28 28 24 28 28 24 28 28 24 28 28 24 28 28
24 28 28 24 28 28 24 28 28 53 60 69 44 51 60 49 56 65 24 28 28 59 66 75 48 55 64 55 62 71 67 74 83 24 28 28 54 61 70 47 54 63 59 66 75 55 62 71
54 82 101 50 77 95 44 70 86 43 69 85 48 76 94 43 69 85 49 77 95 39 64 79 42 68 84 42 67 83 40 64 80 46 72 90 117 61 76 46 73 91 42 67 84 45 71 89
43 69 85 43 68 85 43 68 85 43 68 85 49 76 94 53 81 101 41 65 79 90 78 96 45 70 86 45 70 86 86 82 101 43 67 82 44 69 84 53 81 99 70 86 106 50 77 94
47 72 89 121 74 91 51 79 97 51 78 97 53 81 100 49 76 94 46 72 89 44 69 86 46 72 89 45 71 88 45 71 88 47 74 92 42 67 83 41 67 83 69 70 88 46 73 90
33 56 69 42 68 85 44 70 87 36 59 73 39 63 79 46 73 90 121 64 80 82 73 91 48 74 92 41 65 80 46 72 89 44 69 84 47 73 90 45 70 86 43 67 83 50 77 95
58 88 108 52 79 97 52 79 97 47 72 88 111 77 95 46 70 86 43 68 83 73 82 102 46 71 87 54 82 101 50 78 96 41 65 81 107 69 86 36 58 72 36 59 73 119 63 78
34 57 71 95 66 82 75 69 86 33 56 69 118 60 75 39 63 79 46 72 90 46 73 91 39 64 80 45 72 89 40 65 81 59 77 96 46 72 89 47 73 90 48 74 91 54 83 102
42 66 81 45 69 85 53 80 99 56 84 103 58 87 107 69 86 106 44 69 84 53 80 99 44 69 84 49 75 92 58 87 107 48 73 90 48 75 92 63 69 76 69 75 82 64 70 77
55 61 68 69 75 82 72 78 85 76 82 89 71 77 84 56 62 69 72 78 85 56 62 69 61 67 74 49 55 62 71 77 84 68 74 81 51 57 64 63 69 76 74 80 87 55 61 68
52 58 65 64 70 77 73 79 86 59 65 72 71 77 84 73 79 86 64 70 77 53 59 66 67 73 80 62 68 75 58 64 71 72 78 85 53 59 66 69 75 82 68 74 81 61 67 74
51 57 64 61 67 74 57 63 70 72 78 85 68 74 81 68 74 81 76 82 89 57 63 70 73 79 86 66 72 79 51 57 64 75 81 88 74 80 87 75 81 88 74 80 87 64 70 77
52 58 65 67 73 80 53 59 66 75 81 88 64 70 77 58 64 71 58 64 71 66 72 79 56 62 69 51 57 64 69 75 82 50 56 63 58 64 71 71 77 84 74 80 87 73 79 86
70 76 83 59 65 72 56 62 69 50 56 63 52 58 65 69 75 82 49 55 62 49 55 62 67 73 80 75 81 88 73 79 86 64 70 77 59 65 72 51 57 64 65 71 78 24 28 28
24 28 28 24 28 28 24 28 28 24 28 28 24 28 28 24 28 28 24 28 28 24 28 28 24 28 28 24 28 28 24 28 28 24 28 28 24 28 28 24 28 28 24 28 28 24 28 28
24 28 28 24 28 28 24 28 28 24 28 28 24 28 28 24 28 28 24 28 28 24 28 28 24 28 28 24 28 28 24 28 28 24 28 28 24 28 28 24 28 28 24 28 28 24 28 28
24 28 28 24 28 28 24 28 28 24 28 28 24 28 28 24 28 28 24 28 28 24 28 28 24 28 28 24 28 28 24 28 28 24 28 28 24 28 28 24 28 28 24 28 28 24 28 28
24 28 28 24 28 28 24 28 28 49 56 65 43 50 59 63 70 79 24 28 28 60 67 76 64 71 80 61 68 77 51 58 67 24 28 28 48 55 64 41 48 57 57 64 73 57 64 73
42 66 82 70 77 96 42 67 83 47 75 93 41 66 82 43 69 86 40 64 80 37 61 76 119 59 74 39 64 80 33 56 70 33 56 70 81 66 82 46 73 91 38 62 78 63 71 89
47 74 92 34 58 72 40 65 81 41 66 82 48 75 93 39 63 78 43 68 84 40 64 79 42 67 82 67 83 102 129 71 88 43 68 84 52 79 98 49 75 92 56 85 105 55 83 103
54 82 102 53 81 99 54 83 103 41 65 80 51 79 97 38 61 76 47 74 91 47 74 92 39 63 78 46 73 91 44 71 88 89 66 83 32 55 68 92 64 80 39 64 80 38 63 79
36 60 75 40 65 81 33 55 69 38 62 78 40 65 80 38 63 78 42 67 83 41 66 82 47 73 91 46 72 90 41 66 81 43 68 84 51 78 96 55 84 104 71 82 102 44 69 85
51 78 96 51 78 96 45 70 87 45 70 85 49 76 93 117 73 91 55 83 103 53 82 101 52 80 98 67 79 98 51 80 99 47 73 91 39 64 79 43 68 85 33 56 70 57 73 91
56 72 91 43 69 87 43 69 86 42 68 85 45 72 90 41 67 84 38 62 78 34 58 72 32 54 68 46 73 91 47 75 93 44 70 87 37 61 75 47 74 92 46 73 90 53 81 101
51 78 97 54 82 102 53 81 99 63 84 104 49 75 92 44 68 84 43 67 82 86 81 100 56 85 105 53 81 100 111 74 92 54 82 101 111 72 89 60 66 73 71 77 84 74 80 87
57 63 70 53 59 66 58 64 71 64 70 77 66 72 79 64 70 77 62 68 75 57 63 70 69 75 82 60 66 73 65 71 78 74 80 87 75 81 88 65 71 78 53 59 66 61 67 74
53 59 66 75 81 88 65 71 78 52 58 65 67 73 80 76 82 89 74 80 87 55 61 68 63 69 76 65 71 78 58 64 71 59 65 72 73 79 86 54 60 67 49 55 62 55 61 68
73 79 86 61 67 74 69 75 82 63 69 76 54 60 67 73 79 86 52 58 65 61 67 74 68 74 81 62 68 75 50 56 63 58 64 71 53 59 66 63 69 76 53 59 66 72 78 85
53 59 66 69 75 82 71 77 84 69 75 82 70 76 83 64 70 77 74 80 87 66 72 79 74 80 87 58 64 71 74 80 87 57 63 70 59 65 72 60 66 73 56 62 69 68 74 81
76 82 89 60 66 73 59 65 72 76 82 89 54 60 67 60 66 73 51 57 64 77 83 90 54 60 67 53 59 66 57 63 70 70 76 83 66 72 79 76 82 89 69 75 82 24 28 28
24 28 28 24 28 28 24 28 28 24 28 28 24 28 28 24 28 28 24 28 28 24 28 28 24 28 28 24 28 28 24 28 28 24 28 28 24 28 28 24 28 28 24 28 28 24 28 28
24 28 28 24 28 28 24 28 28 24 28 28 24 28 28 24 28 28 24 28 28 24 28 28 24 28 28 24 28 28 24 28 28 24 28 28 24 28 28 24 28 28 24 28 28 24 28 28
24 28 28 24 28 28 24 28 28 24 28 28 24 28 28 24 28 28 24 28 28 24 28 28 24 28 28 24 28 28 24 28 28 24 28 28 24 28 28 24 28 28 24 28 28 24 28 28
24 28 28 24 28 28 24 28 28 66 73 82 60 67 76 60 67 76 24 28 28 45 52 61 68 75 84 66 73 82 56 63 72 24 28 28 47 54 63 54 61 70 46 53 62 45 52 61
47 74 92 40 65 80 48 76 94 37 61 76 43 69 86 42 68 85 33 56 70 39 64 81 45 72 90 33 57 71 33 56 71 32 55 69 42 68 86 35 58 73 76 67 84 35 58 73
42 68 85 44 71 88 48 75 93 48 75 93 45 72 89 106 69 86 48 75 94 80 77 95 40 64 79 45 70 87 46 72 89 51 79 97 42 66 82 53 81 99 52 80 99 56 84 104
46 72 88 90 77 96 41 65 80 84 77 95 47 73 91 102 70 88 36 60 74 45 72 90 47 74 93 35 58 72 40 66 82 42 68 85 66 69 86 30 53 66 32 54 68 30 52 65
41 67 84 44 71 89 82 65 82 54 71 89 49 73 92 42 68 85 40 65 81 35 58 72 36 60 75 46 72 90 49 76 95 47 73 91 50 77 96 48 75 93 54 82 101 53 81 100
48 75 92 55 84 104 112 75 92 56 85 105 42 66 81 45 70 87 41 66 81 45 71 87 44 69 85 51 79 98 42 68 84 47 74 92 48 75 94 33 56 70 44 70 87 40 65 81
31 54 67 59 70 88 32 54 68 35 59 73 34 57 72 61 69 86 47 72 90 38 63 78 41 67 83 41 66 83 37 61 76 103 65 82 41 66 82 69 75 93 37 61 76 38 62 77
40 64 79 44 70 86 80 79 98 51 79 98 51 78 96 45 70 86 49 75 93 56 85 105 41 65 80 48 74 91 54 83 102 50 77 95 101 73 91 65 71 78 64 70 77 64 70 77
75 81 88 72 78 85 71 77 84 56 62 69 67 73 80 64 70 77 67 73 80 57 63 70 76 82 89 54 60 67 53 59 66 55 61 68 56 62 69 56 62 69 51 57 64 55 61 68
57 63 70 54 60 67 65 71 78 65 71 78 75 81 88 59 65 72 65 71 78 74 80 87 72 78 85 58 64 71 67 73 80 57 63 70 72 78 85 66 72 79 53 59 66 61 67 74
75 81 88 74 80 87 61 67 74 55 61 68 51 57 64 63 69 76 69 75 82 55 61 68 50 56 63 65 71 78 72 78 85 68 74 81 54 60 67 54 60 67 75 81 88 71 77 84
49 55 62 64 70 77 66 72 79 63 69 76 66 72 79 54 60 67 64 70 77 54 60 67 59 65 72 63 69 76 51 57 64 53 59 66 66 72 79 58 64 71 67 73 80 73 79 86
74 80 87 69 75 82 57 63 70 63 69 76 52 58 65 51 57 64 63 69 76 59 65 72 50 56 63 51 57 64 54 60 67 53 59 66 60 66 73 69 75 82 67 73 80 24 28 28
24 28 28 24 28 28 24 28 28 24 28 28 24 28 28 24 28 28 24 28 28 24 28 28 24 28 28 24 28 28 24 28 28 24 28 28 24 28 28 24 28 28 24 28 28 24 28 28
24 28 28 24 28 28 24 28 28 24 28 28 24 28 28 24 28 28 24 28 28 24 28 28 24 28 28 24 28 28 24 28 28 24 28 28 24 28 28 24 28 28 24 28 28 24 28 28
24 28 28 24 28 28 24 28 28 24 28 28 24 28 28 24 28 28 24 28 28 24 28 28 24 28 28 24 28 28 24 28 28 24 28 28 24 28 28 24 28 28 24 28 28 24 28 28
24 28 28 24 28 28 24 28 28 55 62 71 44 51 60 42 49 58 24 28 28 46 53 62 66 73 82 50 57 66 49 56 65 24 28 28 46 53 62 52 59 68 66 73 82 52 59 68
44 70 87 91 71 88 42 68 85 34 57 71 37 62 77 41 66 83 40 65 81 44 71 89 39 64 80 40 66 82 31 53 67 115 57 72 36 61 76 37 62 78 40 65 82 41 67 84
44 70 88 42 68 86 43 69 87 38 63 78 49 76 95 37 60 75 74 76 94 41 66 82 41 65 81 44 70 86 49 76 94 43 67 83 41 65 80 46 72 89 48 75 92 44 69 85
46 72 89 47 73 90 47 73 90 48 75 93 46 72 89 44 69 86 36 60 74 43 69 86 39 64 79 39 64 80 39 64 80 106 61 77 116 58 73 52 70 88 41 67 84 29 51 64
32 55 69 39 64 81 40 66 83 88 64 80 45 72 90 31 53 67 40 65 81 36 60 75 40 65 81 43 69 86 39 63 78 41 66 81 44 70 86 84 77 95 53 81 100 53 81 100
67 83 102 51 79 97 53 81 101 103 75 94 91 78 96 53 82 101 51 78 97 50 77 95 51 78 97 37 60 74 42 67 84 38 62 77 43 70 87 41 67 83 37 61 77 44 71 89
32 54 68 44 71 89 31 54 68 33 56 71 42 68 85 33 57 72 39 64 80 39 64 81 35 59 74 96 63 80 37 61 76 34 58 72 38 63 78 46 72 90 43 69 86 51 80 99
44 70 86 43 69 85 45 71 88 43 68 84 53 81 100 52 80 99 49 75 93 55 84 104 42 67 82 50 77 95 50 78 96 44 70 86 47 73 91 53 59 66 66 72 79 72 78 85
62 68 75 71 77 84 53 59 66 72 78 85 54 60 67 54 60 67 75 81 88 69 75 82 64 70 77 71 77 84 55 61 68 51 57 64 73 79 86 54 60 67 76 82 89 71 77 84
65 71 78 72 78 85 70 76 83 66 72 79 72 78 85 60 66 73 72 78 85 51 57 64 74 80 87 61 67 74 64 70 77 54 60 67 56 62 69 60 66 73 69 75 82 63 69 76
66 72 79 75 81 88 52 58 65 60 66 73 71 77 84 59 65 72 59 65 72 65 71 78 54 60 67 49 55 62 76 82 89 64 70 77 66 72 79 70 76 83 50 56 63 70 76 83
64 70 77 61 67 74 60 66 73 71 77 84 68 74 81 72 78 85 66 72 79 60 66 73 55 61 68 64 70 77 60 66 73 61 67 74 64 70 77 67 73 80 70 76 83 77 83 90
62 68 75 52 58 65 59 65 72 54 60 67 69 75 82 52 58 65 54 60 67 67 73 80 69 75 82 76 82 89 59 65 72 69 75 82 51 57 64 58 64 71 58 64 71 24 28 28
24 28 28 24 28 28 24 28 28 24 28 28 24 28 28 24 28 28 24 28 28 24 28 28 24 28 28 24 28 28 24 28 28 24 28 28 24 28 28 24 28 28 24 28 28 24 28 28
24 28 28 24 28 28 24 28 28 24 28 28 24 28 28 24 28 28 24 28 28 24 28 28 24 28 28 24 28 28 24 28 28 24 28 28 24 28 28 24 28 28 24 28 28 24 28 28
24 28 28 24 28 28 24 28 28 24 28 28 24 28 28 24 28 28 24 28 28 24 28 28 24 28 28 24 28 28 24 28 28 24 28 28 24 28 28 24 28 28 24 28 28 24 28 28
24 28 28 24 28 28 24 28 28 50 57 66 59 66 75 66 73 82 24 28 28 46 53 62 54 61 70 56 63 72 58 65 74 24 28 28 68 75 84 48 55 64 46 53 62 51 58 67
48 76 95 48 76 94 47 74 92 46 73 91 113 61 76 40 65 82 39 64 81 31 53 67 30 53 67 31 55 69 30 52 66 28 50 64 32 55 70 41 67 84 32 55 70 29 52 65
44 72 90 34 57 71 45 73 91 46 73 92 43 70 87 49 77 96 63 77 95 47 74 92 47 73 91 52 81 100 49 77 95 52 81 100 51 79 98 117 71 88 63 82 102 47 73 91
75 79 98 38 62 76 45 72 89 45 71 89 49 77 96 42 68 85 39 64 80 48 76 94 41 67 83 71 69 86 33 56 71 97 61 77 37 61 77 33 56 71 37 62 79 59 67 84
29 51 65 105 57 73 31 54 68 44 71 89 44 72 90 34 58 72 64 70 88 40 65 81 48 76 94 34 57 72 44 70 88 48 75 93 41 66 82 101 72 89 40 65 80 45 71 88
49 77 95 45 70 87 48 74 92 52 80 99 48 75 93 49 76 94 46 72 89 52 80 100 49 77 96 38 62 77 41 66 83 39 63 79 43 69 87 35 58 73 38 63 79 31 54 68
36 60 76 28 50 63 30 52 66 42 69 87 33 56 71 32 55 70 30 53 67 31 54 68 29 51 64 41 67 85 32 55 69 41 66 83 37 61 76 37 61 76 49 76 95 48 76 95
50 79 98 46 73 90 52 80 99 53 82 101 53 82 101 51 79 98 44 70 87 44 70 86 51 79 98 52 80 99 48 75 92 40 64 80 39 63 78 76 82 89 75 81 88 71 77 84
52 58 65 61 67 74 55 61 68 54 60 67 71 77 84 65 71 78 74 80 87 56 62 69 72 78 85 64 70 77 59 65 72 57 63 70 53 59 66 54 60 67 55 61 68 68 74 81
61 67 74 72 78 85 56 62 69 70 76 83 69 75 82 65 71 78 76 82 89 68 74 81 67 73 80 66 72 79 58 64 71 57 63 70 59 65 72 51 57 64 54 60 67 58 64 71
73 79 86 68 74 81 52 58 65 69 75 82 58 64 71 72 78 85 64 70 77 55 61 68 56 62 69 72 78 85 68 74 81 52 58 65 64 70 77 63 69 76 52 58 65 69 75 82
49 55 62 71 77 84 60 66 73 61 67 74 59 65 72 68 74 81 70 76 83 77 83 90 61 67 74 62 68 75 77 83 90 49 55 62 56 62 69 59 65 72 65 71 78 65 71 78
76 82 89 50 56 63 62 68 75 69 75 82 54 60 67 67 73 80 70 76 83 55 61 68 57 63 70 62 68 75 71 77 84 74 80 87 63 69 76 69 75 82 50 56 63 24 28 28
24 28 28 24 28 28 24 28 28 24 28 28 24 28 28 24 28 28 24 28 28 24 28 28 24 28 28 24 28 28 24 28 28 24 28 28 24 28 28 24 28 28 24 28 28 24 28 28
24 28 28 24 28 28 24 28 28 24 28 28 24 28 28 24 28 28 24 28 28 24 28 28 24 28 28 24 28 28 24 28 28 24 28 28 24 28 28 24 28 28 24 28 28 24 28 28
24 28 28 24 28 28 24 28 28 24 28 28 24 28 28 24 28 28 24 28 28 24 28 28 24 28 28 24 28 28 24 28 28 24 28 28 24 28 28 24 28 28 24 28 28 24 28 28
24 28 28 24 28 28 24 28 28 43 50 59 68 75 84 63 70 79 24 28 28 64 71 80 45 52 61 51 58 67 63 70 79 24 28 28 68 75 84 51 58 67 56 63 72 46 53 62
36 61 76 53 74 92 56 72 90 30 53 67 38 63 79 32 56 71 30 52 66 27 49 62 40 66 84 39 66 83 40 67 85 39 65 82 113 53 67 39 65 83 36 61 77 26 48 61
29 52 65 29 52 65 44 71 89 34 58 73 45 73 91 41 68 85 45 72 91 35 59 74 40 65 81 45 71 89 48 76 94 43 68 85 51 79 98 51 80 99 50 77 96 43 69 86
42 68 85 39 64 79 40 65 81 40 65 82 98 67 84 72 71 89 102 63 80 41 67 84 42 68 86 37 62 78 37 62 78 40 67 84 31 55 70 39 65 82 37 63 80 37 63 80
36 62 78 30 54 68 38 65 82 33 57 72 32 56 71 35 60 75 75 65 82 32 55 69 39 65 82 44 71 90 41 67 84 47 75 93 35 59 73 42 68 85 47 74 92 38 62 77
69 77 96 43 69 86 41 66 83 124 66 83 48 76 94 45 71 88 64 77 96 45 72 90 37 61 77 45 72 90 37 61 77 41 67 83 38 63 79 36 61 76 43 70 88 34 58 74
33 57 72 37 63 80 38 64 80 36 62 78 31 54 69 37 63 80 40 67 84 51 66 83 35 59 75 30 53 67 30 52 66 37 62 78 31 54 68 39 64 81 39 64 80 46 73 91
34 57 71 41 67 83 40 65 81 50 79 98 42 68 84 42 67 84 45 72 89 39 63 79 43 69 86 48 75 93 37 61 76 36 59 74 41 67 84 68 74 81 52 58 65 57 63 70
61 67 74 55 61 68 56 62 69 52 58 65 66 72 79 72 78 85 64 70 77 64 70 77 52 58 65 74 80 87 50 56 63 70 76 83 55 61 68 67 73 80 73 79 86 51 57 64
57 63 70 61 67 74 72 78 85 73 79 86 70 76 83 77 83 90 75 81 88 62 68 75 76 82 89 65 71 78 61 67 74 59 65 72 57 63 70 68 74 81 54 60 67 72 78 85
50 56 63 51 57 64 53 59 66 50 56 63 70 76 83 62 68 75 53 59 66 63 69 76 73 79 86 61 67 74 75 81 88 52 58 65 68 74 81 68 74 81 71 77 84 69 75 82
52 58 65 60 66 73 67 73 80 61 67 74 63 69 76 55 61 68 59 65 72 76 82 89 69 75 82 76 82 89 77 83 90 61 67 74 66 72 79 64 70 77 67 73 80 72 78 85
56 62 69 57 63 70 67 73 80 76 82 89 61 67 74 49 55 62 54 60 67 56 62 69 64 70 77 55 61 68 70 76 83 65 71 78 72 78 85 66 72 79 56 62 69 24 28 28
24 28 28 24 28 28 24 28 28 24 28 28 24 28 28 24 28 28 24 28 28 24 28 28 24 28 28 24 28 28 24 28 28 24 28 28 24 28 28 24 28 28 24 28 28 24 28 28
24 28 28 24 28 28 24 28 28 24 28 28 24 28 28 24 28 28 24 28 28 24 28 28 24 28 28 24 28 28 24 28 28 24 28 28 24 28 28 24 28 28 24 28 28 24 28 28
24 28 28 24 28 28 24 28 28 24 28 28 24 28 28 24 28 28 24 28 28 24 28 28 24 28 28 24 28 28 24 28 28 24 28 28 24 28 28 24 28 28 24 28 28 24 28 28
24 28 28 24 28 28 24 28 28 42 49 58 56 63 72 46 53 62 24 28 28 58 65 74 65 72 81 43 50 59 55 62 71 24 28 28 61 68 77 67 74 83 56 63 72 49 56 65
34 59 74 52 70 88 38 64 82 110 55 70 29 52 67 33 58 73 33 58 74 33 58 74 59 60 76 25 47 61 33 58 74 28 52 67 29 53 68 33 58 74 25 48 61 29 52 67
25 47 61 110 52 67 64 63 80 35 60 76 41 67 85 40 66 84 34 59 74 40 66 83 46 74 93 111 63 79 44 71 90 35 60 75 34 58 72 36 61 76 36 60 75 44 71 88
114 63 80 47 76 95 35 59 75 31 54 68 38 64 81 101 60 77 31 55 70 107 56 72 31 55 70 39 66 84 33 57 73 26 49 63 32 56 72 36 63 80 35 60 77 24 46 59
26 49 63 35 61 78 29 53 68 27 51 65 64 60 77 32 56 72 29 52 66 26 49 62 32 56 71 36 61 78 32 55 70 37 62 78 33 57 72 34 58 73 35 59 74 34 57 72
47 75 94 41 67 84 44 71 89 35 59 74 47 75 94 118 62 78 46 74 93 34 58 73 38 63 80 42 68 86 32 56 71 40 67 85 33 57 72 40 66 84 39 66 84 79 58 74
69 59 75 66 58 75 29 53 68 22 43 56 23 44 57 34 60 77 33 58 74 23 44 57 24 45 58 26 49 63 37 63 80 34 60 76 37 63 80 31 55 70 34 59 75 33 57 72
36 61 77 44 71 89 36 61 77 39 65 81 41 66 83 33 57 71 42 68 86 37 62 78 53 76 95 44 72 90 37 61 77 46 74 93 44 71 89 66 72 79 67 73 80 68 74 81
64 70 77 74 80 87 69 75 82 57 63 70 68 74 81 70 76 83 63 69 76 56 62 69 67 73 80 63 69 76 60 66 73 75 81 88 74 80 87 57 63 70 53 59 66 56 62 69
68 74 81 57 63 70 67 73 80 70 76 83 71 77 84 59 65 72 49 55 62 56 62 69 57 63 70 56 62 69 67 73 80 60 66 73 72 78 85 69 75 82 72 78 85 69 75 82
51 57 64 64 70 77 76 82 89 76 82 89 53 59 66 71 77 84 73 79 86 60 66 73 52 58 65 57 63 70 50 56 63 64 70 77 69 75 82 53 59 66 76 82 89 70 76 83
60 66 73 75 81 88 74 80 87 71 77 84 61 67 74 57 63 70 69 75 82 56 62 69 49 55 62 74 80 87 57 63 70 75 81 88 51 57 64 75 81 88 71 77 84 55 61 68
60 66 73 58 64 71 68 74 81 65 71 78 64 70 77 52 58 65 67 73 80 57 63 70 55 61 68 75 81 88 53 59 66 68 74 81 67 73 80 65 71 78 69 75 82 24 28 28
24 28 28 24 28 28 24 28 28 24 28 28 24 28 28 24 28 28 24 28 28 24 28 28 24 28 28 24 28 28 24 28 28 24 28 28 24 28 28 24 28 28 24 28 28 24 28 28
24 28 28 24 28 28 24 28 28 24 28 28 24 28 28 24 28 28 24 28 28 24 28 28 24 28 28 24 28 28 24 28 28 24 28 28 24 28 28 24 28 28 24 28 28 24 28 28
24 28 28 24 28 28 24 28 28 24 28 28 24 28 28 24 28 28 24 28 28 24 28 28 24 28 28 24 28 28 24 28 28 24 28 28 24 28 28 24 28 28 24 28 28 24 28 28
24 28 28 24 28 28 24 28 28 56 63 72 59 66 75 57 64 73 24 28 28 63 70 79 51 58 67 54 61 70 66 73 82 24 28 28 50 57 66 46 53 62 52 59 68 67 74 83
34 59 75 35 60 76 32 57 73 29 53 67 22 44 57 66 57 74 27 51 66 23 45 59 25 48 62 25 48 63 28 53 69 26 50 64 30 55 71 23 45 59 93 49 64 34 61 78
24 46 60 24 46 60 29 53 68 29 53 68 27 49 63 37 63 80 36 61 78 30 53 68 80 64 81 81 65 82 39 65 82 42 70 88 56 72 90 41 68 86 42 69 87 45 73 92
41 67 85 34 59 74 38 64 81 35 60 77 39 66 84 38 64 81 34 59 76 26 49 62 58 61 78 23 46 59 33 58 75 104 48 63 21 43 56 32 57 74 20 41 54 20 42 55
32 57 74 94 48 63 32 58 74 33 58 75 88 51 66 23 46 59 27 50 65 35 61 78 62 61 79 35 60 77 31 55 70 28 51 65 36 61 77 41 69 87 34 59 74 44 72 91
45 73 92 43 70 88 39 66 83 36 61 77 41 68 86 30 53 67 34 58 74 42 69 87 33 57 73 35 60 77 35 61 77 30 55 70 32 56 72 27 50 65 45 62 79 91 51 66
31 56 72 64 55 71 19 41 53 20 42 55 28 52 67 24 48 62 21 44 57 66 54 70 20 41 53 56 58 75 36 62 79 27 50 64 29 53 67 35 60 77 37 63 81 27 50 64
32 56 71 79 64 81 31 55 70 39 65 83 39 66 83 34 58 73 38 64 80 42 70 88 31 55 69 45 73 92 44 71 90 44 72 91 28 51 64 52 58 65 61 67 74 73 79 86
68 74 81 75 81 88 76 82 89 56 62 69 52 58 65 73 79 86 65 71 78 60 66 73 52 58 65 74 80 87 66 72 79 60 66 73 66 72 79 73 79 86 57 63 70 53 59 66
66 72 79 59 65 72 61 67 74 68 74 81 74 80 87 64 70 77 56 62 69 76 82 89 72 78 85 65 71 78 67 73 80 64 70 77 59 65 72 59 65 72 77 83 90 76 82 89
60 66 73 58 64 71 65 71 78 68 74 81 64 70 77 74 80 87 61 67 74 75 81 88 54 60 67 64 70 77 50 56 63 75 81 88 58 64 71 62 68 75 70 76 83 49 55 62
58 64 71 66 72 79 59 65 72 68 74 81 61 67 74 66 72 79 74 80 87 52 58 65 67 73 80 54 60 67 60 66 73 53 59 66 61 67 74 73 79 86 52 58 65 53 59 66
59 65 72 65 71 78 53 59 66 62 68 75 73 79 86 74 80 87 61 67 74 64 70 77 59 65 72 54 60 67 64 70 77 68 74 81 53 59 66 64 70 77 55 61 68 24 28 28
24 28 28 24 28 28 24 28 28 24 28 28 24 28 28 24 28 28 24 28 28 24 28 28 24 28 28 24 28 28 24 28 28 24 28 28 24 28 28 24 28 28 24 28 28 24 28 28
24 28 28 24 28 28 24 28 28 24 28 28 24 28 28 24 28 28 24 28 28 24 28 28 24 28 28 24 28 28 24 28 28 24 28 28 24 28 28 24 28 28 24 28 28 24 28 28
24 28 28 24 28 28 24 28 28 24 28 28 24 28 28 24 28 28 24 28 28 24 28 28 24 28 28 24 28 28 24 28 28 24 28 28 24 28 28 24 28 28 24 28 28 24 28 28
24 28 28 24 28 28 24 28 28 64 71 80 52 59 68 50 57 66 24 28 28 43 50 59 46 53 62 45 52 61 62 69 78 24 28 28 54 61 70 64 71 80 44 51 60 53 60 69
32 57 73 96 55 71 33 58 75 30 54 69 36 63 81 92 50 66 21 43 57 23 46 60 25 49 64 30 55 71 18 39 51 18 39 52 27 52 67 100 46 60 69 52 68 28 52 67
25 49 63 27 50 65 32 57 73 55 61 78 52 63 81 30 54 69 35 61 78 41 69 87 31 55 70 34 59 75 37 63 80 31 54 69 36 62 78 116 58 74 36 61 77 32 57 72
42 69 87 38 64 81 37 63 80 29 53 67 39 66 83 76 60 77 38 65 82 78 57 73 24 47 61 35 62 79 25 49 63 21 44 57 74 52 67 59 54 70 29 53 69 76 50 65
63 53 68 28 53 69 27 51 66 25 48 63 21 43 56 32 58 74 33 59 76 30 54 70 29 54 69 31 55 71 31 55 71 32 56 72 27 50 64 28 50 64 39 65 82 32 56 71
29 52 66 32 56 71 37 63 80 44 72 91 31 55 70 31 55 70 30 53 67 38 64 81 41 69 87 32 57 73 38 65 83 23 45 58 33 59 76 24 47 60 30 55 71 30 55 71
96 48 62 20 42 55 69 52 68 32 58 75 22 44 58 28 53 69 25 49 63 34 59 77 33 58 75 23 46 59 20 41 54 36 63 81 33 58 75 27 50 65 29 53 68 27 49 63
36 62 79 51 68 86 97 60 76 86 63 80 42 69 87 38 64 82 43 70 89 40 67 85 40 67 85 38 64 80 40 66 84 42 69 88 41 69 87 56 62 69 65 71 78 61 67 74
73 79 86 55 61 68 69 75 82 68 74 81 72 78 85 52 58 65 68 74 81 66 72 79 62 68 75 65 71 78 77 83 90 70 76 83 51 57 64 59 65 72 54 60 67 67 73 80
54 60 67 76 82 89 72 78 85 70 76 83 52 58 65 64 70 77 77 83 90 69 75 82 50 56 63 59 65 72 76 82 89 60 66 73 76 82 89 67 73 80 70 76 83 53 59 66
57 63 70 65 71 78 57 63 70 66 72 79 67 73 80 57 63 70 65 71 78 53 59 66 52 58 65 76 82 89 56 62 69 76 82 89 59 65 72 64 70 77 61 67 74 53 59 66
50 56 63 50 56 63 58 64 71 59 65 72 56 62 69 52 58 65 74 80 87 63 69 76 73 79 86 62 68 75 75 81 88 75 81 88 71 77 84 59 65 72 61 67 74 51 57 64
72 78 85 66 72 79 63 69 76 67 73 80 50 56 63 53 59 66 68 74 81 69 75 82 58 64 71 57 63 70 68 74 81 57 63 70 77 83 90 59 65 72 56 62 69 24 28 28
24 28 28 24 28 28 24 28 28 24 28 28 24 28 28 24 28 28 24 28 28 24 28 28 24 28 28 24 28 28 24 28 28 24 28 28 24 28 28 24 28 28 24 28 28 24 28 28
24 28 28 24 28 28 24 28 28 24 28 28 24 28 28 24 28 28 24 28 28 24 28 28 24 28 28 24 28 28 24 28 28 24 28 28 24 28 28 24 28 28 24 28 28 24 28 28
24 28 28 24 28 28 24 28 28 24 28 28 24 28 28 24 28 28 24 28 28 24 28 28 24 28 28 24 28 28 24 28 28 24 28 28 24 28 28 24 28 28 24 28 28 24 28 28
24 28 28 24 28 28 24 28 28 64 71 80 66 73 82 68 75 84 24 28 28 43 50 59 66 73 82 65 72 81 68 75 84 24 28 28 47 54 63 52 59 68 57 64 73 67 74 83
41 68 87 29 52 66 33 57 73 31 56 72 27 50 64 34 59 76 36 63 80 21 43 55 23 46 60 80 51 67 33 59 76 30 55 71 30 55 72 32 57 73 27 51 66 34 60 78
45 61 78 25 48 62 33 58 74 26 49 63 32 57 72 91 58 75 42 69 88 33 58 74 61 68 87 39 65 82 91 64 81 33 57 72 42 68 86 67 70 89 43 70 88 92 65 82
44 72 91 38 64 81 42 70 88 28 51 65 27 50 64 39 65 83 30 53 68 31 55 71 24 46 59 37 63 81 35 61 78 27 51 65 26 49 64 33 59 76 28 53 68 26 49 63
21 42 55 24 46 60 29 53 69 29 54 70 26 49 63 30 54 69 32 57 73 36 62 79 36 62 79 35 60 76 37 63 81 33 58 73 43 71 89 40 67 85 30 53 67 88 65 82
101 63 80 41 67 85 39 65 82 34 58 73 45 73 92 37 62 79 41 68 86 40 66 84 38 64 81 35 61 77 39 66 84 35 61 78 25 47 61 25 48 62 25 47 61 32 57 73
24 47 61 23 45 58 30 55 71 32 57 74 29 53 69 81 51 66 23 46 60 104 47 62 24 47 60 34 61 78 35 62 79 32 58 74 30 54 70 28 52 66 98 57 73 27 50 64
30 54 68 77 65 83 36 61 77 32 55 70 41 68 86 88 66 83 39 65 82 46 74 93 33 57 72 36 61 77 32 56 70 37 63 80 32 56 71 60 66 73 73 79 86 55 61 68
74 80 87 72 78 85 71 77 84 66 72 79 62 68 75 55 61 68 71 77 84 53 59 66 50 56 63 73 79 86 72 78 85 56 62 69 74 80 87 58 64 71 77 83 90 58 64 71
56 62 69 54 60 67 69 75 82 58 64 71 56 62 69 55 61 68 62 68 75 62 68 75 65 71 78 75 81 88 69 75 82 65 71 78 56 62 69 59 65 72 52 58 65 67 73 80
74 80 87 64 70 77 55 61 68 65 71 78 67 73 80 63 69 76 64 70 77 76 82 89 73 79 86 67 73 80 51 57 64 63 69 76 67 73 80 70 76 83 58 64 71 76 82 89
52 58 65 55 61 68 53 59 66 56 62 69 75 81 88 61 67 74 57 63 70 54 60 67 66 72 79 55 61 68 68 74 81 52 58 65 66 72 79 51 57 64 65 71 78 52 58 65
50 56 63 74 80 87 54 60 67 50 56 63 56 62 69 66 72 79 77 83 90 55 61 68 72 78 85 53 59 66 55 61 68 70 76 83 49 55 62 63 69 76 59 65 72 24 28 28
24 28 28 24 28 28 24 28 28 24 28 28 24 28 28 24 28 28 24 28 28 24 28 28 24 28 28 24 28 28 24 28 28 24 28 28 24 28 28 24 28 28 24 28 28 24 28 28
24 28 28 24 28 28 24 28 28 24 28 28 24 28 28 24 28 28 24 28 28 24 28 28 24 28 28 24 28 28 24 28 28 24 28 28 24 28 28 24 28 28 24 28 28 24 28 28
24 28 28 24 28 28 24 28 28 24 28 28 24 28 28 24 28 28 24 28 28 24 28 28 24 28 28 24 28 28 24 28 28 24 28 28 24 28 28 24 28 28 24 28 28 24 28 28
24 28 28 24 28 28 24 28 28 67 74 83 48 55 64 59 66 75 24 28 28 43 50 59 53 60 69 61 68 77 62 69 78 24 28 28 52 59 68 66 73 82 45 52 61 59 66 75
42 69 87 31 55 69 29 52 66 41 68 86 28 51 65 25 47 60 30 54 69 32 57 73 38 64 82 37 63 80 33 59 75 35 60 77 36 63 80 38 64 82 32 57 73 34 60 76
34 60 76 37 64 81 33 57 72 79 62 79 41 68 86 38 64 80 31 54 68 44 72 90 40 66 82 38 63 79 41 66 83 40 66 82 48 76 94 55 77 96 45 72 90 45 72 90
38 63 79 41 67 85 35 59 74 31 54 68 40 65 82 39 65 82 33 56 71 34 58 73 36 61 77 30 54 68 25 47 61 25 47 60 24 46 59 28 52 66 35 61 77 35 61 78
29 53 67 68 58 74 24 47 60 24 46 59 28 51 65 32 57 72 39 66 83 29 52 66 32 55 70 39 65 81 40 66 83 117 59 75 39 64 80 103 65 81 47 75 94 39 64 80
42 68 85 45 72 90 43 70 87 34 57 72 45 72 90 42 68 86 34 58 73 41 67 84 35 60 75 32 55 69 95 62 78 30 53 67 32 56 71 40 67 85 107 54 69 36 62 79
31 55 70 94 54 69 31 56 71 32 56 72 33 58 74 24 47 60 30 54 69 74 58 74 24 46 59 27 49 63 30 54 69 41 68 86 36 62 78 32 56 70 31 54 69 43 70 88
43 70 88 81 68 86 41 68 85 39 64 81 35 59 74 39 64 80 45 72 90 47 75 94 42 69 86 47 75 93 38 62 78 42 68 85 34 58 73 76 82 89 71 77 84 61 67 74
52 58 65 57 63 70 59 65 72 70 76 83 73 79 86 56 62 69 74 80 87 66 72 79 72 78 85 55 61 68 50 56 63 62 68 75 63 69 76 66 72 79 52 58 65 72 78 85
69 75 82 49 55 62 50 56 63 56 62 69 61 67 74 69 75 82 55 61 68 57 63 70 70 76 83 71 77 84 69 75 82 76 82 89 77 83 90 53 59 66 72 78 85 72 78 85
73 79 86 68 74 81 72 78 85 59 65 72 66 72 79 72 78 85 54 60 67 71 77 84 63 69 76 54 60 67 65 71 78 72 78 85 70 76 83 74 80 87 58 64 71 74 80 87
55 61 68 54 60 67 51 57 64 67 73 80 60 66 73 64 70 77 73 79 86 52 58 65 67 73 80 68 74 81 63 69 76 72 78 85 52 58 65 50 56 63 50 56 63 70 76 83
60 66 73 66 72 79 62 68 75 65 71 78 72 78 85 66 72 79 72 78 85 75 81 88 51 57 64 65 71 78 67 73 80 51 57 64 72 78 85 70 76 83 68 74 81 24 28 28
24 28 28 24 28 28 24 28 28 24 28 28 24 28 28 24 28 28 24 28 28 24 28 28 24 28 28 24 28 28 24 28 28 24 28 28 24 28 28 24 28 28 24 28 28 24 28 28
24 28 28 24 28 28 24 28 28 24 28 28 24 28 28 24 28 28 24 28 28 24 28 28 24 28 28 24 28 28 24 28 28 24 28 28 24 28 28 24 28 28 24 28 28 24 28 28
24 28 28 24 28 28 24 28 28 24 28 28 24 28 28 24 28 28 24 28 28 24 28 28 24 28 28 24 28 28 24 28 28 24 28 28 24 28 28 24 28 28 24 28 28 24 28 28
24 28 28 24 28 28 24 28 28 44 51 60 54 61 70 54 61 70 24 28 28 53 60 69 59 66 75 46 53 62 57 64 73 24 28 28 54 61 70 41 48 57 53 60 69 48 55 64
34 57 71 40 66 83 74 69 87 35 59 74 32 55 69 34 58 73 31 54 69 41 68 85 29 52 66 86 59 75 27 49 62 34 59 75 41 68 86 36 62 78 32 56 70 35 60 75
33 58 73 36 60 76 29 52 65 35 59 74 43 70 88 41 67 83 49 77 96 45 72 90 42 67 84 47 74 92 43 68 85 99 72 90 50 78 97 64 80 99 42 67 83 50 78 98
40 65 80 46 72 90 48 75 94 44 71 88 40 65 81 37 62 77 38 63 79 43 70 88 34 58 73 30 53 66 30 52 66 83 61 78 35 60 76 40 67 84 36 61 77 29 51 65
38 63 80 34 58 73 72 62 79 42 69 87 34 59 74 31 54 68 38 63 80 30 53 67 36 61 76 38 63 79 45 72 90 35 58 72 46 73 91 51 79 99 39 63 79 44 69 86
48 75 94 46 72 90 42 67 84 41 66 82 47 74 92 42 68 85 47 74 92 46 73 91 42 67 84 35 59 73 40 66 83 39 64 80 34 57 72 39 65 81 50 70 88 31 54 68
31 54 68 26 48 61 100 56 72 32 56 71 28 51 64 28 50 63 37 63 79 29 52 65 29 52 66 58 67 85 74 65 82 33 57 71 44 71 89 46 74 93 39 64 80 48 76 95
43 69 86 41 67 83 46 73 91 67 77 96 44 70 86 47 74 92 50 77 96 38 62 77 56 81 100 51 80 99 84 74 92 37 61 76 65 76 94 60 66 73 61 67 74 77 83 90
75 81 88 69 75 82 54 60 67 55 61 68 51 57 64 71 77 84 56 62 69 60 66 73 66 72 79 65 71 78 61 67 74 71 77 84 63 69 76 60 66 73 50 56 63 65 71 78
70 76 83 73 79 86 53 59 66 52 58 65 67 73 80 58 64 71 70 76 83 52 58 65 60 66 73 67 73 80 57 63 70 65 71 78 59 65 72 59 65 72 64 70 77 57 63 70
64 70 77 57 63 70 77 83 90 65 71 78 54 60 67 65 71 78 61 67 74 68 74 81 55 61 68 69 75 82 65 71 78 73 79 86 72 78 85 77 83 90 60 66 73 73 79 86
76 82 89 61 67 74 54 60 67 62 68 75 53 59 66 75 81 88 51 57 64 76 82 89 63 69 76 71 77 84 68 74 81 63 69 76 51 57 64 58 64 71 71 77 84 75 81 88
71 77 84 77 83 90 58 64 71 54 60 67 71 77 84 66 72 79 53 59 66 61 67 74 61 67 74 65 71 78 56 62 69 63 69 76 54 60 67 56 62 69 60 66 73 24 28 28
24 28 28 24 28 28 24 28 28 24 28 28 24 28 28 24 28 28 24 28 28 24 28 28 24 28 28 24 28 28 24 28 28 24 28 28 24 28 28 24 28 28 24 28 28 24 28 28
24 28 28 24 28 28 24 28 28 24 28 28 24 28 28 24 28 28 24 28 28 24 28 28 24 28 28 24 28 28 24 28 28 24 28 28 24 28 28 24 28 28 24 28 28 24 28 28
24 28 28 24 28 28 24 28 28 24 28 28 24 28 28 24 28 28 24 28 28 24 28 28 24 28 28 24 28 28 24 28 28 24 28 28 24 28 28 24 28 28 24 28 28 24 28 28
24 28 28 24 28 28 24 28 28 63 70 79 63 70 79 55 62 71 24 28 28 44 51 60 51 58 67 66 73 82 44 51 60 24 28 28 65 72 81 46 53 62 50 57 66 62 69 78
92 71 88 47 75 93 38 63 79 43 69 86 43 70 87 34 57 71 114 58 74 30 53 66 36 61 77 28 50 63 39 65 82 38 64 80 30 52 66 28 50 63 32 55 69 85 63 80
91 63 80 32 55 68 38 63 79 45 72 90 37 62 77 36 60 74 91 71 89 84 74 92 42 67 83 42 67 83 99 74 92 45 70 87 54 82 102 42 67 82 49 77 95 51 78 97
43 68 84 52 80 100 50 78 96 45 72 89 46 73 90 45 71 89 46 73 91 99 66 83 33 56 71 35 58 73 34 57 72 42 68 85 43 70 87 42 68 85 35 59 74 30 53 67
28 50 63 40 66 83 41 68 85 38 63 79 38 64 80 35 59 73 64 70 88 47 75 94 45 72 89 48 76 94 47 74 91 96 71 88 38 62 77 42 67 83 55 82 102 41 65 81
44 69 85 53 82 101 47 74 91 54 83 102 53 81 101 44 70 86 51 79 98 82 76 94 49 76 95 50 78 97 40 65 81 44 71 89 37 61 76 65 71 89 36 60 75 38 63 79
81 64 81 37 62 78 31 54 68 32 55 70 33 57 72 43 70 88 43 69 87 33 56 70 31 54 68 63 69 86 45 72 90 36 60 75 37 61 76 100 66 83 36 60 74 46 72 90
38 61 76 40 65 80 53 82 101 64 81 100 118 71 88 61 83 102 42 66 82 47 73 91 42 67 82 49 76 95 48 75 93 47 74 92 37 60 75 58 64 71 54 60 67 53 59 66
54 60 67 74 80 87 62 68 75 72 78 85 65 71 78 70 76 83 75 81 88 62 68 75 65 71 78 50 56 63 75 81 88 68 74 81 63 69 76 69 75 82 68 74 81 69 75 82
74 80 87 52 58 65 56 62 69 76 82 89 69 75 82 64 70 77 60 66 73 69 75 82 51 57 64 74 80 87 71 77 84 53 59 66 66 72 79 51 57 64 71 77 84 72 78 85
67 73 80 73 79 86 61 67 74 74 80 87 61 67 74 52 58 65 67 73 80 71 77 84 60 66 73 75 81 88 49 55 62 61 67 74 52 58 65 73 79 86 73 79 86 71 77 84
75 81 88 74 80 87 59 65 72 73 79 86 59 65 72 56 62 69 61 67 74 50 56 63 54 60 67 72 78 85 74 80 87 72 78 85 58 64 71 61 67 74 68 74 81 67 73 80
54 60 67 71 77 84 63 69 76 52 58 65 66 72 79 75 81 88 60 66 73 55 61 68 63 69 76 50 56 63 74 80 87 50 56 63 59 65 72 75 81 88 77 83 90 24 28 28
24 28 28 24 28 28 24 28 28 24 28 28 24 28 28 24 28 28 24 28 28 24 28 28 24 28 28 24 28 28 24 28 28 24 28 28 24 28 28 24 28 28 24 28 28 24 28 28
24 28 28 24 28 28 24 28 28 24 28 28 24 28 28 24 28 28 24 28 28 24 28 28 24 28 28 24 28 28 24 28 28 24 28 28 24 28 28 24 28 28 24 28 28 24 28 28
24 28 28 24 28 28 24 28 28 24 28 28 24 28 28 24 28 28 24 28 28 24 28 28 24 28 28 24 28 28 24 28 28 24 28 28 24 28 28 24 28 28 24 28 28 24 28 28
24 28 28 24 28 28 24 28 28 53 60 69 53 60 69 49 56 65 24 28 28 53 60 69 57 64 73 58 65 74 43 50 59 24 28 28 49 56 65 65 72 81 67 74 83 54 61 70
49 76 95 49 76 94 44 70 88 38 63 78 46 73 91 35 58 73 33 56 70 42 69 86 31 54 67 40 66 83 44 71 89 29 51 65 32 55 69 42 68 85 43 69 87 34 57 72
40 65 81 46 73 91 47 74 92 44 70 87 43 69 86 46 72 90 37 61 75 50 78 97 42 66 82 48 75 92 43 68 84 49 76 94 54 83 103 49 76 94 53 81 100 47 73 90
47 73 90 41 65 80 63 81 101 47 73 90 54 81 100 77 75 93 94 70 87 38 62 77 36 60 74 67 71 89 42 67 84 33 56 69 43 69 87 30 53 66 40 66 83 35 59 74
44 71 89 42 69 86 32 55 69 82 65 82 33 57 71 45 72 90 45 72 90 45 72 90 46 72 90 45 71 88 48 76 94 47 74 91 47 73 91 50 78 96 44 70 86 48 75 92
45 70 86 50 77 95 47 73 90 52 80 99 78 80 99 44 69 85 51 78 97 40 64 79 51 79 98 40 65 80 45 71 88 37 61 76 35 58 72 81 69 87 84 67 84 36 61 76
42 68 85 44 71 89 32 55 69 39 64 81 109 58 74 35 60 75 35 59 74 91 63 79 42 69 86 32 55 69 38 62 77 35 59 73 49 76 95 43 69 86 44 70 87 38 61 76
39 63 78 44 70 87 49 76 94 102 75 93 53 81 100 123 72 89 104 76 94 48 75 92 46 72 89 49 76 94 46 72 89 111 72 89 43 69 85 59 65 72 71 77 84 66 72 79
74 80 87 66 72 79 50 56 63 51 57 64 66 72 79 64 70 77 64 70 77 76 82 89 51 57 64 66 72 79 61 67 74 65 71 78 67 73 80 53 59 66 58 64 71 61 67 74
59 65 72 58 64 71 52 58 65 56 62 69 50 56 63 55 61 68 61 67 74 75 81 88 52 58 65 65 71 78 73 79 86 67 73 80 67 73 80 67 73 80 60 66 73 50 56 63
71 77 84 49 55 62 74 80 87 53 59 66 63 69 76 67 73 80 51 57 64 57 63 70 62 68 75 71 77 84 73 79 86 73 79 86 72 78 85 53 59 66 56 62 69 66 72 79
61 67 74 74 80 87 52 58 65 51 57 64 62 68 75 69 75 82 74 80 87 57 63 70 56 62 69 62 68 75 70 76 83 58 64 71 66 72 79 58 64 71 54 60 67 62 68 75
51 57 64 67 73 80 51 57 64 68 74 81 68 74 81 70 76 83 55 61 68 74 80 87 66 72 79 62 68 75 59 65 72 62 68 75 70 76 83 75 81 88 76 82 89 24 28 28
24 28 28 24 28 28 24 28 28 24 28 28 24 28 28 24 28 28 24 28 28 24 28 28 24 28 28 24 28 28 24 28 28 24 28 28 24 28 28 24 28 28 24 28 28 24 28 28
24 28 28 24 28 28 24 28 28 24 28 28 24 28 28 24 28 28 24 28 28 24 28 28 24 28 28 24 28 28 24 28 28 24 28 28 24 28 28 24 28 28 24 28 28 24 28 28
24 28 28 24 28 28 24 28 28 24 28 28 24 28 28 24 28 28 24 28 28 24 28 28 24 28 28 24 28 28 24 28 28 24 28 28 24 28 28 24 28 28 24 28 28 24 28 28
24 28 28 24 28 28 24 28 28 66 73 82 67 74 83 64 71 80 24 28 28 67 74 83 45 52 61 44 51 60 63 70 79 24 28 28 67 74 83 50 57 66 61 68 77 56 63 72
38 61 76 49 76 94 42 68 84 46 73 91 74 71 89 41 66 83 46 73 91 43 69 87 31 53 67 41 67 84 94 62 78 35 59 74 30 52 65 38 62 78 35 58 73 35 59 73
95 65 81 42 68 85 40 65 81 49 77 96 42 68 84 39 63 78 50 77 96 96 74 92 50 77 95 52 80 99 47 73 91 49 76 93 54 82 101 121 73 90 44 68 84 42 66 82
44 69 85 54 82 101 43 68 84 52 80 100 40 65 80 44 70 87 46 73 90 42 68 84 34 57 71 35 59 73 38 63 79 34 57 72 44 71 89 39 64 80 36 61 76 36 61 76
40 66 82 35 59 74 43 69 86 45 72 90 116 60 75 86 67 84 84 69 86 43 69 86 103 68 84 90 72 89 41 66 81 50 78 96 51 78 97 50 78 96 54 82 102 45 71 87
101 77 95 41 66 81 77 82 101 55 84 104 43 67 83 117 73 90 43 68 84 45 70 87 98 73 91 46 73 90 46 73 90 51 79 98 41 66 82 37 61 77 58 73 92 46 73 91
34 58 72 39 63 79 38 63 78 38 63 79 38 63 79 39 65 81 40 65 82 30 53 66 32 55 68 39 64 80 37 62 77 95 67 84 43 69 86 44 69 86 44 70 87 42 67 83
51 79 98 47 73 91 41 66 81 41 65 80 47 73 90 42 66 81 50 76 94 84 80 99 56 85 105 54 83 102 50 77 96 96 76 94 42 67 82 54 60 67 55 61 68 76 82 89
76 82 89 71 77 84 59 65 72 52 58 65 70 76 83 60 66 73 56 62 69 62 68 75 57 63 70 51 57 64 68 74 81 63 69 76 65 71 78 53 59 66 74 80 87 76 82 89
70 76 83 65 71 78 74 80 87 57 63 70 57 63 70 72 78 85 68 74 81 74 80 87 50 56 63 50 56 63 65 71 78 73 79 86 53 59 66 54 60 67 65 71 78 52 58 65
70 76 83 70 76 83 64 70 77 51 57 64 72 78 85 73 79 86 72 78 85 66 72 79 60 66 73 55 61 68 63 69 76 54 60 67 60 66 73 55 61 68 57 63 70 58 64 71
73 79 86 65 71 78 53 59 66 71 77 84 67 73 80 74 80 87 68 74 81 57 63 70 54 60 67 63 69 76 71 77 84 51 57 64 72 78 85 56 62 69 68 74 81 75 81 88
76 82 89 55 61 68 56 62 69 64 70 77 69 75 82 75 81 88 64 70 77 62 68 75 68 74 81 61 67 74 71 77 84 71 77 84 61 67 74 49 55 62 58 64 71 24 28 28
24 28 28 24 28 28 24 28 28 24 28 28 24 28 28 24 28 28 24 28 28 24 28 28 24 28 28 24 28 28 24 28 28 24 28 28 24 28 28 24 28 28 24 28 28 24 28 28
24 28 28 24 28 28 24 28 28 24 28 28 24 28 28 24 28 28 24 28 28 24 28 28 24 28 28 24 28 28 24 28 28 24 28 28 24 28 28 24 28 28 24 28 28 24 28 28
24 28 28 24 28 28 24 28 28 24 28 28 24 28 28 24 28 28 24 28 28 24 28 28 24 28 28 24 28 28 24 28 28 24 28 28 24 28 28 24 28 28 24 28 28 24 28 28
24 28 28 24 28 28 24 28 28 52 59 68 43 50 59 58 65 74 24 28 28 41 48 57 44 51 60 54 61 70 64 71 80 24 28 28 57 64 73 54 61 70 47 54 63 67 74 83
42 66 82 39 63 77 38 61 76 49 77 95 97 68 85 116 63 78 35 58 73 36 59 74 75 68 85 34 58 72 35 58 73 43 69 86 31 54 67 46 73 92 32 54 67 42 68 85
45 72 90 92 68 85 38 63 78 77 73 91 79 74 92 40 65 80 52 80 99 46 72 89 51 78 96 53 81 100 53 81 100 47 72 89 51 77 95 44 68 84 64 86 105 52 79 97
52 80 98 47 73 90 49 76 94 54 83 102 54 83 102 48 75 93 42 67 83 43 68 85 36 59 73 36 59 74 41 66 82 42 68 84 43 70 87 41 66 82 31 54 67 43 69 86
39 64 80 31 53 66 41 66 82 43 69 87 43 69 87 44 71 88 45 71 88 48 76 94 49 77 95 80 75 93 48 75 93 48 74 92 92 76 95 55 83 103 48 74 91 49 76 93
57 86 106 54 83 102 45 71 87 51 79 97 44 69 85 47 73 90 47 73 90 55 84 103 43 68 84 43 68 84 39 63 78 41 65 81 38 62 77 36 60 74 41 66 82 98 65 82
32 55 69 41 66 82 36 60 74 40 65 81 107 61 76 44 71 89 44 71 88 42 68 85 35 59 73 46 73 92 90 68 85 45 71 89 47 74 91 43 68 85 39 63 78 116 70 86
53 81 100 43 68 83 85 79 98 128 71 88 53 81 100 47 72 89 53 80 99 53 81 99 46 71 87 51 78 96 56 85 105 41 66 81 42 67 83 55 61 68 72 78 85 71 77 84
52 58 65 71 77 84 77 83 90 56 62 69 51 57 64 71 77 84 53 59 66 58 64 71 54 60 67 49 55 62 59 65 72 56 62 69 66 72 79 56 62 69 71 77 84 61 67 74
61 67 74 59 65 72 63 69 76 74 80 87 69 75 82 68 74 81 66 72 79 61 67 74 71 77 84 50 56 63 59 65 72 64 70 77 61 67 74 54 60 67 73 79 86 50 56 63
49 55 62 69 75 82 52 58 65 69 75 82 73 79 86 63 69 76 57 63 70 71 77 84 57 63 70 51 57 64 55 61 68 75 81 88 60 66 73 52 58 65 67 73 80 58 64 71
71 77 84 67 73 80 59 65 72 60 66 73 73 79 86 56 62 69 50 56 63 69 75 82 57 63 70 71 77 84 66 72 79 52 58 65 67 73 80 76 82 89 53 59 66 74 80 87
65 71 78 49 55 62 54 60 67 59 65 72 70 76 83 59 65 72 62 68 75 73 79 86 70 76 83 69 75 82 54 60 67 52 58 65 63 69 76 56 62 69 72 78 85 24 28 28
24 28 28 24 28 28 24 28 28 24 28 28 24 28 28 24 28 28 24 28 28 24 28 28 24 28 28 24 28 28 24 28 28 24 28 28 24 28 28 24 28 28 24 28 28 24 28 28
24 28 28 24 28 28 24 28 28 24 28 28 24 28 28 24 28 28 24 28 28 24 28 28 24 28 28 24 28 28 24 28 28 24 28 28 24 28 28 24 28 28 24 28 28 24 28 28
24 28 28 24 28 28 24 28 28 24 28 28 24 28 28 24 28 28 24 28 28 24 28 28 24 28 28 24 28 28 24 28 28 24 28 28 24 28 28 24 28 28 24 28 28 24 28 28
24 28 28 24 28 28 24 28 28 45 52 61 57 64 73 68 75 84 24 28 28 61 68 77 44 51 60 65 72 81 46 53 62 24 28 28 56 63 72 67 74 83 60 67 76 54 61 70
46 71 87 51 78 96 47 73 91 44 69 85 39 63 78 37 60 74 34 57 70 34 57 70 40 65 81 48 75 93 46 72 90 42 67 83 47 74 92 40 65 81 43 69 85 45 71 88
44 69 86 37 60 74 50 77 95 48 75 93 42 66 81 40 63 78 43 68 83 51 78 96 44 68 84 50 76 94 46 71 87 59 88 108 55 83 101 44 68 84 57 86 106 54 81 100
70 86 106 45 70 86 52 80 98 43 67 82 47 73 90 44 69 85 48 74 91 51 78 97 42 66 82 37 61 75 42 68 84 36 60 74 115 63 78 43 69 85 51 75 93 38 62 77
39 64 79 35 58 72 45 72 89 45 72 89 75 72 89 108 66 82 46 72 89 83 74 91 38 62 76 53 81 101 49 75 92 49 75 93 51 78 95 49 75 92 106 78 96 54 82 101
85 83 102 115 78 96 52 78 96 55 83 102 48 73 89 77 84 104 51 77 95 106 76 94 42 66 80 48 74 91 47 73 90 53 82 101 46 72 88 44 70 87 36 59 73 42 68 84
35 57 71 115 62 78 48 75 94 37 61 76 60 72 90 41 67 83 38 62 77 106 64 80 40 64 79 42 67 83 39 63 78 87 72 90 45 70 87 39 62 77 53 82 101 46 71 87
56 85 105 53 80 98 67 85 105 45 70 86 113 77 95 47 73 89 109 79 97 126 76 93 56 84 104 59 88 108 51 78 95 44 69 84 52 79 98 65 71 78 55 61 68 72 78 85
50 56 63 76 82 89 55 61 68 72 78 85 75 81 88 54 60 67 50 56 63 71 77 84 64 70 77 69 75 82 54 60 67 59 65 72 73 79 86 69 75 82 51 57 64 62 68 75
56 62 69 50 56 63 51 57 64 66 72 79 68 74 81 67 73 80 67 73 80 68 74 81 71 77 84 65 71 78 69 75 82 74 80 87 52 58 65 54 60 67 65 71 78 62 68 75
75 81 88 70 76 83 49 55 62 52 58 65 63 69 76 62 68 75 70 76 83 65 71 78 57 63 70 52 58 65 71 77 84 56 62 69 68 74 81 57 63 70 62 68 75 75 81 88
50 56 63 75 81 88 49 55 62 54 60 67 55 61 68 63 69 76 75 81 88 51 57 64 66 72 79 50 56 63 54 60 67 72 78 85 51 57 64 64 70 77 75 81 88 74 80 87
71 77 84 50 56 63 52 58 65 62 68 75 67 73 80 74 80 87 51 57 64 69 75 82 73 79 86 51 57 64 72 78 85 62 68 75 50 56 63 61 67 74 54 60 67 24 28 28
24 28 28 24 28 28 24 28 28 24 28 28 24 28 28 24 28 28 24 28 28 24 28 28 24 28 28 24 28 28 24 28 28 24 28 28 24 28 28 24 28 28 24 28 28 24 28 28
24 28 28 24 28 28 24 28 28 24 28 28 24 28 28 24 28 28 24 28 28 24 28 28 24 28 28 24 28 28 24 28 28 24 28 28 24 28 28 24 28 28 24 28 28 24 28 28
24 28 28 24 28 28 24 28 28 24 28 28 24 28 28 24 28 28 24 28 28 24 28 28 24 28 28 24 28 28 24 28 28 24 28 28 24 28 28 24 28 28 24 28 28 24 28 28
24 28 28 24 28 28 24 28 28 68 75 84 47 54 63 46 53 62 24 28 28 63 70 79 56 63 72 56 63 72 69 76 85 24 28 28 45 52 61 66 73 82 41 48 57 63 70 79
48 73 90 51 78 95 45 69 85 42 66 81 48 75 92 46 72 88 41 64 79 63 78 96 51 78 97 50 78 96 49 76 94 48 75 92 48 75 93 119 65 81 52 79 98 49 76 94
53 80 99 40 63 78 45 70 86 44 69 85 41 65 79 57 85 104 44 68 84 71 86 106 55 83 101 60 89 108 52 78 95 54 80 98 51 77 94 50 76 92 91 86 106 58 87 106
59 87 106 55 82 100 55 82 100 54 80 98 48 73 89 51 77 94 67 84 103 45 70 85 54 81 100 42 66 81 46 72 89 43 68 83 41 65 80 48 75 93 45 70 87 45 70 87
48 75 92 108 67 83 40 64 79 41 64 79 37 60 74 50 77 94 47 73 90 43 67 83 50 76 94 48 74 90 58 86 106 46 71 86 53 79 97 60 89 109 59 87 106 54 81 98
55 82 99 62 91 111 59 87 107 52 78 95 58 86 105 99 84 102 94 84 102 55 82 100 55 83 102 101 79 97 48 74 90 52 79 97 42 65 80 40 63 77 52 80 98 59 79 98
43 68 84 36 59 73 49 75 93 36 58 71 92 70 87 45 71 87 37 59 73 38 61 75 40 64 78 45 71 87 44 69 85 53 81 100 48 74 91 51 78 96 51 78 95 118 75 93
93 82 100 50 76 92 54 80 98 49 74 90 51 77 94 50 76 92 58 87 106 57 85 104 62 91 111 55 83 101 47 72 87 48 73 89 56 84 103 55 61 68 50 56 63 61 67 74
50 56 63 62 68 75 56 62 69 70 76 83 56 62 69 54 60 67 72 78 85 58 64 71 67 73 80 58 64 71 51 57 64 71 77 84 70 76 83 65 71 78 69 75 82 69 75 82
49 55 62 50 56 63 72 78 85 75 81 88 62 68 75 68 74 81 76 82 89 68 74 81 55 61 68 52 58 65 59 65 72 53 59 66 59 65 72 62 68 75 64 70 77 53 59 66
61 67 74 59 65 72 53 59 66 53 59 66 53 59 66 68 74 81 71 77 84 73 79 86 52 58 65 68 74 81 62 68 75 52 58 65 66 72 79 52 58 65 52 58 65 53 59 66
52 58 65 51 57 64 70 76 83 62 68 75 49 55 62 70 76 83 50 56 63 52 58 65 74 80 87 53 59 66 56 62 69 64 70 77 73 79 86 74 80 87 71 77 84 68 74 81
66 72 79 55 61 68 55 61 68 76 82 89 70 76 83 52 58 65 60 66 73 56 62 69 75 81 88 53 59 66 62 68 75 64 70 77 76 82 89 50 56 63 74 80 87 24 28 28
24 28 28 24 28 28 24 28 28 24 28 28 24 28 28 24 28 28 24 28 28 24 28 28 24 28 28 24 28 28 24 28 28 24 28 28 24 28 28 24 28 28 24 28 28 24 28 28
24 28 28 24 28 28 24 28 28 24 28 28 24 28 28 24 28 28 24 28 28 24 28 28 24 28 28 24 28 28 24 28 28 24 28 28 24 28 28 24 28 28 24 28 28 24 28 28
24 28 28 24 28 28 24 28 28 24 28 28 24 28 28 24 28 28 24 28 28 24 28 28 24 28 28 24 28 28 24 28 28 24 28 28 24 28 28 24 28 28 24 28 28 24 28 28
24 28 28 24 28 28 24 28 28 52 59 68 52 59 68 51 58 67 24 28 28 68 75 84 44 51 60 49 56 65 50 57 66 24 28 28 57 64 73 51 58 67 57 64 73 58 65 74
60 88 108 52 78 94 54 80 98 59 88 107 57 84 103 46 70 86 119 72 89 41 64 77 53 80 98 52 79 96 44 68 83 41 64 78 86 76 94 48 73 90 54 81 99 41 64 78
53 80 98 48 74 90 44 67 81 56 84 102 56 83 102 96 84 102 86 87 106 58 85 103 115 84 102 59 87 105 124 84 102 58 85 103 64 93 113 59 85 103 53 78 94 101 89 108
54 80 97 59 86 104 62 91 111 87 89 108 117 81 99 50 75 91 47 71 85 51 76 93 44 67 82 48 73 89 55 83 101 45 69 84 49 74 91 49 74 91 50 76 93 49 75 92
54 81 100 44 68 83 50 76 92 46 70 86 44 68 83 46 70 85 47 72 87 47 72 88 48 72 88 56 83 101 53 79 96 86 88 107 54 80 97 55 81 98 61 89 108 59 86 104
81 93 113 55 81 98 60 88 107 55 81 98 61 89 108 63 91 110 53 78 95 63 92 111 58 85 103 56 83 101 49 74 90 48 73 88 53 80 97 46 70 85 48 73 89 64 84 102
54 81 99 49 75 91 41 64 78 46 71 87 41 64 78 42 66 80 53 80 97 53 80 97 42 65 80 60 84 103 43 66 80 52 78 95 55 82 100 50 75 91 49 74 90 56 83 101
50 75 91 55 81 98 58 85 103 65 94 114 55 82 99 61 89 108 53 78 94 127 84 102 66 96 116 63 91 111 59 87 105 59 86 104 61 89 109 65 71 78 51 57 64 53 59 66
63 69 76 52 58 65 61 67 74 69 75 82 72 78 85 71 77 84 71 77 84 58 64 71 50 56 63 61 67 74 55 61 68 57 63 70 71 77 84 66 72 79 62 68 75 76 82 89
73 79 86 51 57 64 52 58 65 62 68 75 57 63 70 53 59 66 64 70 77 55 61 68 58 64 71 56 62 69 55 61 68 70 76 83 63 69 76 61 67 74 60 66 73 62 68 75
64 70 77 55 61 68 73 79 86 61 67 74 65 71 78 52 58 65 57 63 70 65 71 78 71 77 84 59 65 72 73 79 86 64 70 77 61 67 74 53 59 66 66 72 79 50 56 63
76 82 89 54 60 67 66 72 79 69 75 82 60 66 73 51 57 64 70 76 83 64 70 77 71 77 84 71 77 84 66 72 79 65 71 78 60 66 73 64 70 77 63 69 76 67 73 80
62 68 75 73 79 86 61 67 74 57 63 70 62 68 75 77 83 90 54 60 67 51 57 64 52 58 65 73 79 86 59 65 72 52 58 65 66 72 79 74 80 87 59 65 72 24 28 28
24 28 28 24 28 28 24 28 28 24 28 28 24 28 28 24 28 28 24 28 28 24 28 28 24 28 28 24 28 28 24 28 28 24 28 28 24 28 28 24 28 28 24 28 28 24 28 28
24 28 28 24 28 28 24 28 28 24 28 28 24 28 28 24 28 28 24 28 28 24 28 28 24 28 28 24 28 28 24 28 28 24 28 28 24 28 28 24 28 28 24 28 28 24 28 28
24 28 28 24 28 28 24 28 28 24 28 28 24 28 28 24 28 28 24 28 28 24 28 28 24 28 28 24 28 28 24 28 28 24 28 28 24 28 28 24 28 28 24 28 28 24 28 28
24 28 28 24 28 28 24 28 28 66 73 82 69 76 85 62 69 78 24 28 28 63 70 79 48 55 64 50 57 66 63 70 79 24 28 28 63 70 79 47 54 63 45 52 61 43 50 59
54 79 95 60 87 106 50 75 90 97 86 104 62 90 110 51 76 92 49 74 89 60 88 108 131 73 89 54 80 97 53 79 96 70 85 103 52 77 93 48 72 87 53 79 96 111 78 95
46 70 84 50 74 90 57 83 101 51 76 91 56 82 99 58 84 101 91 91 111 55 80 97 63 91 109 63 90 109 64 92 111 55 80 96 70 100 121 59 85 102 69 98 119 68 98 118
66 95 114 55 79 95 66 94 114 66 95 115 58 85 102 106 87 106 56 82 98 51 75 91 55 80 97 49 73 88 57 84 102 47 71 85 49 73 88 49 73 89 105 78 95 58 85 104
51 76 92 47 71 86 55 81 98 49 73 89 55 81 98 51 76 92 50 74 89 60 88 107 63 92 111 63 92 111 61 88 107 64 93 112 64 92 111 58 85 102 56 81 97 60 87 105
67 96 116 68 97 118 70 100 120 59 86 103 70 100 120 56 81 98 63 90 109 66 94 114 66 95 115 59 86 104 63 91 110 136 79 96 57 83 101 48 71 86 53 78 94 56 82 100
46 69 83 57 84 103 55 82 99 47 71 86 52 77 94 84 82 100 57 84 102 57 84 102 55 82 99 55 81 98 55 81 99 55 80 97 59 86 104 101 86 105 63 92 111 67 96 116
67 96 117 60 87 105 79 97 117 126 89 107 57 82 99 57 82 98 79 99 120 67 96 115 70 100 121 57 82 98 65 94 113 61 89 107 54 79 95 70 76 83 56 62 69 52 58 65
76 82 89 69 75 82 63 69 76 57 63 70 67 73 80 75 81 88 64 70 77 76 82 89 64 70 77 61 67 74 65 71 78 60 66 73 61 67 74 65 71 78 54 60 67 54 60 67
62 68 75 57 63 70 63 69 76 57 63 70 51 57 64 56 62 69 49 55 62 63 69 76 58 64 71 70 76 83 52 58 65 69 75 82 64 70 77 68 74 81 75 81 88 64 70 77
71 77 84 61 67 74 58 64 71 58 64 71 67 73 80 56 62 69 65 71 78 53 59 66 63 69 76 69 75 82 53 59 66 60 66 73 64 70 77 66 72 79 73 79 86 63 69 76
57 63 70 77 83 90 72 78 85 63 69 76 58 64 71 65 71 78 60 66 73 63 69 76 66 72 79 75 81 88 70 76 83 72 78 85 55 61 68 50 56 63 67 73 80 64 70 77
74 80 87 68 74 81 72 78 85 68 74 81 77 83 90 59 65 72 61 67 74 66 72 79 60 66 73 49 55 62 67 73 80 62 68 75 63 69 76 67 73 80 67 73 80 24 28 28
24 28 28 24 28 28 24 28 28 24 28 28 24 28 28 24 28 28 24 28 28 24 28 28 24 28 28 24 28 28 24 28 28 24 28 28 24 28 28 24 28 28 24 28 28 24 28 28
24 28 28 24 28 28 24 28 28 24 28 28 24 28 28 24 28 28 24 28 28 24 28 28 24 28 28 24 28 28 24 28 28 24 28 28 24 28 28 24 28 28 24 28 28 24 28 28
24 28 28 24 28 28 24 28 28 24 28 28 24 28 28 24 28 28 24 28 28 24 28 28 24 28 28 24 28 28 24 28 28 24 28 28 24 28 28 24 28 28 24 28 28 24 28 28
24 28 28 24 28 28 24 28 28 52 59 68 54 61 70 59 66 75 24 28 28 64 71 80 46 53 62 47 54 63 67 74 83 24 28 28 43 50 59 65 72 81 44 51 60 43 50 59
58 84 101 108 90 109 61 88 106 64 93 112 91 89 108 54 79 96 55 80 97 48 72 86 55 81 98 60 87 106 49 72 87 51 76 91 48 71 86 52 76 92 61 89 108 48 72 86
53 78 94 64 92 111 51 75 89 58 84 101 67 97 117 56 81 97 68 98 118 61 88 105 66 93 112 64 91 109 60 85 102 72 101 122 65 92 110 61 86 103 61 87 103 60 86 103
72 101 122 69 97 117 93 97 117 61 88 105 127 88 106 67 95 115 56 81 97 55 80 96 118 84 102 53 77 93 59 86 104 55 80 97 59 86 104 61 89 107 58 85 102 59 86 104
87 85 103 52 77 92 60 88 106 52 77 93 57 83 100 108 84 102 55 80 96 55 81 97 57 83 100 66 94 114 60 86 103 59 85 102 60 86 103 64 91 109 70 99 119 70 99 119
67 95 114 119 95 114 72 102 122 65 93 111 63 90 107 67 95 114 59 85 101 70 99 119 110 92 111 69 98 118 58 84 101 57 82 99 79 93 112 99 88 106 101 86 104 53 77 93
53 79 95 58 84 102 48 72 87 51 76 92 93 84 101 59 86 104 57 83 100 100 83 101 48 71 85 59 86 104 53 78 93 58 84 101 101 89 107 64 92 111 56 80 96 57 82 98
63 91 109 66 94 113 61 87 104 71 100 121 83 101 122 69 98 118 58 83 99 63 89 107 68 96 115 62 89 106 63 90 107 62 88 105 59 85 102 63 69 76 74 80 87 52 58 65
60 66 73 71 77 84 72 78 85 53 59 66 56 62 69 70 76 83 76 82 89 55 61 68 59 65 72 73 79 86 70 76 83 50 56 63 68 74 81 68 74 81 55 61 68 54 60 67
53 59 66 67 73 80 51 57 64 61 67 74 53 59 66 73 79 86 59 65 72 57 63 70 76 82 89 67 73 80 54 60 67 73 79 86 56 62 69 61 67 74 63 69 76 56 62 69
57 63 70 53 59 66 73 79 86 58 64 71 67 73 80 51 57 64 61 67 74 58 64 71 72 78 85 66 72 79 66 72 79 67 73 80 72 78 85 56 62 69 74 80 87 68 74 81
66 72 79 67 73 80 56 62 69 69 75 82 74 80 87 54 60 67 53 59 66 76 82 89 58 64 71 61 67 74 57 63 70 75 81 88 56 62 69 49 55 62 75 81 88 70 76 83
53 59 66 55 61 68 71 77 84 66 72 79 53 59 66 74 80 87 53 59 66 57 63 70 49 55 62 68 74 81 53 59 66 76 82 89 57 63 70 68 74 81 58 64 71 24 28 28
24 28 28 24 28 28 24 28 28 24 28 28 24 28 28 24 28 28 24 28 28 24 28 28 24 28 28 24 28 28 24 28 28 24 28 28 24 28 28 24 28 28 24 28 28 24 28 28
24 28 28 24 28 28 24 28 28 24 28 28 24 28 28 24 28 28 24 28 28 24 28 28 24 28 28 24 28 28 24 28 28 24 28 28 24 28 28 24 28 28 24 28 28 24 28 28
24 28 28 24 28 28 24 28 28 24 28 28 24 28 28 24 28 28 24 28 28 24 28 28 24 28 28 24 28 28 24 28 28 24 28 28 24 28 28 24 28 28 24 28 28 24 28 28
24 28 28 24 28 28 24 28 28 61 68 77 58 65 74 69 76 85 24 28 28 47 54 63 43 50 59 45 52 61 44 51 60 24 28 28 57 64 73 57 64 73 51 58 67 58 65 74
88 96 116 54 79 94 54 78 93 120 85 103 90 90 109 65 93 113 60 87 105 48 72 86 54 80 96 55 81 97 54 79 96 58 85 103 52 77 92 55 81 98 61 88 106 58 84 102
60 87 105 125 82 99 64 92 111 65 93 112 62 89 108 67 95 115 55 80 95 63 90 108 79 100 121 59 84 100 136 91 109 66 93 112 72 102 122 66 93 111 70 98 118 65 92 110
89 101 121 64 91 109 66 94 113 68 97 116 67 96 115 67 95 114 110 90 108 64 92 111 59 85 102 56 81 97 52 77 92 55 81 97 54 80 96 49 73 87 52 76 92 55 80 97
50 75 90 59 87 105 50 73 88 59 86 103 59 85 103 63 91 110 56 82 99 63 91 109 114 87 105 67 96 115 64 91 110 68 97 116 63 90 107 64 91 110 69 98 118 61 87 104
69 97 117 70 98 118 64 91 108 61 87 103 125 94 113 126 93 111 67 95 114 59 85 101 56 81 96 61 87 105 56 80 96 62 89 107 60 86 104 107 87 105 56 82 98 50 74 89
59 86 104 59 86 104 50 74 89 60 87 105 52 77 92 52 77 93 54 79 96 59 86 104 108 83 100 60 87 105 54 79 95 63 90 109 60 86 104 61 88 105 62 89 107 62 89 107
62 88 106 70 99 120 63 90 107 62 88 105 62 88 105 69 98 117 73 103 124 61 87 103 97 100 120 66 93 112 69 97 117 69 97 117 59 84 100 57 63 70 72 78 85 73 79 86
71 77 84 64 70 77 53 59 66 56 62 69 75 81 88 54 60 67 55 61 68 74 80 87 64 70 77 59 65 72 65 71 78 76 82 89 56 62 69 56 62 69 60 66 73 63 69 76
61 67 74 70 76 83 67 73 80 52 58 65 54 60 67 50 56 63 74 80 87 65 71 78 65 71 78 65 71 78 71 77 84 69 75 82 70 76 83 71 77 84 68 74 81 75 81 88
59 65 72 59 65 72 74 80 87 53 59 66 72 78 85 63 69 76 49 55 62 63 69 76 55 61 68 70 76 83 57 63 70 58 64 71 55 61 68 59 65 72 76 82 89 61 67 74
56 62 69 67 73 80 65 71 78 65 71 78 49 55 62 71 77 84 51 57 64 63 69 76 50 56 63 69 75 82 55 61 68 71 77 84 67 73 80 50 56 63 66 72 79 65 71 78
68 74 81 52 58 65 57 63 70 64 70 77 77 83 90 66 72 79 63 69 76 73 79 86 54 60 67 56 62 69 53 59 66 71 77 84 72 78 85 75 81 88 63 69 76 24 28 28
24 28 28 24 28 28 24 28 28 24 28 28 24 28 28 24 28 28 24 28 28 24 28 28 24 28 28 24 28 28 24 28 28 24 28 28 24 28 28 24 28 28 24 28 28 24 28 28
24 28 28 24 28 28 24 28 28 24 28 28 24 28 28 24 28 28 24 28 28 24 28 28 24 28 28 24 28 28 24 28 28 24 28 28 24 28 28 24 28 28 24 28 28 24 28 28
24 28 28 24 28 28 24 28 28 24 28 28 24 28 28 24 28 28 24 28 28 24 28 28 24 28 28 24 28 28 24 28 28 24 28 28 24 28 28 24 28 28 24 28 28 24 28 28
24 28 28 24 28 28 24 28 28 52 59 68 66 73 82 49 56 65 24 28 28 46 53 62 56 63 72 46 53 62 48 55 64 24 28 28 55 62 71 55 62 71 57 64 73 65 72 81
58 84 101 57 83 100 55 80 97 51 75 90 57 84 101 49 73 88 105 82 100 79 86 105 57 84 102 47 71 86 49 74 89 48 72 87 83 84 102 56 83 100 48 71 86 49 73 88
60 87 106 50 74 89 115 83 100 59 85 103 107 87 105 57 83 100 66 95 115 58 83 100 55 79 95 66 94 113 67 95 114 57 83 99 66 94 113 80 101 122 63 90 109 69 97 117
121 92 110 69 99 119 67 95 115 56 82 98 62 89 107 122 86 104 138 81 98 117 84 102 54 80 96 62 90 109 102 83 101 59 87 105 61 89 109 121 77 93 122 76 93 53 78 95
50 75 90 59 86 104 50 74 90 57 83 101 51 75 91 55 81 98 59 86 104 64 92 112 50 74 89 56 81 97 65 94 113 58 84 101 68 97 118 118 91 109 58 83 100 71 100 121
69 97 117 63 90 108 72 102 122 71 100 121 60 85 102 70 100 121 94 96 116 81 98 118 57 83 99 64 92 111 62 89 107 53 78 93 62 90 108 64 92 111 48 72 87 61 89 107
57 84 102 56 82 100 56 82 100 102 80 97 55 81 99 46 70 84 59 86 104 54 80 97 48 72 87 49 73 87 51 75 90 57 83 100 63 91 110 58 84 101 54 78 94 67 96 116
68 96 116 58 83 100 59 84 101 60 86 103 69 98 118 136 89 108 94 98 118 63 90 109 70 100 120 64 92 110 60 86 103 61 87 104 56 82 98 58 64 71 76 82 89 52 58 65
65 71 78 56 62 69 70 76 83 60 66 73 60 66 73 53 59 66 53 59 66 53 59 66 52 58 65 57 63 70 50 56 63 65 71 78 68 74 81 63 69 76 52 58 65 61 67 74
60 66 73 64 70 77 53 59 66 64 70 77 49 55 62 68 74 81 51 57 64 73 79 86 58 64 71 63 69 76 55 61 68 64 70 77 62 68 75 71 77 84 76 82 89 70 76 83
68 74 81 72 78 85 62 68 75 54 60 67 59 65 72 59 65 72 62 68 75 72 78 85 50 56 63 57 63 70 59 65 72 65 71 78 74 80 87 55 61 68 65 71 78 61 67 74
71 77 84 65 71 78 55 61 68 56 62 69 65 71 78 56 62 69 72 78 85 63 69 76 74 80 87 58 64 71 52 58 65 75 81 88 50 56 63 70 76 83 65 71 78 63 69 76
66 72 79 76 82 89 72 78 85 51 57 64 77 83 90 51 57 64 65 71 78 49 55 62 62 68 75 70 76 83 73 79 86 67 73 80 49 55 62 69 75 82 64 70 77 24 28 28
24 28 28 24 28 28 24 28 28 24 28 28 24 28 28 24 28 28 24 28 28 24 28 28 24 28 28 24 28 28 24 28 28 24 28 28 24 28 28 24 28 28 24 28 28 24 28 28
24 28 28 24 28 28 24 28 28 24 28 28 24 28 28 24 28 28 24 28 28 24 28 28 24 28 28 24 28 28 24 28 28 24 28 28 24 28 28 24 28 28 24 28 28 24 28 28
24 28 28 24 28 28 24 28 28 24 28 28 24 28 28 24 28 28 24 28 28 24 28 28 24 28 28 24 28 28 24 28 28 24 28 28 24 28 28 24 28 28 24 28 28 24 28 28
24 28 28 24 28 28 24 28 28 65 72 81 64 71 80 56 63 72 24 28 28 42 49 58 42 49 58 65 72 81 55 62 71 24 28 28 42 49 58 52 59 68 65 72 81 47 54 63
55 81 98 53 78 95 48 72 87 60 88 107 113 78 95 47 71 86 49 73 89 52 78 95 49 75 91 47 72 87 92 77 95 42 65 79 42 65 79 50 75 92 55 82 101 45 68 83
52 78 95 118 76 93 50 76 92 47 70 85 62 90 110 54 79 96 59 86 105 51 75 90 136 82 99 60 87 105 60 88 106 56 82 99 111 89 108 115 89 108 61 89 107 61 89 107
67 96 117 60 88 106 54 80 96 92 90 109 64 93 113 54 80 97 63 91 111 53 78 95 61 89 109 51 77 93 57 84 103 45 69 83 126 72 88 71 82 100 47 71 87 44 67 82
65 83 101 56 84 102 55 83 101 51 76 93 43 66 80 56 83 101 57 84 103 58 86 105 49 73 88 120 80 98 58 85 104 63 91 110 92 90 109 54 79 95 53 78 94 67 96 117
74 97 117 85 95 115 55 81 97 67 96 117 95 92 112 60 87 105 67 96 117 65 93 113 90 90 109 64 93 113 52 78 94 48 72 87 60 89 108 60 88 107 51 77 94 55 82 99
56 84 102 44 67 82 88 78 96 45 69 84 42 65 79 41 64 78 86 79 97 46 70 85 54 80 98 45 69 84 49 73 89 49 73 89 53 79 96 51 76 92 86 88 107 59 87 105
137 80 97 57 83 101 63 91 110 58 85 102 66 95 116 62 89 108 55 80 96 57 83 100 60 87 106 57 83 100 52 77 92 54 79 95 65 94 114 53 59 66 66 72 79 71 77 84
50 56 63 57 63 70 59 65 72 74 80 87 59 65 72 53 59 66 70 76 83 72 78 85 67 73 80 59 65 72 63 69 76 62 68 75 66 72 79 52 58 65 70 76 83 70 76 83
67 73 80 56 62 69 74 80 87 61 67 74 53 59 66 53 59 66 74 80 87 55 61 68 70 76 83 69 75 82 53 59 66 51 57 64 57 63 70 76 82 89 67 73 80 63 69 76
56 62 69 75 81 88 73 79 86 64 70 77 55 61 68 53 59 66 55 61 68 54 60 67 65 71 78 58 64 71 76 82 89 52 58 65 73 79 86 57 63 70 59 65 72 61 67 74
65 71 78 66 72 79 63 69 76 61 67 74 62 68 75 51 57 64 52 58 65 56 62 69 69 75 82 60 66 73 56 62 69 62 68 75 65 71 78 55 61 68 57 63 70 66 72 79
50 56 63 73 79 86 54 60 67 72 78 85 65 71 78 49 55 62 63 69 76 69 75 82 55 61 68 66 72 79 61 67 74 53 59 66 77 83 90 73 79 86 51 57 64 24 28 28
24 28 28 24 28 28 24 28 28 24 28 28 24 28 28 24 28 28 24 28 28 24 28 28 24 28 28 24 28 28 24 28 28 24 28 28 24 28 28 24 28 28 24 28 28 24 28 28
24 28 28 24 28 28 24 28 28 24 28 28 24 28 28 24 28 28 24 28 28 24 28 28 24 28 28 24 28 28 24 28 28 24 28 28 24 28 28 24 28 28 24 28 28 24 28 28
24 28 28 24 28 28 24 28 28 24 28 28 24 28 28 24 28 28 24 28 28 24 28 28 24 28 28 24 28 28 24 28 28 24 28 28 24 28 28 24 28 28 24 28 28 24 28 28
24 28 28 24 28 28 24 28 28 51 58 67 52 59 68 50 57 66 24 28 28 55 62 71 50 57 66 63 70 79 57 64 73 24 28 28 43 50 59 61 68 77 60 67 76 44 51 60
48 73 88 56 84 103 55 83 102 56 84 103 43 66 81 53 80 98 46 71 87 39 62 76 40 64 78 43 67 83 72 76 94 43 68 83 50 77 95 42 67 82 43 67 83 42 65 80
43 68 83 43 67 82 72 81 100 49 75 91 43 67 81 78 84 103 48 73 89 50 75 91 50 76 92 52 78 95 50 76 92 61 89 109 52 78 95 62 90 110 51 76 92 56 83 101
63 92 113 60 88 108 55 82 100 61 89 109 50 76 92 58 86 105 44 68 83 112 75 92 50 76 93 46 70 86 58 82 101 47 73 90 47 73 90 51 78 96 40 64 79 107 69 85
51 78 96 39 62 76 44 69 85 46 71 88 39 63 77 48 74 90 43 67 81 119 72 89 52 79 96 48 74 90 59 87 107 84 85 104 47 71 86 62 91 112 51 76 92 50 75 91
62 91 110 50 75 91 69 93 113 59 87 106 52 78 95 51 76 93 51 77 93 52 78 95 56 84 102 59 88 107 80 84 102 48 73 89 50 76 94 42 65 80 44 69 84 96 74 91
42 66 81 47 73 90 90 73 90 45 71 87 44 69 85 51 79 97 37 60 73 49 75 92 42 66 81 53 80 98 47 73 89 55 83 102 53 80 98 57 85 104 44 68 82 58 87 106
57 85 104 51 77 93 61 90 109 51 76 92 56 82 100 61 89 108 52 77 93 63 92 113 63 92 113 59 87 106 60 89 109 55 82 100 60 89 109 67 73 80 63 69 76 56 62 69
74 80 87 70 76 83 65 71 78 60 66 73 72 78 85 53 59 66 57 63 70 49 55 62 74 80 87 77 83 90 65 71 78 64 70 77 63 69 76 73 79 86 67 73 80 57 63 70
54 60 67 58 64 71 60 66 73 62 68 75 53 59 66 55 61 68 69 75 82 61 67 74 77 83 90 68 74 81 51 57 64 59 65 72 49 55 62 73 79 86 68 74 81 54 60 67
63 69 76 50 56 63 56 62 69 60 66 73 54 60 67 67 73 80 53 59 66 61 67 74 71 77 84 55 61 68 61 67 74 68 74 81 76 82 89 75 81 88 61 67 74 62 68 75
75 81 88 67 73 80 71 77 84 73 79 86 56 62 69 76 82 89 65 71 78 68 74 81 66 72 79 76 82 89 66 72 79 64 70 77 75 81 88 73 79 86 65 71 78 55 61 68
65 71 78 62 68 75 71 77 84 51 57 64 68 74 81 57 63 70 54 60 67 56 62 69 65 71 78 60 66 73 71 77 84 66 72 79 54 60 67 58 64 71 73 79 86 24 28 28
24 28 28 24 28 28 24 28 28 24 28 28 24 28 28 24 28 28 24 28 28 24 28 28 24 28 28 24 28 28 24 28 28 24 28 28 24 28 28 24 28 28 24 28 28 24 28 28
24 28 28 24 28 28 24 28 28 24 28 28 24 28 28 24 28 28 24 28 28 24 28 28 24 28 28 24 28 28 24 28 28 24 28 28 24 28 28 24 28 28 24 28 28 24 28 28
24 28 28 24 28 28 24 28 28 24 28 28 24 28 28 24 28 28 24 28 28 24 28 28 24 28 28 24 28 28 24 28 28 24 28 28 24 28 28 24 28 28 24 28 28 24 28 28
24 28 28 24 28 28 24 28 28 66 73 82 64 71 80 57 64 73 24 28 28 46 53 62 59 66 75 43 50 59 68 75 84 24 28 28 60 67 76 43 50 59 62 69 78 44 51 60
119 73 90 47 72 89 54 82 101 47 73 90 75 76 94 41 65 81 43 68 84 40 64 80 45 71 88 40 64 80 101 66 82 48 75 93 41 65 81 45 72 89 122 62 78 44 70 87
40 65 80 40 64 79 42 66 82 43 68 84 65 81 100 48 74 91 55 83 102 45 70 86 47 72 88 54 81 99 48 73 89 54 81 99 126 77 94 46 70 86 71 88 108 53 80 98
49 75 91 52 78 96 58 87 107 57 86 106 47 72 89 41 64 79 50 76 94 50 77 95 42 67 82 49 76 93 51 78 97 50 77 96 102 67 83 39 63 79 43 69 86 48 75 93
94 67 83 48 76 94 37 60 74 48 75 93 48 75 93 42 66 82 50 77 95 46 72 88 39 62 77 50 77 95 52 80 98 54 82 101 52 80 98 80 83 103 47 72 88 53 80 97
59 87 107 47 72 88 53 80 98 55 83 101 46 71 87 49 74 91 49 75 91 90 81 100 85 81 100 44 69 84 49 75 93 40 64 79 38 62 76 52 79 98 45 71 88 62 76 95
35 58 71 43 68 84 61 74 92 46 73 90 34 57 71 42 67 83 41 66 82 37 60 75 48 75 93 43 69 85 46 72 90 38 62 76 44 69 85 41 65 79 107 74 91 55 84 103
47 73 89 48 74 90 45 70 86 57 85 105 52 79 97 56 83 102 126 77 94 55 83 102 50 76 93 58 87 107 117 77 95 45 69 84 46 71 87 62 68 75 73 79 86 57 63 70
76 82 89 53 59 66 64 70 77 54 60 67 74 80 87 54 60 67 71 77 84 50 56 63 49 55 62 69 75 82 55 61 68 61 67 74 54 60 67 52 58 65 75 81 88 64 70 77
49 55 62 62 68 75 51 57 64 60 66 73 71 77 84 68 74 81 69 75 82 72 78 85 70 76 83 76 82 89 66 72 79 54 60 67 70 76 83 70 76 83 73 79 86 55 61 68
74 80 87 55 61 68 74 80 87 74 80 87 70 76 83 63 69 76 65 71 78 65 71 78 65 71 78 70 76 83 54 60 67 65 71 78 72 78 85 67 73 80 54 60 67 52 58 65
66 72 79 72 78 85 69 75 82 71 77 84 64 70 77 68 74 81 69 75 82 50 56 63 56 62 69 67 73 80 58 64 71 69 75 82 60 66 73 55 61 68 69 75 82 64 70 77
65 71 78 55 61 68 53 59 66 72 78 85 53 59 66 52 58 65 68 74 81 54 60 67 76 82 89 51 57 64 56 62 69 54 60 67 69 75 82 65 71 78 59 65 72 24 28 28
24 28 28 24 28 28 24 28 28 24 28 28 24 28 28 24 28 28 24 28 28 24 28 28 24 28 28 24 28 28 24 28 28 24 28 28 24 28 28 24 28 28 24 28 28 24 28 28
24 28 28 24 28 28 24 28 28 24 28 28 24 28 28 24 28 28 24 28 28 24 28 28 24 28 28 24 28 28 24 28 28 24 28 28 24 28 28 24 28 28 24 28 28 24 28 28
24 28 28 24 28 28 24 28 28 24 28 28 24 28 28 24 28 28 24 28 28 24 28 28 24 28 28 24 28 28 24 28 28 24 28 28 24 28 28 24 28 28 24 28 28 24 28 28
24 28 28 24 28 28 24 28 28 61 68 77 58 65 74 48 55 64 24 28 28 45 52 61 53 60 69 64 71 80 49 56 65 24 28 28 50 57 66 65 72 81 46 53 62 43 50 59
51 78 97 43 68 84 42 67 83 50 78 97 45 71 88 34 57 71 33 56 69 46 73 90 38 63 78 32 54 67 42 68 85 32 55 69 46 73 92 42 67 84 33 56 70 42 67 84
113 63 79 99 67 84 43 68 84 43 68 85 46 72 89 53 81 100 49 75 93 55 84 103 48 75 92 56 85 105 105 77 95 54 82 101 53 81 100 73 85 104 127 74 91 56 85 104
95 79 98 56 84 104 50 77 95 44 69 85 48 75 92 46 72 89 48 75 93 41 66 82 35 58 72 42 67 83 40 65 81 46 73 91 45 72 89 37 61 76 42 67 84 34 56 70
33 55 69 44 70 88 45 72 90 37 62 77 40 65 81 38 63 78 45 72 89 103 68 85 37 61 75 46 71 88 41 65 80 43 67 83 44 69 86 54 83 102 49 76 93 50 77 95
46 71 88 50 77 95 45 70 86 53 81 99 49 75 92 52 79 97 44 69 84 42 66 81 43 68 84 51 79 98 39 63 77 46 73 90 50 77 96 45 72 89 43 69 86 45 71 88
53 74 92 37 61 76 117 60 75 32 55 69 46 73 91 33 56 70 65 70 88 36 60 74 44 70 87 44 71 88 42 67 84 43 68 85 45 72 89 48 75 92 45 71 87 40 64 79
45 70 87 50 76 94 43 68 83 53 81 100 48 74 92 51 78 96 120 75 93 47 73 89 44 69 84 47 73 89 44 68 84 51 79 97 56 84 104 64 70 77 59 65 72 72 78 85
53 59 66 68 74 81 70 76 83 51 57 64 68 74 81 50 56 63 64 70 77 70 76 83 61 67 74 55 61 68 69 75 82 52 58 65 75 81 88 62 68 75 69 75 82 67 73 80
75 81 88 65 71 78 59 65 72 59 65 72 63 69 76 57 63 70 75 81 88 52 58 65 66 72 79 63 69 76 70 76 83 53 59 66 67 73 80 71 77 84 55 61 68 63 69 76
71 77 84 56 62 69 76 82 89 66 72 79 62 68 75 71 77 84 64 70 77 53 59 66 74 80 87 53 59 66 56 62 69 61 67 74 65 71 78 55 61 68 52 58 65 77 83 90
73 79 86 61 67 74 69 75 82 59 65 72 75 81 88 72 78 85 62 68 75 59 65 72 50 56 63 61 67 74 72 78 85 59 65 72 71 77 84 69 75 82 74 80 87 72 78 85
62 68 75 52 58 65 64 70 77 60 66 73 65 71 78 73 79 86 57 63 70 57 63 70 68 74 81 57 63 70 58 64 71 66 72 79 63 69 76 49 55 62 68 74 81 24 28 28
24 28 28 24 28 28 24 28 28 24 28 28 24 28 28 24 28 28 24 28 28 24 28 28 24 28 28 24 28 28 24 28 28 24 28 28 24 28 28 24 28 28 24 28 28 24 28 28
24 28 28 24 28 28 24 28 28 24 28 28 24 28 28 24 28 28 24 28 28 24 28 28 24 28 28 24 28 28 24 28 28 24 28 28 24 28 28 24 28 28 24 28 28 24 28 28
24 28 28 24 28 28 24 28 28 24 28 28 24 28 28 24 28 28 24 28 28 24 28 28 24 28 28 24 28 28 24 28 28 24 28 28 24 28 28 24 28 28 24 28 28 24 28 28
24 28 28 24 28 28 24 28 28 69 76 85 56 63 72 46 53 62 24 28 28 58 65 74 65 72 81 47 54 63 63 70 79 24 28 28 55 62 71 45 52 61 50 57 66 51 58 67
41 65 80 37 61 75 49 77 95 119 64 80 47 74 93 38 62 77 41 66 83 40 66 82 32 55 68 47 72 90 30 52 66 33 57 71 36 60 75 39 65 81 36 60 75 41 67 83
35 58 73 47 75 93 41 67 83 65 75 93 41 66 82 51 80 99 68 78 97 97 74 92 65 82 101 53 81 100 47 73 90 43 68 84 54 83 102 48 74 91 54 82 101 44 69 85
101 76 95 40 64 79 48 74 91 51 79 98 45 70 87 41 66 82 47 74 92 39 63 79 36 59 73 43 69 86 54 74 92 43 69 87 45 72 90 64 69 87 39 64 80 32 54 68
44 70 88 33 55 69 44 70 88 35 58 73 47 74 93 32 55 69 46 72 90 37 61 76 46 73 91 44 69 86 52 80 100 43 68 84 50 78 96 55 84 104 48 74 92 45 71 87
44 69 85 48 74 91 43 67 82 47 73 90 52 80 98 52 80 98 44 69 86 52 79 98 50 77 95 50 78 96 40 64 80 105 68 85 42 68 84 81 70 88 33 55 69 45 72 90
35 59 73 41 67 84 68 68 85 35 59 73 42 68 86 94 63 79 42 68 85 51 72 90 35 59 74 40 65 81 33 56 70 41 66 82 44 70 87 47 74 91 82 74 92 49 76 94
89 75 94 42 67 82 46 72 89 49 76 93 89 79 98 82 81 100 56 85 104 45 70 86 53 81 100 42 67 82 52 80 99 47 74 91 46 72 89 75 81 88 65 71 78 68 74 81
52 58 65 60 66 73 52 58 65 68 74 81 70 76 83 70 76 83 73 79 86 50 56 63 76 82 89 56 62 69 59 65 72 66 72 79 60 66 73 60 66 73 68 74 81 69 75 82
57 63 70 54 60 67 71 77 84 74 80 87 64 70 77 68 74 81 55 61 68 72 78 85 64 70 77 64 70 77 65 71 78 55 61 68 59 65 72 52 58 65 62 68 75 71 77 84
74 80 87 72 78 85 55 61 68 59 65 72 74 80 87 68 74 81 72 78 85 65 71 78 66 72 79 64 70 77 76 82 89 69 75 82 65 71 78 76 82 89 63 69 76 60 66 73
65 71 78 51 57 64 70 76 83 57 63 70 71 77 84 62 68 75 63 69 76 62 68 75 73 79 86 65 71 78 55 61 68 61 67 74 70 76 83 66 72 79 75 81 88 50 56 63
55 61 68 56 62 69 69 75 82 63 69 76 73 79 86 60 66 73 52 58 65 63 69 76 66 72 79 62 68 75 70 76 83 61 67 74 74 80 87 68 74 81 73 79 86 24 28 28
24 28 28 24 28 28 24 28 28 24 28 28 24 28 28 24 28 28 24 28 28 24 28 28 24 28 28 24 28 28 24 28 28 24 28 28 24 28 28 24 28 28 24 28 28 24 28 28
24 28 28 24 28 28 24 28 28 24 28 28 24 28 28 24 28 28 24 28 28 24 28 28 24 28 28 24 28 28 24 28 28 24 28 28 24 28 28 24 28 28 24 28 28 24 28 28
24 28 28 24 28 28 24 28 28 24 28 28 24 28 28 24 28 28 24 28 28 24 28 28 24 28 28 24 28 28 24 28 28 24 28 28 24 28 28 24 28 28 24 28 28 24 28 28
24 28 28 24 28 28 24 28 28 65 72 81 50 57 66 60 67 76 24 28 28 55 62 71 62 69 78 66 73 82 46 53 62 24 28 28 61 68 77 66 73 82 53 60 69 49 56 65
70 77 96 48 75 93 42 68 84 49 77 95 112 63 79 43 69 86 47 74 92 41 67 84 37 62 77 42 68 85 60 68 86 43 70 87 33 57 71 42 69 86 31 54 68 33 56 70
43 70 87 33 56 70 44 70 87 40 65 81 45 72 89 40 65 80 48 76 94 45 71 88 39 63 78 43 68 84 54 83 102 45 71 87 53 81 100 42 67 82 45 70 86 56 85 105
43 68 84 103 74 92 46 72 89 41 65 81 52 81 100 45 72 89 38 61 76 46 72 90 54 76 94 39 64 80 45 72 90 36 60 75 39 64 80 37 61 77 35 59 74 31 54 68
33 57 71 36 61 76 32 55 69 33 56 70 36 60 75 42 67 84 42 67 84 41 66 83 44 70 87 45 72 89 49 76 94 56 81 100 48 74 92 49 76 94 54 82 102 54 82 101
56 84 104 44 69 85 47 73 91 56 85 105 46 72 88 50 78 96 43 68 84 46 73 90 48 75 92 41 66 82 40 65 80 44 69 86 40 64 80 78 70 88 45 72 90 40 66 82
92 64 80 31 54 67 30 53 66 29 51 64 43 69 87 40 66 83 42 68 85 39 64 80 31 53 66 35 59 74 41 67 83 33 56 69 41 66 82 49 77 96 39 63 78 41 65 81
104 72 89 46 72 89 45 71 88 43 68 83 48 74 91 45 70 87 52 79 98 43 68 84 48 75 92 43 68 83 43 68 84 87 77 95 53 81 101 49 55 62 63 69 76 67 73 80
74 80 87 50 56 63 56 62 69 66 72 79 77 83 90 77 83 90 58 64 71 52 58 65 74 80 87 68 74 81 62 68 75 52 58 65 53 59 66 54 60 67 55 61 68 54 60 67
63 69 76 61 67 74 64 70 77 54 60 67 58 64 71 61 67 74 55 61 68 50 56 63 72 78 85 73 79 86 59 65 72 73 79 86 65 71 78 57 63 70 51 57 64 68 74 81
63 69 76 55 61 68 72 78 85 51 57 64 59 65 72 63 69 76 76 82 89 74 80 87 61 67 74 59 65 72 55 61 68 53 59 66 71 77 84 64 70 77 63 69 76 71 77 84
52 58 65 65 71 78 71 77 84 77 83 90 65 71 78 64 70 77 76 82 89 54 60 67 53 59 66 63 69 76 64 70 77 71 77 84 50 56 63 77 83 90 53 59 66 74 80 87
63 69 76 57 63 70 49 55 62 70 76 83 56 62 69 50 56 63 74 80 87 75 81 88 53 59 66 54 60 67 50 56 63 65 71 78 68 74 81 75 81 88 69 75 82 24 28 28
24 28 28 24 28 28 24 28 28 24 28 28 24 28 28 24 28 28 24 28 28 24 28 28 24 28 28 24 28 28 24 28 28 24 28 28 24 28 28 24 28 28 24 28 28 24 28 28
24 28 28 24 28 28 24 28 28 24 28 28 24 28 28 24 28 28 24 28 28 24 28 28 24 28 28 24 28 28 24 28 28 24 28 28 24 28 28 24 28 28 24 28 28 24 28 28
24 28 28 24 28 28 24 28 28 24 28 28 24 28 28 24 28 28 24 28 28 24 28 28 24 28 28 24 28 28 24 28 28 24 28 28 24 28 28 24 28 28 24 28 28 24 28 28
24 28 28 24 28 28 24 28 28 58 65 74 68 75 84 50 57 66 24 28 28 65 72 81 51 58 67 52 59 68 57 64 73 24 28 28 57 64 73 54 61 70 69 76 85 41 48 57
51 79 98 35 58 73 79 71 89 40 66 82 33 56 70 46 74 92 45 72 90 31 54 68 43 69 87 29 51 64 67 66 83 41 67 84 41 68 85 30 52 65 35 59 74 43 70 87
32 55 68 32 55 69 47 74 93 42 68 85 35 58 72 37 61 75 43 69 86 38 62 77 47 73 91 98 74 92 49 77 95 49 75 93 51 79 97 49 76 94 53 81 100 43 68 84
54 83 103 53 82 101 50 78 97 39 63 78 44 70 87 38 62 77 46 73 91 45 71 89 35 58 72 32 55 69 40 65 81 35 59 74 42 68 86 36 60 76 40 66 82 33 56 70
42 68 86 35 60 75 31 54 68 29 52 65 115 59 74 40 66 82 47 75 93 38 62 77 39 64 80 43 69 86 39 63 79 44 70 87 50 77 96 45 70 87 61 82 102 43 67 83
40 65 80 47 73 90 52 79 98 48 75 92 44 69 85 51 79 98 81 77 96 46 73 90 49 76 94 56 79 98 105 68 85 46 74 92 108 64 81 42 67 84 46 74 92 34 57 72
38 62 78 30 53 66 34 58 72 32 56 70 35 59 74 39 65 81 34 58 73 35 59 74 42 69 86 35 58 73 39 64 80 41 67 83 35 58 72 40 64 80 65 76 94 49 76 95
43 68 84 48 74 92 47 74 91 41 65 81 43 67 83 52 80 98 50 77 96 50 77 95 43 68 84 54 82 102 54 83 102 46 72 89 110 70 87 58 64 71 58 64 71 65 71 78
64 70 77 58 64 71 73 79 86 53 59 66 62 68 75 51 57 64 59 65 72 61 67 74 51 57 64 58 64 71 71 77 84 65 71 78 55 61 68 75 81 88 63 69 76 70 76 83
58 64 71 64 70 77 52 58 65 64 70 77 75 81 88 63 69 76 74 80 87 61 67 74 63 69 76 55 61 68 62 68 75 56 62 69 63 69 76 62 68 75 62 68 75 73 79 86
60 66 73 52 58 65 61 67 74 65 71 78 58 64 71 69 75 82 64 70 77 68 74 81 54 60 67 57 63 70 61 67 74 73 79 86 67 73 80 59 65 72 52 58 65 70 76 83
64 70 77 64 70 77 68 74 81 74 80 87 61 67 74 52 58 65 59 65 72 68 74 81 55 61 68 69 75 82 62 68 75 61 67 74 68 74 81 60 66 73 51 57 64 59 65 72
56 62 69 62 68 75 65 71 78 54 60 67 77 83 90 60 66 73 68 74 81 53 59 66 68 74 81 59 65 72 60 66 73 50 56 63 54 60 67 63 69 76 62 68 75 24 28 28
24 28 28 24 28 28 24 28 28 24 28 28 24 28 28 24 28 28 24 28 28 24 28 28 24 28 28 24 28 28 24 28 28 24 28 28 24 28 28 24 28 28 24 28 28 24 28 28
24 28 28 24 28 28 24 28 28 24 28 28 24 28 28 24 28 28 24 28 28 24 28 28 24 28 28 24 28 28 24 28 28 24 28 28 24 28 28 24 28 28 24 28 28 24 28 28
24 28 28 24 28 28 24 28 28 24 28 28 24 28 28 24 28 28 24 28 28 24 28 28 24 28 28 24 28 28 24 28 28 24 28 28 24 28 28 24 28 28 24 28 28 24 28 28
24 28 28 24 28 28 24 28 28 61 68 77 51 58 67 59 66 75 24 28 28 50 57 66 44 51 60 55 62 71 51 58 67 24 28 28 68 75 84 59 66 75 60 67 76 45 52 61
46 73 91 34 58 72 34 57 71 35 59 74 37 61 77 39 65 81 34 58 73 40 66 83 64 65 82 36 61 77 29 52 66 27 49 62 37 62 78 96 58 74 29 51 65 28 50 63
39 64 81 31 54 68 45 72 90 36 60 75 41 66 83 111 64 81 38 63 78 48 76 94 51 80 99 64 79 98 51 79 98 104 72 90 77 78 97 45 70 87 109 72 89 109 71 89
44 69 86 39 63 78 49 77 95 78 74 92 47 74 93 36 60 74 37 61 76 36 61 76 41 67 84 64 69 86 38 64 80 37 62 78 112 56 71 35 59 75 36 61 77 41 68 86
39 64 81 28 50 63 28 50 63 41 67 84 32 55 69 31 54 67 38 64 80 43 69 86 42 68 85 39 64 80 39 63 79 36 60 75 45 71 89 39 63 78 51 80 99 47 73 91
43 68 84 50 77 95 53 81 101 41 66 81 40 65 80 45 72 89 40 65 81 117 67 84 43 69 86 41 66 82 48 76 95 38 63 79 39 64 81 37 61 77 43 69 87 43 70 88
30 52 66 34 58 74 45 69 87 32 55 70 31 55 69 38 63 79 27 49 61 38 63 80 33 57 72 33 57 72 37 62 78 35 59 74 44 70 88 35 59 74 39 64 80 39 63 79
40 65 81 49 76 95 47 75 93 47 73 91 77 77 96 39 63 78 76 78 97 51 80 99 58 82 101 118 69 86 47 74 91 39 64 79 40 65 81 53 59 66 54 60 67 51 57 64
67 73 80 56 62 69 67 73 80 58 64 71 58 64 71 65 71 78 59 65 72 68 74 81 62 68 75 50 56 63 59 65 72 55 61 68 71 77 84 70 76 83 71 77 84 76 82 89
54 60 67 52 58 65 70 76 83 69 75 82 65 71 78 75 81 88 52 58 65 53 59 66 61 67 74 57 63 70 62 68 75 63 69 76 62 68 75 58 64 71 72 78 85 74 80 87
56 62 69 57 63 70 74 80 87 67 73 80 58 64 71 69 75 82 59 65 72 69 75 82 50 56 63 75 81 88 70 76 83 51 57 64 51 57 64 70 76 83 61 67 74 71 77 84
52 58 65 49 55 62 76 82 89 68 74 81 53 59 66 58 64 71 69 75 82 62 68 75 72 78 85 67 73 80 76 82 89 55 61 68 51 57 64 73 79 86 51 57 64 49 55 62
74 80 87 77 83 90 62 68 75 56 62 69 76 82 89 51 57 64 62 68 75 64 70 77 59 65 72 74 80 87 69 75 82 59 65 72 50 56 63 63 69 76 75 81 88 24 28 28
24 28 28 24 28 28 24 28 28 24 28 28 24 28 28 24 28 28 24 28 28 24 28 28 24 28 28 24 28 28 24 28 28 24 28 28 24 28 28 24 28 28 24 28 28 24 28 28
24 28 28 24 28 28 24 28 28 24 28 28 24 28 28 24 28 28 24 28 28 24 28 28 24 28 28 24 28 28 24 28 28 24 28 28 24 28 28 24 28 28 24 28 28 24 28 28
24 28 28 24 28 28 24 28 28 24 28 28 24 28 28 24 28 28 24 28 28 24 28 28 24 28 28 24 28 28 24 28 28 24 28 28 24 28 28 24 28 28 24 28 28 24 28 28
24 28 28 24 28 28 24 28 28 49 56 65 45 52 61 50 57 66 24 28 28 43 50 59 51 58 67 59 66 75 58 65 74 24 28 28 42 49 58 53 60 69 64 71 80 54 61 70
38 64 80 39 64 81 36 61 76 42 68 86 35 60 76 40 67 85 36 61 77 88 58 73 67 61 78 36 62 78 83 57 72 36 62 79 25 47 60 47 65 82 32 56 71 113 53 67
40 67 85 42 69 87 40 67 84 41 67 85 30 53 67 59 71 89 35 59 74 38 63 79 47 75 94 42 68 85 37 61 76 38 62 78 38 63 78 46 73 91 65 77 96 111 67 84
38 62 78 47 75 94 120 63 79 43 69 87 42 69 86 39 64 81 42 69 87 38 63 80 73 65 82 27 50 63 26 48 61 33 57 72 40 66 84 24 46 59 24 45 58 35 61 77
24 46 59 34 60 76 107 53 67 27 49 62 38 64 81 28 50 64 30 53 68 31 55 69 36 61 77 33 56 71 39 64 80 33 56 70 49 76 95 49 77 96 40 65 81 47 75 93
39 64 80 37 61 76 44 71 88 62 77 96 41 67 83 37 61 76 44 70 88 47 75 94 42 69 86 116 61 77 40 66 83 33 56 71 37 63 79 42 69 86 107 56 71 62 64 81
30 54 68 38 64 81 24 46 59 72 59 75 27 49 63 34 58 74 83 57 73 37 63 80 27 50 63 54 65 83 30 53 67 38 64 81 33 56 71 68 68 85 40 67 84 34 57 72
47 75 94 42 68 86 41 67 84 48 76 95 42 68 85 47 75 93 46 73 91 42 68 85 46 73 91 40 65 81 49 77 96 42 68 85 36 60 75 74 80 87 67 73 80 77 83 90
63 69 76 61 67 74 51 57 64 51 57 64 69 75 82 76 82 89 66 72 79 65 71 78 77 83 90 49 55 62 64 70 77 70 76 83 67 73 80 67 73 80 52 58 65 64 70 77
72 78 85 69 75 82 68 74 81 52 58 65 77 83 90 63 69 76 55 61 68 71 77 84 51 57 64 58 64 71 56 62 69 62 68 75 70 76 83 54 60 67 50 56 63 68 74 81
72 78 85 69 75 82 69 75 82 72 78 85 74 80 87 61 67 74 57 63 70 76 82 89 56 62 69 74 80 87 51 57 64 53 59 66 64 70 77 71 77 84 54 60 67 65 71 78
67 73 80 67 73 80 54 60 67 52 58 65 68 74 81 68 74 81 58 64 71 71 77 84 66 72 79 57 63 70 67 73 80 56 62 69 58 64 71 69 75 82 61 67 74 67 73 80
72 78 85 57 63 70 49 55 62 51 57 64 69 75 82 70 76 83 59 65 72 57 63 70 52 58 65 62 68 75 62 68 75 55 61 68 67 73 80 61 67 74 58 64 71 24 28 28
24 28 28 24 28 28 24 28 28 24 28 28 24 28 28 24 28 28 24 28 28 24 28 28 24 28 28 24 28 28 24 28 28 24 28 28 24 28 28 24 28 28 24 28 28 24 28 28
24 28 28 24 28 28 24 28 28 24 28 28 24 28 28 24 28 28 24 28 28 24 28 28 24 28 28 24 28 28 24 28 28 24 28 28 24 28 28 24 28 28 24 28 28 24 28 28
24 28 28 24 28 28 24 28 28 24 28 28 24 28 28 24 28 28 24 28 28 24 28 28 24 28 28 24 28 28 24 28 28 24 28 28 24 28 28 24 28 28 24 28 28 24 28 28
24 28 28 24 28 28 24 28 28 59 66 75 53 60 69 65 72 81 24 28 28 68 75 84 66 73 82 42 49 58 47 54 63 24 28 28 67 74 83 57 64 73 42 49 58 45 52 61
38 64 81 105 57 73 36 61 78 34 60 76 24 46 59 25 47 61 29 53 68 30 54 70 25 48 61 34 61 78 34 60 76 32 57 73 31 55 71 22 44 57 32 57 73 34 60 77
29 53 68 33 58 75 33 58 74 33 58 74 40 66 84 40 67 85 40 67 85 36 61 77 71 68 86 38 64 81 33 57 71 35 59 75 38 64 80 38 63 79 50 75 94 33 56 71
33 57 72 45 73 92 38 64 81 114 59 74 32 56 71 28 50 64 32 56 71 39 65 83 38 64 82 31 56 71 37 64 82 30 54 69 25 48 62 32 58 74 23 45 58 21 43 56
25 47 61 26 49 63 31 56 71 33 59 76 22 44 57 27 50 64 36 63 80 88 57 73 27 50 63 39 65 83 76 64 81 31 54 68 35 59 75 39 65 82 36 61 77 57 73 92
37 61 77 43 71 89 45 72 91 45 72 90 76 69 87 32 56 70 44 71 89 44 71 90 29 51 65 40 67 84 33 57 72 34 59 75 36 62 79 28 51 65 44 64 82 22 44 56
106 49 64 25 48 61 21 43 56 29 54 69 59 57 73 27 50 65 29 53 68 34 59 76 79 55 70 62 59 76 28 52 66 103 53 68 27 50 63 40 68 86 42 70 88 43 70 89
32 55 70 108 60 77 38 63 79 39 64 81 82 68 86 40 66 83 40 65 82 32 55 70 36 61 76 47 75 94 45 73 92 33 57 72 36 61 77 70 76 83 64 70 77 62 68 75
66 72 79 51 57 64 51 57 64 69 75 82 59 65 72 72 78 85 76 82 89 72 78 85 57 63 70 68 74 81 58 64 71 74 80 87 71 77 84 66 72 79 74 80 87 64 70 77
61 67 74 57 63 70 69 75 82 76 82 89 56 62 69 64 70 77 68 74 81 61 67 74 52 58 65 71 77 84 62 68 75 55 61 68 58 64 71 72 78 85 50 56 63 66 72 79
52 58 65 50 56 63 72 78 85 71 77 84 67 73 80 55 61 68 77 83 90 57 63 70 56 62 69 61 67 74 66 72 79 59 65 72 69 75 82 67 73 80 75 81 88 73 79 86
73 79 86 51 57 64 75 81 88 50 56 63 65 71 78 52 58 65 76 82 89 76 82 89 62 68 75 62 68 75 56 62 69 60 66 73 66 72 79 53 59 66 63 69 76 67 73 80
64 70 77 62 68 75 54 60 67 56 62 69 71 77 84 61 67 74 52 58 65 73 79 86 55 61 68 70 76 83 64 70 77 59 65 72 69 75 82 61 67 74 63 69 76 24 28 28
24 28 28 24 28 28 24 28 28 24 28 28 24 28 28 24 28 28 24 28 28 24 28 28 24 28 28 24 28 28 24 28 28 24 28 28 24 28 28 24 28 28 24 28 28 24 28 28
24 28 28 24 28 28 24 28 28 24 28 28 24 28 28 24 28 28 24 28 28 24 28 28 24 28 28 24 28 28 24 28 28 24 28 28 24 28 28 24 28 28 24 28 28 24 28 28
24 28 28 24 28 28 24 28 28 24 28 28 24 28 28 24 28 28 24 28 28 24 28 28 24 28 28 24 28 28 24 28 28 24 28 28 24 28 28 24 28 28 24 28 28 24 28 28
24 28 28 24 28 28 24 28 28 57 64 73 64 71 80 48 55 64 24 28 28 44 51 60 58 65 74 50 57 66 54 61 70 24 28 28 63 70 79 42 49 58 58 65 74 69 76 85
24 28 28 24 28 28 24 28 28 24 28 28 24 28 28 24 28 28 24 28 28 24 28 28 24 28 28 24 28 28 24 28 28 24 28 28 24 28 28 24 28 28 24 28 28 24 28 28
24 28 28 24 28 28 24 28 28 24 28 28 24 28 28 24 28 28 24 28 28 24 28 28 24 28 28 24 28 28 24 28 28 24 28 28 24 28 28 24 28 28 24 28 28 24 28 28
24 28 28 24 28 28 24 28 28 24 28 28 24 28 28 24 28 28 24 28 28 24 28 28 24 28 28 24 28 28 24 28 28 24 28 28 24 28 28 24 28 28 24 28 28 24 28 28
24 28 28 24 28 28 24 28 28 24 28 28 24 28 28 24 28 28 24 28 28 24 28 28 24 28 28 24 28 28 24 28 28 24 28 28 24 28 28 24 28 28 24 28 28 24 28 28
24 28 28 24 28 28 24 28 28 24 28 28 24 28 28 24 28 28 24 28 28 24 28 28 24 28 28 24 28 28 24 28 28 24 28 28 24 28 28 24 28 28 24 28 28 24 28 28
24 28 28 24 28 28 24 28 28 24 28 28 24 28 28 24 28 28 24 28 28 24 28 28 24 28 28 24 28 28 24 28 28 24 28 28 24 28 28 24 28 28 24 28 28 24 28 28
24 28 28 24 28 28 24 28 28 24 28 28 24 28 28 24 28 28 24 28 28 24 28 28 24 28 28 24 28 28 24 28 28 24 28 28 24 28 28 53 59 66 61 67 74 67 73 80
65 71 78 56 62 69 72 78 85 52 58 65 63 69 76 56 62 69 62 68 75 54 60 67 52 58 65 63 69 76 57 63 70 53 59 66 60 66 73 71 77 84 53 59 66 64 70 77
64 70 77 61 67 74 73 79 86 77 83 90 58 64 71 53 59 66 73 79 86 69 75 82 53 59 66 52 58 65 65 71 78 63 69 76 57 63 70 51 57 64 63 69 76 59 65 72
63 69 76 56 62 69 52 58 65 70 76 83 71 77 84 76 82 89 69 75 82 60 66 73 57 63 70 56 62 69 63 69 76 63 69 76 56 62 69 75 81 88 50 56 63 62 68 75
68 74 81 58 64 71 74 80 87 53 59 66 73 79 86 70 76 83 65 71 78 56 62 69 70 76 83 55 61 68 73 79 86 63 69 76 63 69 76 51 57 64 50 56 63 76 82 89
57 63 70 60 66 73 64 70 77 55 61 68 51 57 64 52 58 65 55 61 68 65 71 78 67 73 80 67 73 80 62 68 75 74 80 87 58 64 71 65 71 78 69 75 82 24 28 28
24 28 28 24 28 28 24 28 28 24 28 28 24 28 28 24 28 28 24 28 28 24 28 28 24 28 28 24 28 28 24 28 28 24 28 28 24 28 28 24 28 28 24 28 28 24 28 28
24 28 28 24 28 28 24 28 28 24 28 28 24 28 28 24 28 28 24 28 28 24 28 28 24 28 28 24 28 28 24 28 28 24 28 28 24 28 28 24 28 28 24 28 28 24 28 28
24 28 28 24 28 28 24 28 28 24 28 28 24 28 28 24 28 28 24 28 28 24 28 28 24 28 28 24 28 28 24 28 28 24 28 28 24 28 28 24 28 28 24 28 28 24 28 28
